;FLAVOR:Marlin
;TIME:3929
;Filament used: 3.05706m, 0m
;Layer height: 0.2
;MINX:0.7
;MINY:13.2
;MINZ:0.3
;MAXX:369.3
;MAXY:381.8
;MAXZ:0.8
;Generated with Cura_SteamEngine 5.0.0
T0
M140 S70
M105
M190 S70
M104 S215
M105
M109 S215
M82 ;absolute extrusion mode
;Sliced at: Tue 07-06-2022 17:38:50
G21 ;metric values
M107
G28
M420 S1
G90 ;absolute positioning
G92 E0; reset extruder distance
G1 X0 Y0 Z5 F5000 ;move nozzle up 5mm for safe homing
G29;ABL
M500
M82 ;set extruder to absolute mode
M107 ;start with the fan off
G1 X0 Y0 Z15.0 F5000 ;move the platform down 15mm
G92 E0 ;zero the extruded length
G1 F200 E3 ;extrude 3mm of feed stock
G1 F200 E0 ;Retract
G4 S2 ;Wait for material to fall
G1 F200 E3
G92 E0 ;zero the extruded length again
M117 Printing...
G92 E0
;WIPE
G91
G1 Z-0.5
G1 X -20 F3000
G1 X40
G1 X-20
G1 Z0.5
G90

G92 E0
G1 F2400 E-1
;LAYER_COUNT:1
;LAYER:0
M107
G1 F600 Z0.8
G0 F4800 X1.959 Y13.283 Z0.8
G1 F600 Z0.8
G0 F4800 X0.7 Y15
;TYPE:SKIRT
G1 F600 Z0.3
G1 F2400 E0.02495
G1 F1080 X0.74 Y14.623 E0.04197
G1 X0.858 Y14.263 E0.05898
G1 X1.048 Y13.936 E0.07596
G1 X1.303 Y13.655 E0.093
G1 X1.612 Y13.435 E0.11003
G1 X1.959 Y13.283 E0.12704
G1 X2.5 Y13.2 E0.15162
G1 X48.125 Y13.2 E2.20023
G1 X48.502 Y13.24 E2.21725
G1 X48.862 Y13.358 E2.23427
G1 X49.189 Y13.548 E2.25125
G1 X49.47 Y13.803 E2.26828
G1 X49.69 Y14.112 E2.28532
G1 X49.842 Y14.459 E2.30233
G1 X49.925 Y15 E2.3269
G1 X49.925 Y72.031 E4.88766
G1 X49.885 Y72.408 E4.90468
G1 X49.767 Y72.768 E4.92169
G1 X49.577 Y73.095 E4.93868
G1 X49.322 Y73.376 E4.95571
G1 X49.013 Y73.596 E4.97275
G1 X48.666 Y73.748 E4.98976
G1 X48.125 Y73.831 E5.01433
G1 X2.5 Y73.831 E7.06295
G1 X2.123 Y73.791 E7.07997
G1 X1.763 Y73.673 E7.09698
G1 X1.436 Y73.483 E7.11396
G1 X1.155 Y73.228 E7.131
G1 X0.935 Y72.919 E7.14803
G1 X0.783 Y72.572 E7.16504
G1 X0.7 Y72.031 E7.18962
G1 X0.7 Y15 E9.75038
G0 F4800 X1.1 Y15
G1 F1080 X1.14 Y14.668 E9.76539
G1 X1.257 Y14.356 E9.78035
G1 X1.445 Y14.079 E9.79539
G1 X1.693 Y13.856 E9.81036
G1 X1.987 Y13.697 E9.82537
G1 X2.5 Y13.6 E9.84881
G1 X48.125 Y13.6 E11.89743
G1 X48.457 Y13.64 E11.91244
G1 X48.769 Y13.757 E11.9274
G1 X49.046 Y13.945 E11.94244
G1 X49.269 Y14.193 E11.95741
G1 X49.428 Y14.487 E11.97242
G1 X49.525 Y15 E11.99586
G1 X49.525 Y72.031 E14.55662
G1 X49.485 Y72.363 E14.57164
G1 X49.368 Y72.675 E14.5866
G1 X49.18 Y72.952 E14.60163
G1 X48.932 Y73.175 E14.6166
G1 X48.638 Y73.334 E14.63161
G1 X48.125 Y73.431 E14.65505
G1 X2.5 Y73.431 E16.70367
G1 X2.168 Y73.391 E16.71869
G1 X1.856 Y73.274 E16.73365
G1 X1.579 Y73.086 E16.74868
G1 X1.356 Y72.838 E16.76366
G1 X1.197 Y72.544 E16.77866
G1 X1.1 Y72.031 E16.80211
G1 X1.1 Y15 E19.36286
G0 F4800 X1.5 Y15
G1 F1080 X1.54 Y14.721 E19.37552
G1 X1.656 Y14.464 E19.38818
G1 X1.839 Y14.249 E19.40086
G1 X2.075 Y14.095 E19.41351
G1 X2.5 Y14 E19.43307
G1 X48.125 Y14 E21.48168
G1 X48.404 Y14.04 E21.49434
G1 X48.661 Y14.156 E21.507
G1 X48.876 Y14.339 E21.51968
G1 X49.03 Y14.575 E21.53233
G1 X49.125 Y15 E21.55188
G1 X49.125 Y72.031 E24.11264
G1 X49.085 Y72.31 E24.1253
G1 X48.969 Y72.567 E24.13796
G1 X48.786 Y72.782 E24.15063
G1 X48.55 Y72.936 E24.16329
G1 X48.125 Y73.031 E24.18284
G1 X2.5 Y73.031 E26.23146
G1 X2.221 Y72.991 E26.24411
G1 X1.964 Y72.875 E26.25677
G1 X1.749 Y72.692 E26.26945
G1 X1.595 Y72.456 E26.28211
G1 X1.5 Y72.031 E26.30166
G1 X1.5 Y15 E28.86242
G0 F4800 X1.9 Y15
G1 F1080 X1.94 Y14.785 E28.87224
G1 X2.053 Y14.599 E28.88201
G1 X2.226 Y14.466 E28.89181
G1 X2.5 Y14.4 E28.90446
G1 X48.125 Y14.4 E30.95308
G1 X48.34 Y14.44 E30.9629
G1 X48.526 Y14.553 E30.97267
G1 X48.659 Y14.726 E30.98247
G1 X48.725 Y15 E30.99512
G1 X48.725 Y72.031 E33.55588
G1 X48.685 Y72.246 E33.5657
G1 X48.572 Y72.432 E33.57547
G1 X48.399 Y72.565 E33.58527
G1 X48.125 Y72.631 E33.59793
G1 X2.5 Y72.631 E35.64654
G1 X2.285 Y72.591 E35.65636
G1 X2.099 Y72.478 E35.66614
G1 X1.966 Y72.305 E35.67593
G1 X1.9 Y72.031 E35.68859
G1 X1.9 Y15 E38.24935
G0 F4800 X2.3 Y15
G1 F1080 X2.339 Y14.881 E38.25497
G1 X2.5 Y14.8 E38.26306
G1 X48.125 Y14.8 E40.31168
G1 X48.244 Y14.839 E40.3173
G1 X48.325 Y15 E40.32539
G1 X48.325 Y72.031 E42.88615
G1 X48.286 Y72.15 E42.89178
G1 X48.125 Y72.231 E42.89987
G1 X2.5 Y72.231 E44.94849
G1 X2.381 Y72.192 E44.95411
G1 X2.3 Y72.031 E44.9622
G1 X2.3 Y15 E47.52296
G1 F2400 E46.52296
G1 F600 Z0.8
G0 F4800 X2.5 Y167.185 Z0.8
G1 F600 Z0.3
G1 F2400 E47.54791
G1 F1080 X48.125 Y167.185 E49.59652
G1 X48.502 Y167.225 E49.61354
G1 X48.862 Y167.343 E49.63056
G1 X49.189 Y167.533 E49.64754
G1 X49.47 Y167.788 E49.66457
G1 X49.69 Y168.097 E49.68161
G1 X49.842 Y168.444 E49.69862
G1 X49.925 Y168.985 E49.72319
G1 X49.925 Y226.016 E52.28395
G1 X49.885 Y226.393 E52.30097
G1 X49.767 Y226.753 E52.31798
G1 X49.577 Y227.08 E52.33497
G1 X49.322 Y227.361 E52.352
G1 X49.013 Y227.581 E52.36904
G1 X48.666 Y227.733 E52.38605
G1 X48.125 Y227.816 E52.41062
G1 X2.5 Y227.816 E54.45924
G1 X2.123 Y227.776 E54.47626
G1 X1.763 Y227.658 E54.49327
G1 X1.436 Y227.468 E54.51025
G1 X1.155 Y227.213 E54.52729
G1 X0.935 Y226.904 E54.54432
G1 X0.783 Y226.557 E54.56133
G1 X0.7 Y226.016 E54.58591
G1 X0.7 Y168.985 E57.14667
G1 X0.74 Y168.608 E57.16369
G1 X0.858 Y168.248 E57.1807
G1 X1.048 Y167.921 E57.19768
G1 X1.303 Y167.64 E57.21472
G1 X1.612 Y167.42 E57.23175
G1 X1.959 Y167.268 E57.24876
G1 X2.5 Y167.185 E57.27334
G1 F2400 E56.27334
G1 F600 Z0.8
G0 F4800 X2.3 Y168.985 Z0.8
G1 F600 Z0.3
G1 F2400 E57.29828
G1 F1080 X2.339 Y168.866 E57.30391
G1 X2.5 Y168.785 E57.312
G1 X48.125 Y168.785 E59.36061
G1 X48.244 Y168.824 E59.36624
G1 X48.325 Y168.985 E59.37433
G1 X48.325 Y226.016 E61.93509
G1 X48.286 Y226.135 E61.94071
G1 X48.125 Y226.216 E61.9488
G1 X2.5 Y226.216 E63.99742
G1 X2.381 Y226.177 E64.00304
G1 X2.3 Y226.016 E64.01114
G1 X2.3 Y168.985 E66.5719
G0 F4800 X1.9 Y168.985
G1 F1080 X1.94 Y168.77 E66.58171
G1 X2.053 Y168.584 E66.59149
G1 X2.226 Y168.451 E66.60128
G1 X2.5 Y168.385 E66.61394
G1 X48.125 Y168.385 E68.66256
G1 X48.34 Y168.425 E68.67238
G1 X48.526 Y168.538 E68.68215
G1 X48.659 Y168.711 E68.69195
G1 X48.725 Y168.985 E68.7046
G1 X48.725 Y226.016 E71.26536
G1 X48.685 Y226.231 E71.27518
G1 X48.572 Y226.417 E71.28495
G1 X48.399 Y226.55 E71.29475
G1 X48.125 Y226.616 E71.3074
G1 X2.5 Y226.616 E73.35602
G1 X2.285 Y226.576 E73.36584
G1 X2.099 Y226.463 E73.37561
G1 X1.966 Y226.29 E73.38541
G1 X1.9 Y226.016 E73.39807
G1 X1.9 Y168.985 E75.95882
G0 F4800 X1.5 Y168.985
G1 F1080 X1.54 Y168.706 E75.97148
G1 X1.656 Y168.449 E75.98414
G1 X1.839 Y168.234 E75.99682
G1 X2.075 Y168.08 E76.00947
G1 X2.5 Y167.985 E76.02903
G1 X48.125 Y167.985 E78.07764
G1 X48.404 Y168.025 E78.0903
G1 X48.661 Y168.141 E78.10296
G1 X48.876 Y168.324 E78.11563
G1 X49.03 Y168.56 E78.12829
G1 X49.125 Y168.985 E78.14784
G1 X49.125 Y226.016 E80.7086
G1 X49.085 Y226.295 E80.72126
G1 X48.969 Y226.552 E80.73392
G1 X48.786 Y226.767 E80.74659
G1 X48.55 Y226.921 E80.75925
G1 X48.125 Y227.016 E80.7788
G1 X2.5 Y227.016 E82.82742
G1 X2.221 Y226.976 E82.84007
G1 X1.964 Y226.86 E82.85273
G1 X1.749 Y226.677 E82.86541
G1 X1.595 Y226.441 E82.87806
G1 X1.5 Y226.016 E82.89762
G1 X1.5 Y168.985 E85.45838
G0 F4800 X1.1 Y168.985
G1 F1080 X1.14 Y168.653 E85.47339
G1 X1.257 Y168.341 E85.48836
G1 X1.445 Y168.064 E85.50339
G1 X1.693 Y167.841 E85.51836
G1 X1.987 Y167.682 E85.53337
G1 X2.5 Y167.585 E85.55681
G1 X48.125 Y167.585 E87.60543
G1 X48.457 Y167.625 E87.62044
G1 X48.769 Y167.742 E87.63541
G1 X49.046 Y167.93 E87.65044
G1 X49.269 Y168.178 E87.66541
G1 X49.428 Y168.472 E87.68042
G1 X49.525 Y168.985 E87.70386
G1 X49.525 Y226.016 E90.26462
G1 X49.485 Y226.348 E90.27964
G1 X49.368 Y226.66 E90.2946
G1 X49.18 Y226.937 E90.30963
G1 X48.932 Y227.16 E90.32461
G1 X48.638 Y227.319 E90.33961
G1 X48.125 Y227.416 E90.36306
G1 X2.5 Y227.416 E92.41167
G1 X2.168 Y227.376 E92.42669
G1 X1.856 Y227.259 E92.44165
G1 X1.579 Y227.071 E92.45668
G1 X1.356 Y226.823 E92.47166
G1 X1.197 Y226.529 E92.48666
G1 X1.1 Y226.016 E92.51011
G1 X1.1 Y168.985 E95.07087
G1 F2400 E94.07087
G1 F600 Z0.8
G0 F4800 X1.959 Y321.252 Z0.8
G1 F600 Z0.3
G1 F2400 E95.09581
G1 F1080 X2.5 Y321.169 E95.12039
G1 X48.125 Y321.169 E97.169
G1 X48.502 Y321.209 E97.18603
G1 X48.862 Y321.327 E97.20304
G1 X49.189 Y321.517 E97.22002
G1 X49.47 Y321.772 E97.23706
G1 X49.69 Y322.081 E97.25409
G1 X49.842 Y322.428 E97.2711
G1 X49.925 Y322.969 E97.29567
G1 X49.925 Y380 E99.85643
G1 X49.885 Y380.377 E99.87346
G1 X49.767 Y380.737 E99.89047
G1 X49.577 Y381.064 E99.90745
G1 X49.322 Y381.345 E99.92449
G1 X49.013 Y381.565 E99.94152
G1 X48.666 Y381.717 E99.95853
G1 X48.125 Y381.8 E99.9831
G1 X2.5 Y381.8 E102.03172
G1 X2.123 Y381.76 E102.04874
G1 X1.763 Y381.642 E102.06575
G1 X1.436 Y381.452 E102.08273
G1 X1.155 Y381.197 E102.09977
G1 X0.935 Y380.888 E102.1168
G1 X0.783 Y380.541 E102.13381
G1 X0.7 Y380 E102.15839
G1 X0.7 Y322.969 E104.71915
G1 X0.74 Y322.592 E104.73617
G1 X0.858 Y322.232 E104.75318
G1 X1.048 Y321.905 E104.77016
G1 X1.303 Y321.624 E104.7872
G1 X1.612 Y321.404 E104.80423
G1 X1.959 Y321.252 E104.82124
G1 F2400 E103.82124
G1 F600 Z0.8
G0 F4800 X1.9 Y322.969 Z0.8
G1 F600 Z0.3
G1 F2400 E104.84619
G1 F1080 X1.94 Y322.754 E104.85601
G1 X2.053 Y322.568 E104.86578
G1 X2.226 Y322.435 E104.87558
G1 X2.5 Y322.369 E104.88823
G1 X48.125 Y322.369 E106.93685
G1 X48.34 Y322.409 E106.94667
G1 X48.526 Y322.522 E106.95644
G1 X48.659 Y322.695 E106.96624
G1 X48.725 Y322.969 E106.97889
G1 X48.725 Y380 E109.53965
G1 X48.685 Y380.215 E109.54947
G1 X48.572 Y380.401 E109.55924
G1 X48.399 Y380.534 E109.56904
G1 X48.125 Y380.6 E109.5817
G1 X2.5 Y380.6 E111.63031
G1 X2.285 Y380.56 E111.64013
G1 X2.099 Y380.447 E111.6499
G1 X1.966 Y380.274 E111.6597
G1 X1.9 Y380 E111.67236
G1 X1.9 Y322.969 E114.23312
G0 F4800 X2.3 Y322.969
G1 F1080 X2.339 Y322.85 E114.23874
G1 X2.5 Y322.769 E114.24683
G1 X48.125 Y322.769 E116.29545
G1 X48.244 Y322.808 E116.30107
G1 X48.325 Y322.969 E116.30916
G1 X48.325 Y380 E118.86992
G1 X48.286 Y380.119 E118.87555
G1 X48.125 Y380.2 E118.88364
G1 X2.5 Y380.2 E120.93226
G1 X2.381 Y380.161 E120.93788
G1 X2.3 Y380 E120.94597
G1 X2.3 Y322.969 E123.50673
G0 F4800 X1.5 Y322.969
G1 F1080 X1.54 Y322.69 E123.51939
G1 X1.656 Y322.433 E123.53205
G1 X1.839 Y322.218 E123.54472
G1 X2.075 Y322.064 E123.55738
G1 X2.5 Y321.969 E123.57693
G1 X48.125 Y321.969 E125.62555
G1 X48.404 Y322.009 E125.6382
G1 X48.661 Y322.125 E125.65086
G1 X48.876 Y322.308 E125.66354
G1 X49.03 Y322.544 E125.67619
G1 X49.125 Y322.969 E125.69575
G1 X49.125 Y380 E128.25651
G1 X49.085 Y380.279 E128.26916
G1 X48.969 Y380.536 E128.28182
G1 X48.786 Y380.751 E128.2945
G1 X48.55 Y380.905 E128.30715
G1 X48.125 Y381 E128.32671
G1 X2.5 Y381 E130.37532
G1 X2.221 Y380.96 E130.38798
G1 X1.964 Y380.844 E130.40064
G1 X1.749 Y380.661 E130.41332
G1 X1.595 Y380.425 E130.42597
G1 X1.5 Y380 E130.44552
G1 X1.5 Y322.969 E133.00628
G0 F4800 X1.1 Y322.969
G1 F1080 X1.14 Y322.637 E133.0213
G1 X1.257 Y322.325 E133.03626
G1 X1.445 Y322.048 E133.05129
G1 X1.693 Y321.825 E133.06627
G1 X1.987 Y321.666 E133.08128
G1 X2.5 Y321.569 E133.10472
G1 X48.125 Y321.569 E135.15333
G1 X48.457 Y321.609 E135.16835
G1 X48.769 Y321.726 E135.18331
G1 X49.046 Y321.914 E135.19834
G1 X49.269 Y322.162 E135.21332
G1 X49.428 Y322.456 E135.22833
G1 X49.525 Y322.969 E135.25177
G1 X49.525 Y380 E137.81253
G1 X49.485 Y380.332 E137.82754
G1 X49.368 Y380.644 E137.8425
G1 X49.18 Y380.921 E137.85754
G1 X48.932 Y381.144 E137.87251
G1 X48.638 Y381.303 E137.88752
G1 X48.125 Y381.4 E137.91096
G1 X2.5 Y381.4 E139.95958
G1 X2.168 Y381.36 E139.97459
G1 X1.856 Y381.243 E139.98955
G1 X1.579 Y381.055 E140.00459
G1 X1.356 Y380.807 E140.01956
G1 X1.197 Y380.513 E140.03457
G1 X1.1 Y380 E140.05801
G1 X1.1 Y322.969 E142.61877
G1 F2400 E141.61877
G1 F600 Z0.8
G0 F4800 X160.387 Y322.969 Z0.8
G1 F600 Z0.3
G1 F2400 E142.64372
G1 F1080 X160.427 Y322.592 E142.66074
G1 X160.545 Y322.232 E142.67775
G1 X160.735 Y321.905 E142.69473
G1 X160.99 Y321.624 E142.71177
G1 X161.299 Y321.404 E142.7288
G1 X161.646 Y321.252 E142.74581
G1 X162.187 Y321.169 E142.77039
G1 X207.813 Y321.169 E144.81905
G1 X208.19 Y321.209 E144.83607
G1 X208.55 Y321.327 E144.85308
G1 X208.877 Y321.517 E144.87006
G1 X209.158 Y321.772 E144.8871
G1 X209.378 Y322.081 E144.90413
G1 X209.53 Y322.428 E144.92114
G1 X209.613 Y322.969 E144.94572
G1 X209.613 Y380 E147.50648
G1 X209.573 Y380.377 E147.5235
G1 X209.455 Y380.737 E147.54051
G1 X209.265 Y381.064 E147.55749
G1 X209.01 Y381.345 E147.57453
G1 X208.701 Y381.565 E147.59156
G1 X208.354 Y381.717 E147.60857
G1 X207.813 Y381.8 E147.63315
G1 X162.187 Y381.8 E149.68181
G1 X161.81 Y381.76 E149.69883
G1 X161.45 Y381.642 E149.71584
G1 X161.123 Y381.452 E149.73282
G1 X160.842 Y381.197 E149.74986
G1 X160.622 Y380.888 E149.76689
G1 X160.47 Y380.541 E149.7839
G1 X160.387 Y380 E149.80848
G1 X160.387 Y322.969 E152.36924
G0 F4800 X160.787 Y322.969
G1 F1080 X160.827 Y322.637 E152.38425
G1 X160.944 Y322.325 E152.39922
G1 X161.132 Y322.048 E152.41425
G1 X161.38 Y321.825 E152.42922
G1 X161.674 Y321.666 E152.44423
G1 X162.187 Y321.569 E152.46767
G1 X207.813 Y321.569 E154.51633
G1 X208.145 Y321.609 E154.53135
G1 X208.457 Y321.726 E154.54631
G1 X208.734 Y321.914 E154.56134
G1 X208.957 Y322.162 E154.57632
G1 X209.116 Y322.456 E154.59133
G1 X209.213 Y322.969 E154.61477
G1 X209.213 Y380 E157.17553
G1 X209.173 Y380.332 E157.19054
G1 X209.056 Y380.644 E157.2055
G1 X208.868 Y380.921 E157.22054
G1 X208.62 Y381.144 E157.23551
G1 X208.326 Y381.303 E157.25052
G1 X207.813 Y381.4 E157.27396
G1 X162.187 Y381.4 E159.32262
G1 X161.855 Y381.36 E159.33764
G1 X161.543 Y381.243 E159.3526
G1 X161.266 Y381.055 E159.36763
G1 X161.043 Y380.807 E159.38261
G1 X160.884 Y380.513 E159.39761
G1 X160.787 Y380 E159.42106
G1 X160.787 Y322.969 E161.98182
G0 F4800 X161.187 Y322.969
G1 F1080 X161.227 Y322.69 E161.99447
G1 X161.343 Y322.433 E162.00713
G1 X161.526 Y322.218 E162.01981
G1 X161.762 Y322.064 E162.03246
G1 X162.187 Y321.969 E162.05202
G1 X207.813 Y321.969 E164.10068
G1 X208.092 Y322.009 E164.11333
G1 X208.349 Y322.125 E164.12599
G1 X208.564 Y322.308 E164.13867
G1 X208.718 Y322.544 E164.15132
G1 X208.813 Y322.969 E164.17088
G1 X208.813 Y380 E166.73164
G1 X208.773 Y380.279 E166.74429
G1 X208.657 Y380.536 E166.75695
G1 X208.474 Y380.751 E166.76963
G1 X208.238 Y380.905 E166.78228
G1 X207.813 Y381 E166.80184
G1 X162.187 Y381 E168.8505
G1 X161.908 Y380.96 E168.86315
G1 X161.651 Y380.844 E168.87582
G1 X161.436 Y380.661 E168.88849
G1 X161.282 Y380.425 E168.90115
G1 X161.187 Y380 E168.9207
G1 X161.187 Y322.969 E171.48146
G0 F4800 X161.587 Y322.969
G1 F1080 X161.627 Y322.754 E171.49128
G1 X161.74 Y322.568 E171.50105
G1 X161.913 Y322.435 E171.51085
G1 X162.187 Y322.369 E171.5235
G1 X207.813 Y322.369 E173.57217
G1 X208.028 Y322.409 E173.58198
G1 X208.214 Y322.522 E173.59176
G1 X208.347 Y322.695 E173.60155
G1 X208.413 Y322.969 E173.61421
G1 X208.413 Y380 E176.17497
G1 X208.373 Y380.215 E176.18479
G1 X208.26 Y380.401 E176.19456
G1 X208.087 Y380.534 E176.20436
G1 X207.813 Y380.6 E176.21701
G1 X162.187 Y380.6 E178.26567
G1 X161.972 Y380.56 E178.27549
G1 X161.786 Y380.447 E178.28527
G1 X161.653 Y380.274 E178.29506
G1 X161.587 Y380 E178.30772
G1 X161.587 Y322.969 E180.86848
G0 F4800 X161.987 Y322.969
G1 F1080 X162.026 Y322.85 E180.8741
G1 X162.187 Y322.769 E180.88219
G1 X207.813 Y322.769 E182.93086
G1 X207.932 Y322.808 E182.93648
G1 X208.013 Y322.969 E182.94457
G1 X208.013 Y380 E185.50533
G1 X207.974 Y380.119 E185.51095
G1 X207.813 Y380.2 E185.51904
G1 X162.187 Y380.2 E187.56771
G1 X162.068 Y380.161 E187.57333
G1 X161.987 Y380 E187.58142
G1 X161.987 Y322.969 E190.14218
G1 F2400 E189.14218
G1 F600 Z0.8
G0 F4800 X161.81 Y227.776 Z0.8
G1 F600 Z0.3
G1 F2400 E190.16713
G1 F1080 X161.45 Y227.658 E190.18414
G1 X161.123 Y227.468 E190.20112
G1 X160.842 Y227.213 E190.21816
G1 X160.622 Y226.904 E190.23519
G1 X160.47 Y226.557 E190.2522
G1 X160.387 Y226.016 E190.27677
G1 X160.387 Y168.985 E192.83753
G1 X160.427 Y168.608 E192.85456
G1 X160.545 Y168.248 E192.87157
G1 X160.735 Y167.921 E192.88855
G1 X160.99 Y167.64 E192.90559
G1 X161.299 Y167.42 E192.92262
G1 X161.646 Y167.268 E192.93963
G1 X162.187 Y167.185 E192.9642
G1 X207.813 Y167.185 E195.01286
G1 X208.19 Y167.225 E195.02989
