;FLAVOR:Marlin
;TIME:5078
;Filament used: 1.85472m, 0m
;Layer height: 0.2
;MINX:158.55
;MINY:171.05
;MINZ:0.3
;MAXX:211.45
;MAXY:223.95
;MAXZ:16.6
;Generated with Cura_SteamEngine 5.0.0
T0
M140 S70
M105
M190 S70
M104 S215
M105
M109 S215
M82 ;absolute extrusion mode
;Sliced at: Tue 07-06-2022 17:41:42
G21 ;metric values
M107
G28
M420 S1
G90 ;absolute positioning
G92 E0; reset extruder distance
G1 X0 Y0 Z5 F5000 ;move nozzle up 5mm for safe homing
G29;ABL
M500
M82 ;set extruder to absolute mode
M107 ;start with the fan off
G1 X0 Y0 Z15.0 F5000 ;move the platform down 15mm
G92 E0 ;zero the extruded length
G1 F200 E3 ;extrude 3mm of feed stock
G1 F200 E0 ;Retract
G4 S2 ;Wait for material to fall
G1 F200 E3
G92 E0 ;zero the extruded length again
M117 Printing...
G92 E0
;WIPE
G91
G1 Z-0.5
G1 X -20 F3000
G1 X40
G1 X-20
G1 Z0.5
G90

G92 E0
G1 F2400 E-1
;LAYER_COUNT:80
;LAYER:0
M107
G1 F600 Z0.8
G0 F4800 X159.153 Y171.505 Z0.8
G1 F600 Z0.8
G0 F4800 X158.55 Y172.85
;TYPE:SKIRT
G1 F600 Z0.3
G1 F2400 E0.02495
G1 F1080 X158.59 Y172.473 E0.04197
G1 X158.708 Y172.113 E0.05898
G1 X158.898 Y171.786 E0.07596
G1 X159.153 Y171.505 E0.093
G1 X159.462 Y171.285 E0.11003
G1 X159.809 Y171.133 E0.12704
G1 X160.35 Y171.05 E0.15162
G1 X209.65 Y171.05 E2.36524
G1 X210.027 Y171.09 E2.38227
G1 X210.387 Y171.208 E2.39928
G1 X210.714 Y171.398 E2.41626
G1 X210.995 Y171.653 E2.4333
G1 X211.215 Y171.962 E2.45033
G1 X211.367 Y172.309 E2.46734
G1 X211.45 Y172.85 E2.49191
G1 X211.45 Y222.15 E4.70554
G1 X211.41 Y222.527 E4.72256
G1 X211.292 Y222.887 E4.73958
G1 X211.102 Y223.214 E4.75656
G1 X210.847 Y223.495 E4.77359
G1 X210.538 Y223.715 E4.79063
G1 X210.191 Y223.867 E4.80764
G1 X209.65 Y223.95 E4.83221
G1 X160.35 Y223.95 E7.04584
G1 X159.973 Y223.91 E7.06286
G1 X159.613 Y223.792 E7.07987
G1 X159.286 Y223.602 E7.09685
G1 X159.005 Y223.347 E7.11389
G1 X158.785 Y223.038 E7.13092
G1 X158.633 Y222.691 E7.14793
G1 X158.55 Y222.15 E7.17251
G1 X158.55 Y172.85 E9.38614
G0 F4800 X158.95 Y172.85
G1 F1080 X158.99 Y172.518 E9.40115
G1 X159.107 Y172.206 E9.41612
G1 X159.295 Y171.929 E9.43115
G1 X159.543 Y171.706 E9.44612
G1 X159.837 Y171.547 E9.46113
G1 X160.35 Y171.45 E9.48457
G1 X209.65 Y171.45 E11.6982
G1 X209.982 Y171.49 E11.71322
G1 X210.294 Y171.607 E11.72818
G1 X210.571 Y171.795 E11.74321
G1 X210.794 Y172.043 E11.75818
G1 X210.953 Y172.337 E11.77319
G1 X211.05 Y172.85 E11.79663
G1 X211.05 Y222.15 E14.01026
G1 X211.01 Y222.482 E14.02528
G1 X210.893 Y222.794 E14.04024
G1 X210.705 Y223.071 E14.05527
G1 X210.457 Y223.294 E14.07025
G1 X210.163 Y223.453 E14.08525
G1 X209.65 Y223.55 E14.1087
G1 X160.35 Y223.55 E16.32233
G1 X160.018 Y223.51 E16.33734
G1 X159.706 Y223.393 E16.3523
G1 X159.429 Y223.205 E16.36733
G1 X159.206 Y222.957 E16.38231
G1 X159.047 Y222.663 E16.39732
G1 X158.95 Y222.15 E16.42076
G1 X158.95 Y172.85 E18.63439
G0 F4800 X159.35 Y172.85
G1 F1080 X159.39 Y172.571 E18.64704
G1 X159.506 Y172.314 E18.6597
G1 X159.689 Y172.099 E18.67238
G1 X159.925 Y171.945 E18.68503
G1 X160.35 Y171.85 E18.70459
G1 X209.65 Y171.85 E20.91822
G1 X209.929 Y171.89 E20.93087
G1 X210.186 Y172.006 E20.94353
G1 X210.401 Y172.189 E20.95621
G1 X210.555 Y172.425 E20.96886
G1 X210.65 Y172.85 E20.98842
G1 X210.65 Y222.15 E23.20205
G1 X210.61 Y222.429 E23.2147
G1 X210.494 Y222.686 E23.22736
G1 X210.311 Y222.901 E23.24004
G1 X210.075 Y223.055 E23.25269
G1 X209.65 Y223.15 E23.27225
G1 X160.35 Y223.15 E25.48587
G1 X160.071 Y223.11 E25.49853
G1 X159.814 Y222.994 E25.51119
G1 X159.599 Y222.811 E25.52387
G1 X159.445 Y222.575 E25.53652
G1 X159.35 Y222.15 E25.55607
G1 X159.35 Y172.85 E27.7697
G0 F4800 X159.75 Y172.85
G1 F1080 X159.79 Y172.635 E27.77952
G1 X159.903 Y172.449 E27.78929
G1 X160.076 Y172.316 E27.79909
G1 X160.35 Y172.25 E27.81175
G1 X209.65 Y172.25 E30.02538
G1 X209.865 Y172.29 E30.0352
G1 X210.051 Y172.403 E30.04497
G1 X210.184 Y172.576 E30.05477
G1 X210.25 Y172.85 E30.06742
G1 X210.25 Y222.15 E32.28105
G1 X210.21 Y222.365 E32.29087
G1 X210.097 Y222.551 E32.30064
G1 X209.924 Y222.684 E32.31044
G1 X209.65 Y222.75 E32.32309
G1 X160.35 Y222.75 E34.53672
G1 X160.135 Y222.71 E34.54654
G1 X159.949 Y222.597 E34.55631
G1 X159.816 Y222.424 E34.56611
G1 X159.75 Y222.15 E34.57877
G1 X159.75 Y172.85 E36.79239
G0 F4800 X160.15 Y172.85
G1 F1080 X160.189 Y172.731 E36.79802
G1 X160.35 Y172.65 E36.80611
G1 X209.65 Y172.65 E39.01974
G1 X209.769 Y172.689 E39.02536
G1 X209.85 Y172.85 E39.03345
G1 X209.85 Y222.15 E41.24708
G1 X209.811 Y222.269 E41.2527
G1 X209.65 Y222.35 E41.2608
G1 X160.35 Y222.35 E43.47442
G1 X160.231 Y222.311 E43.48005
G1 X160.15 Y222.15 E43.48814
G1 X160.15 Y172.85 E45.70177
;MESH:XY_resonance_1.0mm_walls.stl
G0 F4800 X160.551 Y173.051
;TYPE:WALL-OUTER
G1 F1080 X160.55 Y215.697 E47.61662
G1 X160.551 Y221.949 E47.89735
G1 X209.45 Y221.95 E50.09297
G1 X209.45 Y178.503 E52.04379
G1 X209.45 Y173.05 E52.28864
G1 X160.551 Y173.051 E54.48426
G0 F4800 X160.551 Y173.251
G0 X160.951 Y173.451
;TYPE:WALL-INNER
G1 F1080 X160.95 Y215.697 E56.38116
G1 X160.951 Y221.549 E56.64392
G1 X209.05 Y221.55 E58.80362
G1 X209.05 Y178.503 E60.73648
G1 X209.05 Y173.45 E60.96337
G1 X160.951 Y173.451 E63.12307
G0 F4800 X161.351 Y173.851
G1 F1080 X161.35 Y215.697 E65.002
G1 X161.351 Y221.149 E65.2468
G1 X208.65 Y221.15 E67.37059
G1 X208.65 Y178.503 E69.28549
G1 X208.65 Y173.85 E69.49441
G1 X161.351 Y173.851 E71.61819
G1 F2400 E70.61819
G1 F600 Z0.8
G0 F4800 X169.8 Y182.5 Z0.8
;TYPE:WALL-OUTER
G1 F600 Z0.3
G1 F2400 E71.64314
G1 F1080 X169.858 Y182.358 E71.65002
G1 X169.88 Y182.339 E71.65133
G1 X170 Y182.3 E71.657
G1 X200 Y182.3 E73.00403
G1 X200.142 Y182.358 E73.01092
G1 X200.2 Y182.5 E73.01781
G1 X200.2 Y212.5 E74.36484
G1 X200.142 Y212.642 E74.37173
G1 X200 Y212.7 E74.37862
G1 X170 Y212.7 E75.72565
G1 X169.858 Y212.642 E75.73254
G1 X169.8 Y212.5 E75.73943
G1 X169.8 Y182.5 E77.08646
G0 F4800 X169.858 Y182.358
G0 X169.88 Y182.339
G0 X169.897 Y182.334
G0 X169.4 Y182.5
;TYPE:WALL-INNER
G1 F1080 X169.469 Y182.219 E77.09945
G1 X169.641 Y182.018 E77.11133
G1 X169.901 Y181.908 E77.12401
G1 X170 Y181.9 E77.12847
G1 X200 Y181.9 E78.4755
G1 X200.281 Y181.969 E78.48849
G1 X200.482 Y182.141 E78.50037
G1 X200.592 Y182.401 E78.51305
G1 X200.6 Y182.5 E78.51751
G1 X200.6 Y212.5 E79.86454
G1 X200.531 Y212.781 E79.87754
G1 X200.359 Y212.982 E79.88942
G1 X200.099 Y213.092 E79.90209
G1 X200 Y213.1 E79.90655
G1 X170 Y213.1 E81.25359
G1 X169.719 Y213.031 E81.26658
G1 X169.518 Y212.859 E81.27846
G1 X169.408 Y212.599 E81.29113
G1 X169.4 Y212.5 E81.29559
G1 X169.4 Y182.5 E82.64263
G1 F2400 E81.64263
G1 F600 Z0.8
G0 F4800 X169.197 Y213.098 Z0.8
G1 F600 Z0.3
G1 F2400 E82.66757
G1 F1080 X169.053 Y212.823 E82.68151
G1 X169 Y212.5 E82.69621
G1 X169 Y182.5 E84.04324
G1 X169.053 Y182.177 E84.05794
G1 X169.197 Y181.902 E84.07188
G1 X169.402 Y181.697 E84.0849
G1 X169.677 Y181.553 E84.09884
G1 X170 Y181.5 E84.11353
G1 X200 Y181.5 E85.46057
G1 X200.323 Y181.553 E85.47526
G1 X200.598 Y181.697 E85.4892
G1 X200.803 Y181.902 E85.50222
G1 X200.947 Y182.177 E85.51616
G1 X201 Y182.5 E85.53086
G1 X201 Y212.5 E86.87789
G1 X200.947 Y212.823 E86.89259
G1 X200.803 Y213.098 E86.90653
G1 X200.598 Y213.303 E86.91954
G1 X200.323 Y213.447 E86.93348
G1 X200 Y213.5 E86.94818
G1 X170 Y213.5 E88.29521
G1 X169.677 Y213.447 E88.30991
G1 X169.402 Y213.303 E88.32385
G1 X169.197 Y213.098 E88.33687
G1 F2400 E87.33687
G1 F600 Z0.8
G0 F4800 X169.007 Y181.726 Z0.8
;TYPE:SKIN
G1 F600 Z0.3
G1 F2400 E88.36181
G1 F1080 X169.274 Y181.472 E88.37836
G1 X169.623 Y181.299 E88.39585
G1 X170.013 Y181.24 E88.41356
G1 X199.989 Y181.24 E89.75952
G1 X200.44 Y181.32 E89.78008
G1 X200.774 Y181.507 E89.79727
G1 X201.028 Y181.774 E89.81382
G1 X201.201 Y182.122 E89.83127
G1 X201.26 Y182.511 E89.84894
G1 X201.26 Y212.489 E91.19498
G1 X201.18 Y212.939 E91.21551
G1 X200.993 Y213.274 E91.23273
G1 X200.726 Y213.528 E91.24928
G1 X200.377 Y213.701 E91.26677
G1 X199.987 Y213.76 E91.28448
G1 X170.011 Y213.76 E92.63044
G1 X169.56 Y213.68 E92.651
G1 X169.226 Y213.493 E92.66819
G1 X168.972 Y213.226 E92.68474
G1 X168.799 Y212.877 E92.70223
G1 X168.74 Y212.489 E92.71985
G1 X168.74 Y182.511 E94.0659
G1 X168.82 Y182.06 E94.08646
G1 X169.007 Y181.726 E94.10365
G1 F2400 E93.10365
G1 F600 Z0.8
G0 F4800 X161.612 Y174.112 Z0.8
G1 F600 Z0.3
G1 F2400 E94.1286
G1 F1080 X161.612 Y220.888 E96.2289
G1 X208.39 Y220.89 E98.32928
G1 X208.39 Y178.508 E100.23228
G1 X208.39 Y174.11 E100.42976
G1 X166.008 Y174.111 E102.33276
G1 X161.612 Y174.112 E102.53015
G0 F4800 X162.012 Y174.512
G1 F1080 X162.012 Y220.488 E104.59452
G1 X207.99 Y220.49 E106.65899
G1 X207.99 Y178.508 E108.54403
G1 X207.99 Y174.51 E108.72355
G1 X166.008 Y174.511 E110.60859
G1 X162.012 Y174.512 E110.78801
G1 F2400 E109.78801
G1 F600 Z0.8
G0 F4800 X201.333 Y213.491 Z0.8
G1 F600 Z0.3
G1 F2400 E110.81296
G1 F1080 X201.276 Y213.557 E110.81687
G1 X200.913 Y213.882 E110.83875
G1 X200.449 Y214.095 E110.86168
G1 X199.987 Y214.16 E110.88262
G1 X170.011 Y214.16 E112.22858
G1 X169.461 Y214.072 E112.25359
G1 X169.009 Y213.833 E112.27655
G1 X168.667 Y213.491 E112.29827
G1 X168.428 Y213.037 E112.3213
G1 X168.34 Y212.489 E112.34623
G1 X168.34 Y182.511 E113.69227
G1 X168.428 Y181.961 E113.71728
G1 X168.667 Y181.509 E113.74024
G1 X169.009 Y181.167 E113.76196
G1 X169.463 Y180.928 E113.785
G1 X170.013 Y180.84 E113.81001
G1 X199.989 Y180.84 E115.15596
G1 X200.538 Y180.928 E115.18093
G1 X200.991 Y181.167 E115.20393
G1 X201.333 Y181.509 E115.22564
G1 X201.572 Y181.961 E115.2486
G1 X201.66 Y182.511 E115.27361
G1 X201.66 Y212.489 E116.61966
G1 X201.573 Y213.037 E116.64457
G1 X201.333 Y213.491 E116.66763
G1 F2400 E115.66763
G1 F600 Z0.8
G0 F4800 X207.79 Y174.98 Z0.8
G1 F600 Z0.3
G1 F2400 E116.69258
G1 F1080 X207.52 Y174.71 E116.70972
G0 F4800 X206.954 Y174.71
G1 F1080 X207.79 Y175.546 E116.76281
G0 F4800 X207.79 Y176.112
G1 F1080 X206.388 Y174.71 E116.85183
G0 F4800 X205.823 Y174.71
G1 F1080 X207.79 Y176.677 E116.97674
G0 F4800 X207.79 Y177.243
G1 F1080 X205.257 Y174.71 E117.13758
G0 F4800 X204.691 Y174.71
G1 F1080 X207.79 Y177.809 E117.33437
G0 F4800 X207.79 Y178.374
G1 F1080 X204.126 Y174.71 E117.56703
G0 F4800 X203.56 Y174.71
G1 F1080 X207.79 Y178.94 E117.83564
G0 F4800 X207.79 Y179.506
G1 F1080 X202.994 Y174.71 E118.14018
G0 F4800 X202.429 Y174.71
G1 F1080 X207.79 Y180.071 E118.4806
G0 F4800 X207.79 Y180.637
G1 F1080 X201.863 Y174.71 E118.85697
G0 F4800 X201.297 Y174.71
G1 F1080 X207.79 Y181.203 E119.26927
G0 F4800 X207.79 Y181.768
G1 F1080 X200.732 Y174.71 E119.71745
G0 F4800 X200.166 Y174.71
G1 F1080 X207.79 Y182.334 E120.20158
G0 F4800 X207.79 Y182.9
G1 F1080 X199.6 Y174.71 E120.72164
G0 F4800 X199.035 Y174.71
G1 F1080 X207.79 Y183.465 E121.27758
G0 F4800 X207.79 Y184.031
G1 F1080 X198.469 Y174.71 E121.86947
G0 F4800 X197.903 Y174.71
G1 F1080 X207.79 Y184.597 E122.49729
G0 F4800 X207.79 Y185.162
G1 F1080 X197.337 Y174.71 E123.16102
G0 F4800 X196.772 Y174.71
G1 F1080 X207.79 Y185.728 E123.86066
G0 F4800 X207.79 Y186.294
G1 F1080 X196.206 Y174.71 E124.59624
G0 F4800 X195.64 Y174.71
G1 F1080 X207.79 Y186.86 E125.36777
G0 F4800 X207.79 Y187.425
G1 F1080 X195.075 Y174.71 E126.17517
G0 F4800 X194.509 Y174.71
G1 F1080 X200.524 Y180.725 E126.55712
G0 F4800 X199.872 Y180.639
G1 F1080 X193.943 Y174.71 E126.93361
G0 F4800 X193.378 Y174.71
G1 F1080 X199.307 Y180.639 E127.3101
G0 F4800 X198.741 Y180.639
G1 F1080 X192.812 Y174.71 E127.68659
G0 F4800 X192.246 Y174.71
G1 F1080 X198.175 Y180.639 E128.06308
G0 F4800 X197.61 Y180.639
G1 F1080 X191.681 Y174.71 E128.43957
G0 F4800 X191.115 Y174.71
G1 F1080 X197.044 Y180.639 E128.81606
G0 F4800 X196.478 Y180.639
G1 F1080 X190.549 Y174.71 E129.19255
G0 F4800 X189.984 Y174.71
G1 F1080 X195.913 Y180.639 E129.56905
G0 F4800 X195.347 Y180.639
G1 F1080 X189.418 Y174.71 E129.94554
G0 F4800 X188.852 Y174.71
G1 F1080 X194.781 Y180.639 E130.32203
G0 F4800 X194.216 Y180.639
G1 F1080 X188.286 Y174.71 E130.69855
G0 F4800 X187.721 Y174.71
G1 F1080 X193.65 Y180.639 E131.07504
G0 F4800 X193.084 Y180.639
G1 F1080 X187.155 Y174.71 E131.45153
G0 F4800 X186.589 Y174.71
G1 F1080 X192.519 Y180.639 E131.82805
G0 F4800 X191.953 Y180.639
G1 F1080 X186.024 Y174.71 E132.20454
G0 F4800 X185.458 Y174.71
G1 F1080 X191.387 Y180.639 E132.58103
G0 F4800 X190.821 Y180.639
G1 F1080 X184.893 Y174.711 E132.95746
G0 F4800 X184.327 Y174.711
G1 F1080 X190.256 Y180.639 E133.33392
G0 F4800 X189.69 Y180.639
G1 F1080 X183.762 Y174.711 E133.71035
G0 F4800 X183.196 Y174.711
G1 F1080 X189.124 Y180.639 E134.08677
G0 F4800 X188.559 Y180.639
G1 F1080 X182.63 Y174.711 E134.46323
G0 F4800 X182.065 Y174.711
G1 F1080 X187.993 Y180.639 E134.83966
G0 F4800 X187.427 Y180.639
G1 F1080 X181.499 Y174.711 E135.21609
G0 F4800 X180.933 Y174.711
G1 F1080 X186.862 Y180.639 E135.59255
G0 F4800 X186.296 Y180.639
G1 F1080 X180.368 Y174.711 E135.96897
G0 F4800 X179.802 Y174.711
G1 F1080 X185.73 Y180.639 E136.3454
G0 F4800 X185.165 Y180.639
G1 F1080 X179.236 Y174.711 E136.72186
G0 F4800 X178.671 Y174.711
G1 F1080 X184.599 Y180.639 E137.09829
G0 F4800 X184.033 Y180.639
G1 F1080 X178.105 Y174.711 E137.47471
G0 F4800 X177.539 Y174.711
G1 F1080 X183.468 Y180.639 E137.85117
G0 F4800 X182.902 Y180.639
G1 F1080 X176.973 Y174.711 E138.22763
G0 F4800 X176.408 Y174.711
G1 F1080 X182.336 Y180.639 E138.60406
G0 F4800 X181.77 Y180.639
G1 F1080 X175.842 Y174.711 E138.98049
G0 F4800 X175.276 Y174.711
G1 F1080 X181.205 Y180.639 E139.35695
G0 F4800 X180.639 Y180.639
G1 F1080 X174.711 Y174.711 E139.73337
G0 F4800 X174.145 Y174.711
G1 F1080 X180.073 Y180.639 E140.1098
G0 F4800 X179.508 Y180.639
G1 F1080 X173.579 Y174.711 E140.48626
G0 F4800 X173.014 Y174.711
G1 F1080 X178.942 Y180.639 E140.86269
G0 F4800 X178.376 Y180.639
G1 F1080 X172.448 Y174.711 E141.23911
G0 F4800 X171.882 Y174.711
G1 F1080 X177.811 Y180.639 E141.61557
G0 F4800 X177.245 Y180.639
G1 F1080 X171.317 Y174.711 E141.992
G0 F4800 X170.751 Y174.711
G1 F1080 X176.679 Y180.639 E142.36843
G0 F4800 X176.114 Y180.639
G1 F1080 X170.185 Y174.711 E142.74489
G0 F4800 X169.62 Y174.711
G1 F1080 X175.548 Y180.639 E143.12131
G0 F4800 X174.982 Y180.639
G1 F1080 X169.054 Y174.711 E143.49774
G0 F4800 X168.488 Y174.711
G1 F1080 X174.417 Y180.639 E143.8742
G0 F4800 X173.851 Y180.639
G1 F1080 X167.923 Y174.711 E144.25063
G0 F4800 X167.357 Y174.711
G1 F1080 X173.285 Y180.639 E144.62705
G0 F4800 X172.72 Y180.639
G1 F1080 X166.791 Y174.711 E145.00351
G0 F4800 X166.225 Y174.711
G1 F1080 X172.154 Y180.639 E145.37997
G0 F4800 X171.588 Y180.639
G1 F1080 X165.66 Y174.711 E145.7564
G0 F4800 X165.094 Y174.711
G1 F1080 X171.022 Y180.639 E146.13283
G0 F4800 X170.457 Y180.639
G1 F1080 X164.528 Y174.711 E146.50928
G0 F4800 X163.963 Y174.711
G1 F1080 X169.905 Y180.653 E146.8866
G0 F4800 X169.424 Y180.737
G1 F1080 X163.397 Y174.711 E147.26928
G0 F4800 X162.831 Y174.711
G1 F1080 X169.05 Y180.929 E147.66416
G0 F4800 X168.725 Y181.17
G1 F1080 X162.266 Y174.711 E148.0743
G0 F4800 X162.212 Y175.223
G1 F1080 X168.46 Y181.471 E148.47105
G0 F4800 X168.265 Y181.841
G1 F1080 X162.212 Y175.788 E148.85541
G0 F4800 X162.212 Y176.354
G1 F1080 X168.171 Y182.314 E149.23384
G0 F4800 X168.14 Y182.847
G1 F1080 X162.212 Y176.92 E149.61024
G0 F4800 X162.212 Y177.485
G1 F1080 X168.14 Y183.413 E149.98666
G0 F4800 X168.14 Y183.979
G1 F1080 X162.212 Y178.051 E150.36309
G0 F4800 X162.212 Y178.617
G1 F1080 X168.14 Y184.544 E150.73949
G0 F4800 X168.14 Y185.11
G1 F1080 X162.212 Y179.182 E151.11591
G0 F4800 X162.212 Y179.748
G1 F1080 X168.14 Y185.676 E151.49234
G0 F4800 X168.14 Y186.242
G1 F1080 X162.212 Y180.314 E151.86877
G0 F4800 X162.212 Y180.88
G1 F1080 X168.14 Y186.807 E152.24516
G0 F4800 X168.14 Y187.373
G1 F1080 X162.212 Y181.445 E152.62159
G0 F4800 X162.212 Y182.011
G1 F1080 X168.14 Y187.939 E152.99802
G0 F4800 X168.14 Y188.504
G1 F1080 X162.212 Y182.577 E153.37441
G0 F4800 X162.212 Y183.142
G1 F1080 X168.14 Y189.07 E153.75084
G0 F4800 X168.14 Y189.636
G1 F1080 X162.212 Y183.708 E154.12727
G0 F4800 X162.212 Y184.274
G1 F1080 X168.14 Y190.201 E154.50366
G0 F4800 X168.14 Y190.767
G1 F1080 X162.212 Y184.839 E154.88009
G0 F4800 X162.212 Y185.405
G1 F1080 X168.14 Y191.333 E155.25652
G0 F4800 X168.14 Y191.898
