;FLAVOR:Marlin
;TIME:2337
;Filament used: 0.696076m, 0m
;Layer height: 0.2
;MINX:173.2
;MINY:185.202
;MINZ:0.3
;MAXX:196.8
;MAXY:208.802
;MAXZ:21.9
;Generated with Cura_SteamEngine 5.0.0
T0
M140 S70
M105
M190 S70
M104 S215
M105
M109 S215
M82 ;absolute extrusion mode
;Sliced at: Tue 07-06-2022 17:39:06
G21 ;metric values
M107
G28
M420 S1
G90 ;absolute positioning
G92 E0; reset extruder distance
G1 X0 Y0 Z5 F5000 ;move nozzle up 5mm for safe homing
G29;ABL
M500
M82 ;set extruder to absolute mode
M107 ;start with the fan off
G1 X0 Y0 Z15.0 F5000 ;move the platform down 15mm
G92 E0 ;zero the extruded length
G1 F200 E3 ;extrude 3mm of feed stock
G1 F200 E0 ;Retract
G4 S2 ;Wait for material to fall
G1 F200 E3
G92 E0 ;zero the extruded length again
M117 Printing...
G92 E0
;WIPE
G91
G1 Z-0.5
G1 X -20 F3000
G1 X40
G1 X-20
G1 Z0.5
G90

G92 E0
G1 F2400 E-1
;LAYER_COUNT:110
;LAYER:0
M107
G1 F600 Z0.8
G0 F4800 X173.803 Y185.657 Z0.8
G1 F600 Z0.8
G0 F4800 X173.2 Y187.002
;TYPE:SKIRT
G1 F600 Z0.3
G1 F2400 E0.02495
G1 F1080 X173.24 Y186.625 E0.04197
G1 X173.358 Y186.265 E0.05898
G1 X173.548 Y185.938 E0.07596
G1 X173.803 Y185.657 E0.093
G1 X174.112 Y185.437 E0.11003
G1 X174.459 Y185.285 E0.12704
G1 X175 Y185.202 E0.15162
G1 X195 Y185.202 E1.04964
G1 X195.377 Y185.242 E1.06666
G1 X195.737 Y185.36 E1.08367
G1 X196.064 Y185.55 E1.10065
G1 X196.345 Y185.805 E1.11769
G1 X196.565 Y186.114 E1.13472
G1 X196.717 Y186.461 E1.15173
G1 X196.8 Y187.002 E1.17631
G1 X196.8 Y207.002 E2.07433
G1 X196.76 Y207.379 E2.09136
G1 X196.642 Y207.739 E2.10837
G1 X196.452 Y208.066 E2.12535
G1 X196.197 Y208.347 E2.14239
G1 X195.888 Y208.567 E2.15942
G1 X195.541 Y208.719 E2.17643
G1 X195 Y208.802 E2.201
G1 X175 Y208.802 E3.09903
G1 X174.623 Y208.762 E3.11605
G1 X174.263 Y208.644 E3.13306
G1 X173.936 Y208.454 E3.15004
G1 X173.655 Y208.199 E3.16708
G1 X173.435 Y207.89 E3.18411
G1 X173.283 Y207.543 E3.20112
G1 X173.2 Y207.002 E3.2257
G1 X173.2 Y187.002 E4.12372
G0 F4800 X173.6 Y187.002
G1 F1080 X173.64 Y186.67 E4.13874
G1 X173.757 Y186.358 E4.1537
G1 X173.945 Y186.081 E4.16873
G1 X174.193 Y185.858 E4.1837
G1 X174.487 Y185.699 E4.19871
G1 X175 Y185.602 E4.22215
G1 X195 Y185.602 E5.12018
G1 X195.332 Y185.642 E5.13519
G1 X195.644 Y185.759 E5.15015
G1 X195.921 Y185.947 E5.16519
G1 X196.144 Y186.195 E5.18016
G1 X196.303 Y186.489 E5.19517
G1 X196.4 Y187.002 E5.21861
G1 X196.4 Y207.002 E6.11664
G1 X196.36 Y207.334 E6.13165
G1 X196.243 Y207.646 E6.14661
G1 X196.055 Y207.923 E6.16164
G1 X195.807 Y208.146 E6.17662
G1 X195.513 Y208.305 E6.19163
G1 X195 Y208.402 E6.21507
G1 X175 Y208.402 E7.11309
G1 X174.668 Y208.362 E7.12811
G1 X174.356 Y208.245 E7.14307
G1 X174.079 Y208.057 E7.1581
G1 X173.856 Y207.809 E7.17308
G1 X173.697 Y207.515 E7.18808
G1 X173.6 Y207.002 E7.21153
G1 X173.6 Y187.002 E8.10955
G0 F4800 X174 Y187.002
G1 F1080 X174.04 Y186.723 E8.12221
G1 X174.156 Y186.466 E8.13487
G1 X174.339 Y186.251 E8.14754
G1 X174.575 Y186.097 E8.1602
G1 X175 Y186.002 E8.17975
G1 X195 Y186.002 E9.07777
G1 X195.279 Y186.042 E9.09043
G1 X195.536 Y186.158 E9.10309
G1 X195.751 Y186.341 E9.11577
G1 X195.905 Y186.577 E9.12842
G1 X196 Y187.002 E9.14798
G1 X196 Y207.002 E10.046
G1 X195.96 Y207.281 E10.05865
G1 X195.844 Y207.538 E10.07132
G1 X195.661 Y207.753 E10.08399
G1 X195.425 Y207.907 E10.09665
G1 X195 Y208.002 E10.1162
G1 X175 Y208.002 E11.01422
G1 X174.721 Y207.962 E11.02688
G1 X174.464 Y207.846 E11.03954
G1 X174.249 Y207.663 E11.05222
G1 X174.095 Y207.427 E11.06487
G1 X174 Y207.002 E11.08442
G1 X174 Y187.002 E11.98245
G0 F4800 X174.4 Y187.002
G1 F1080 X174.44 Y186.787 E11.99227
G1 X174.553 Y186.601 E12.00204
G1 X174.726 Y186.468 E12.01184
G1 X175 Y186.402 E12.02449
G1 X195 Y186.402 E12.92252
G1 X195.215 Y186.442 E12.93234
G1 X195.401 Y186.555 E12.94211
G1 X195.534 Y186.728 E12.95191
G1 X195.6 Y187.002 E12.96456
G1 X195.6 Y207.002 E13.86258
G1 X195.56 Y207.217 E13.8724
G1 X195.447 Y207.403 E13.88218
G1 X195.274 Y207.536 E13.89197
G1 X195 Y207.602 E13.90463
G1 X175 Y207.602 E14.80265
G1 X174.785 Y207.562 E14.81247
G1 X174.599 Y207.449 E14.82224
G1 X174.466 Y207.276 E14.83204
G1 X174.4 Y207.002 E14.8447
G1 X174.4 Y187.002 E15.74272
G0 F4800 X174.8 Y187.002
G1 F1080 X174.839 Y186.883 E15.74834
G1 X175 Y186.802 E15.75644
G1 X195 Y186.802 E16.65446
G1 X195.119 Y186.841 E16.66008
G1 X195.2 Y187.002 E16.66817
G1 X195.2 Y207.002 E17.5662
G1 X195.161 Y207.121 E17.57182
G1 X195 Y207.202 E17.57991
G1 X175 Y207.202 E18.47794
G1 X174.881 Y207.163 E18.48356
G1 X174.8 Y207.002 E18.49165
G1 X174.8 Y187.002 E19.38968
;MESH:overhang_retraction_test.stl
G0 F4800 X175.2 Y187.202
;TYPE:WALL-OUTER
G1 F1080 X175.2 Y206.802 E20.26974
G1 X194.8 Y206.802 E21.1498
G1 X194.8 Y197.002 E21.58983
G1 X194.8 Y187.202 E22.02987
G1 X175.2 Y187.202 E22.90993
G0 F4800 X175.2 Y187.402
G0 X175.6 Y187.602
;TYPE:WALL-INNER
G1 F1080 X175.6 Y206.402 E23.75407
G1 X194.4 Y206.402 E24.59821
G1 X194.4 Y197.002 E25.02028
G1 X194.4 Y187.602 E25.44236
G1 X175.6 Y187.602 E26.2865
G0 F4800 X176 Y188.002
G1 F1080 X176 Y206.002 E27.09472
G1 X194 Y206.002 E27.90294
G1 X194 Y197.002 E28.30705
G1 X194 Y188.002 E28.71116
G1 X176 Y188.002 E29.51938
G0 F4800 X176.26 Y188.262
;TYPE:SKIN
G1 F1080 X176.26 Y205.742 E30.30426
G1 X193.74 Y205.742 E31.08913
G1 X193.74 Y197.002 E31.48156
G1 X193.74 Y188.262 E31.874
G1 X176.26 Y188.262 E32.65887
G0 F4800 X176.66 Y188.662
G1 F1080 X176.66 Y205.342 E33.40782
G1 X193.34 Y205.342 E34.15678
G1 X193.34 Y197.002 E34.53125
G1 X193.34 Y188.662 E34.90573
G1 X176.66 Y188.662 E35.65468
G1 F2400 E34.65468
G1 F600 Z0.8
G0 F4800 X192.821 Y188.861 Z0.8
G1 F600 Z0.3
G1 F2400 E35.67963
G1 F1080 X193.139 Y189.18 E35.69985
G0 F4800 X193.139 Y189.745
G1 F1080 X192.255 Y188.861 E35.75598
G0 F4800 X191.69 Y188.861
G1 F1080 X193.139 Y190.311 E35.84803
G0 F4800 X193.139 Y190.877
G1 F1080 X191.124 Y188.861 E35.97601
G0 F4800 X190.558 Y188.861
G1 F1080 X193.139 Y191.442 E36.1399
G0 F4800 X193.139 Y192.008
G1 F1080 X189.993 Y188.861 E36.33971
G0 F4800 X189.427 Y188.861
G1 F1080 X193.139 Y192.574 E36.57545
G0 F4800 X193.139 Y193.139
G1 F1080 X188.861 Y188.861 E36.8471
G0 F4800 X188.296 Y188.861
G1 F1080 X193.139 Y193.705 E37.15466
G0 F4800 X193.139 Y194.271
G1 F1080 X187.73 Y188.861 E37.49817
G0 F4800 X187.164 Y188.861
G1 F1080 X193.139 Y194.836 E37.87758
G0 F4800 X193.139 Y195.402
G1 F1080 X186.599 Y188.861 E38.2929
G0 F4800 X186.033 Y188.861
G1 F1080 X193.139 Y195.968 E38.74416
G0 F4800 X193.139 Y196.533
G1 F1080 X185.467 Y188.861 E39.23133
G0 F4800 X184.902 Y188.861
G1 F1080 X193.139 Y197.099 E39.75441
G0 F4800 X193.139 Y197.665
G1 F1080 X184.336 Y188.861 E40.31343
G0 F4800 X183.77 Y188.861
G1 F1080 X193.139 Y198.231 E40.90839
G0 F4800 X193.139 Y198.796
G1 F1080 X183.205 Y188.861 E41.53923
G0 F4800 X182.639 Y188.861
G1 F1080 X193.139 Y199.362 E42.20601
G0 F4800 X193.139 Y199.928
G1 F1080 X182.073 Y188.861 E42.90873
G0 F4800 X181.507 Y188.861
G1 F1080 X193.139 Y200.493 E43.64737
G0 F4800 X193.139 Y201.059
G1 F1080 X180.942 Y188.861 E44.4219
G0 F4800 X180.376 Y188.861
G1 F1080 X193.139 Y201.625 E45.23239
G0 F4800 X193.139 Y202.19
G1 F1080 X179.81 Y188.861 E46.07878
G0 F4800 X179.245 Y188.861
G1 F1080 X193.139 Y202.756 E46.96107
G0 F4800 X193.139 Y203.322
G1 F1080 X178.679 Y188.861 E47.87931
G0 F4800 X178.113 Y188.861
G1 F1080 X193.139 Y203.887 E48.83346
G0 F4800 X193.139 Y204.453
G1 F1080 X177.548 Y188.861 E49.82352
G0 F4800 X176.982 Y188.861
G1 F1080 X193.139 Y205.019 E50.84952
G0 F4800 X192.695 Y205.14
G1 F1080 X176.86 Y189.305 E51.85504
G0 F4800 X176.86 Y189.87
G1 F1080 X192.13 Y205.14 E52.82468
G0 F4800 X191.564 Y205.14
G1 F1080 X176.86 Y190.436 E53.75838
G0 F4800 X176.86 Y191.002
G1 F1080 X190.998 Y205.14 E54.65615
G0 F4800 X190.433 Y205.14
G1 F1080 X176.86 Y191.567 E55.51803
G0 F4800 X176.86 Y192.133
G1 F1080 X189.867 Y205.14 E56.34397
G0 F4800 X189.301 Y205.14
G1 F1080 X176.86 Y192.699 E57.13397
G0 F4800 X176.86 Y193.265
G1 F1080 X188.735 Y205.14 E57.88803
G0 F4800 X188.17 Y205.14
G1 F1080 X176.86 Y193.83 E58.60622
G0 F4800 X176.86 Y194.396
G1 F1080 X187.604 Y205.14 E59.28846
G0 F4800 X187.038 Y205.14
M104 S205
G1 F1080 X176.86 Y194.962 E59.93476
G0 F4800 X176.86 Y195.527
G1 F1080 X186.473 Y205.14 E60.54519
G0 F4800 X185.907 Y205.14
G1 F1080 X176.86 Y196.093 E61.11967
G0 F4800 X176.86 Y196.659
G1 F1080 X185.341 Y205.14 E61.65821
G0 F4800 X184.776 Y205.14
G1 F1080 X176.86 Y197.224 E62.16088
G0 F4800 X176.86 Y197.79
G1 F1080 X184.21 Y205.14 E62.6276
G0 F4800 X183.644 Y205.14
G1 F1080 X176.86 Y198.356 E63.05838
G0 F4800 X176.86 Y198.921
G1 F1080 X183.079 Y205.14 E63.45329
G0 F4800 X182.513 Y205.14
G1 F1080 X176.86 Y199.487 E63.81225
G0 F4800 X176.86 Y200.053
G1 F1080 X181.947 Y205.14 E64.13528
G0 F4800 X181.382 Y205.14
G1 F1080 X176.86 Y200.618 E64.42242
G0 F4800 X176.86 Y201.184
G1 F1080 X180.816 Y205.14 E64.67363
G0 F4800 X180.25 Y205.14
G1 F1080 X176.86 Y201.75 E64.88889
G0 F4800 X176.86 Y202.315
G1 F1080 X179.685 Y205.14 E65.06828
G0 F4800 X179.119 Y205.14
G1 F1080 X176.86 Y202.881 E65.21173
G0 F4800 X176.86 Y203.447
G1 F1080 X178.553 Y205.14 E65.31923
G0 F4800 X177.987 Y205.14
G1 F1080 X176.86 Y204.013 E65.3908
G0 F4800 X176.86 Y204.578
G1 F1080 X177.422 Y205.14 E65.42648
G1 F2400 E64.42648
G1 F600 Z0.8
;MESH:NONMESH
G0 F4800 X175.2 Y187.202 Z0.8
;TIME_ELAPSED:90.871604
;LAYER:1
M140 S60
M106 S255
;MESH:overhang_retraction_test.stl
G0 F5400 X175.2 Y187.202 Z1
;TYPE:WALL-OUTER
G1 F600 Z0.5
G1 F2400 E65.45143
G1 F681.2 X175.2 Y206.802 E66.03814
G1 X194.8 Y206.802 E66.62485
G1 X194.8 Y187.202 E67.21156
G1 X175.2 Y187.202 E67.79826
G0 F5400 X175.2 Y187.402
G0 X175.6 Y187.602
;TYPE:WALL-INNER
G1 F855.9 X175.6 Y206.402 E68.36103
G1 X194.4 Y206.402 E68.92379
G1 X194.4 Y187.602 E69.48655
G1 X175.6 Y187.602 E70.04931
G0 F5400 X176 Y188.002
G1 F855.9 X176 Y206.002 E70.58812
G1 X194 Y206.002 E71.12694
G1 X194 Y188.002 E71.66575
G1 X176 Y188.002 E72.20457
G0 F5400 X176.26 Y188.262
;TYPE:SKIN
G1 F838.4 X176.26 Y205.742 E72.72782
G1 X193.74 Y205.742 E73.25106
G1 X193.74 Y197.002 E73.51269
G1 X193.74 Y188.262 E73.77431
G1 X176.26 Y188.262 E74.29756
G0 F5400 X176.66 Y188.662
G1 F838.4 X176.66 Y205.342 E74.79686
G1 X193.34 Y205.342 E75.29616
G1 X193.34 Y197.002 E75.54581
G1 X193.34 Y188.662 E75.79546
G1 X176.66 Y188.662 E76.29477
G0 F5400 X176.86 Y189.138
G1 F838.4 X177.137 Y188.861 E76.30649
G0 F5400 X177.703 Y188.861
G1 F838.4 X176.86 Y189.704 E76.34218
G0 F5400 X176.86 Y190.269
G1 F838.4 X178.268 Y188.861 E76.40178
G0 F5400 X178.834 Y188.861
G1 F838.4 X176.86 Y190.835 E76.48535
G0 F5400 X176.86 Y191.401
G1 F838.4 X179.4 Y188.861 E76.59288
G0 F5400 X179.965 Y188.861
G1 F838.4 X176.86 Y191.966 E76.72432
G0 F5400 X176.86 Y192.532
G1 F838.4 X180.531 Y188.861 E76.87973
G0 F5400 X181.097 Y188.861
G1 F838.4 X176.86 Y193.098 E77.05909
G0 F5400 X176.86 Y193.663
G1 F838.4 X181.662 Y188.861 E77.26238
G0 F5400 X182.228 Y188.861
G1 F838.4 X176.86 Y194.229 E77.48962
G0 F5400 X176.86 Y194.795
G1 F838.4 X182.794 Y188.861 E77.74083
G0 F5400 X183.359 Y188.861
G1 F838.4 X176.86 Y195.36 E78.01595
G0 F5400 X176.86 Y195.926
G1 F838.4 X183.925 Y188.861 E78.31503
G0 F5400 X184.491 Y188.861
G1 F838.4 X176.86 Y196.492 E78.63808
G0 F5400 X176.86 Y197.057
G1 F838.4 X185.056 Y188.861 E78.98504
G0 F5400 X185.622 Y188.861
G1 F838.4 X176.86 Y197.623 E79.35597
G0 F5400 X176.86 Y198.189
G1 F838.4 X186.188 Y188.861 E79.75085
G0 F5400 X186.753 Y188.861
G1 F838.4 X176.86 Y198.754 E80.16965
G0 F5400 X176.86 Y199.32
G1 F838.4 X187.319 Y188.861 E80.61242
G0 F5400 X187.885 Y188.861
G1 F838.4 X176.86 Y199.886 E81.07914
G0 F5400 X176.86 Y200.452
G1 F838.4 X188.451 Y188.861 E81.56983
G0 F5400 X189.016 Y188.861
G1 F838.4 X176.86 Y201.017 E82.08443
G0 F5400 X176.86 Y201.583
G1 F838.4 X189.582 Y188.861 E82.62299
G0 F5400 X190.148 Y188.861
G1 F838.4 X176.86 Y202.149 E83.18552
G0 F5400 X176.86 Y202.714
G1 F838.4 X190.713 Y188.861 E83.77196
G0 F5400 X191.279 Y188.861
G1 F838.4 X176.86 Y203.28 E84.38236
G0 F5400 X176.86 Y203.846
G1 F838.4 X191.845 Y188.861 E85.01673
G0 F5400 X192.41 Y188.861
G1 F838.4 X176.86 Y204.411 E85.67501
G0 F5400 X176.86 Y204.977
G1 F838.4 X192.976 Y188.861 E86.35725
G0 F5400 X193.139 Y189.263
G1 F838.4 X177.261 Y205.141 E87.02942
G0 F5400 X177.827 Y205.141
G1 F838.4 X193.139 Y189.829 E87.67762
G0 F5400 X193.139 Y190.394
G1 F838.4 X178.393 Y205.141 E88.30189
G0 F5400 X178.958 Y205.141
G1 F838.4 X193.139 Y190.96 E88.90222
G0 F5400 X193.139 Y191.526
G1 F838.4 X179.524 Y205.141 E89.47859
G0 F5400 X180.09 Y205.141
G1 F838.4 X193.139 Y192.091 E90.03101
G0 F5400 X193.139 Y192.657
G1 F838.4 X180.655 Y205.141 E90.5595
G0 F5400 X181.221 Y205.141
G1 F838.4 X193.139 Y193.223 E91.06403
G0 F5400 X193.139 Y193.788
G1 F838.4 X181.787 Y205.141 E91.54462
G0 F5400 X182.352 Y205.141
G1 F838.4 X193.139 Y194.354 E92.00127
G0 F5400 X193.139 Y194.92
G1 F838.4 X182.918 Y205.141 E92.43395
G0 F5400 X183.484 Y205.141
G1 F838.4 X193.139 Y195.486 E92.84268
G0 F5400 X193.139 Y196.051
G1 F838.4 X184.049 Y205.141 E93.22749
G0 F5400 X184.615 Y205.141
G1 F838.4 X193.139 Y196.617 E93.58834
G0 F5400 X193.139 Y197.183
G1 F838.4 X185.181 Y205.141 E93.92523
G0 F5400 X185.747 Y205.141
G1 F838.4 X193.139 Y197.748 E94.23818
G0 F5400 X193.139 Y198.314
G1 F838.4 X186.312 Y205.141 E94.52718
G0 F5400 X186.878 Y205.141
G1 F838.4 X193.139 Y198.88 E94.79223
G0 F5400 X193.139 Y199.445
G1 F838.4 X187.444 Y205.141 E95.03334
G0 F5400 X188.009 Y205.141
G1 F838.4 X193.139 Y200.011 E95.25051
G0 F5400 X193.139 Y200.577
G1 F838.4 X188.575 Y205.141 E95.44372
G0 F5400 X189.141 Y205.141
G1 F838.4 X193.139 Y201.142 E95.61299
G0 F5400 X193.139 Y201.708
G1 F838.4 X189.706 Y205.141 E95.75832
G0 F5400 X190.272 Y205.141
G1 F838.4 X193.139 Y202.274 E95.87969
G0 F5400 X193.139 Y202.839
G1 F838.4 X190.838 Y205.141 E95.97712
G0 F5400 X191.403 Y205.141
G1 F838.4 X193.139 Y203.405 E96.05061
G0 F5400 X193.139 Y203.971
G1 F838.4 X191.969 Y205.141 E96.10014
G0 F5400 X192.535 Y205.141
G1 F838.4 X193.139 Y204.537 E96.12571
G1 X193.209 Y204.467
G1 F2400 E95.12571
G1 F600 Z1
;MESH:NONMESH
G0 F5400 X175.2 Y187.202 Z1
;TIME_ELAPSED:169.612445
;LAYER:2
;MESH:overhang_retraction_test.stl
G0 F6000 X175.2 Y187.202 Z1.2
;TYPE:WALL-OUTER
G1 F600 Z0.7
G1 F2400 E96.15065
G1 F600 X175.2 Y206.802 E96.73736
G1 X194.8 Y206.802 E97.32407
G1 X194.8 Y187.202 E97.91078
G1 X175.2 Y187.202 E98.49749
G0 F6000 X175.2 Y187.402
G0 X175.6 Y187.602
;TYPE:WALL-INNER
G1 F885.7 X175.6 Y206.402 E99.06025
G1 X194.4 Y206.402 E99.62301
G1 X194.4 Y187.602 E100.18577
G1 X175.6 Y187.602 E100.74853
G0 F6000 X176 Y188.002
G1 F885.7 X176 Y206.002 E101.28735
G1 X194 Y206.002 E101.82616
G1 X194 Y188.002 E102.36498
G1 X176 Y188.002 E102.90379
G0 F6000 X176.26 Y188.262
;TYPE:SKIN
G1 F857.1 X176.26 Y205.742 E103.42704
G1 X193.74 Y205.742 E103.95029
G1 X193.74 Y197.002 E104.21191
G1 X193.74 Y188.262 E104.47354
G1 X176.26 Y188.262 E104.99679
G0 F6000 X176.66 Y188.662
G1 F857.1 X176.66 Y205.342 E105.49609
G1 X193.34 Y205.342 E105.99539
G1 X193.34 Y197.002 E106.24504
G1 X193.34 Y188.662 E106.49469
G1 X176.66 Y188.662 E106.99399
G1 F2400 E105.99399
G1 F600 Z1.2
G0 F6000 X192.821 Y188.861 Z1.2
G1 F600 Z0.7
G1 F2400 E107.01893
G1 F857.1 X193.139 Y189.18 E107.03242
G0 F6000 X193.139 Y189.745
G1 F857.1 X192.255 Y188.861 E107.06984
G0 F6000 X191.69 Y188.861
G1 F857.1 X193.139 Y190.311 E107.1312
G0 F6000 X193.139 Y190.877
G1 F857.1 X191.124 Y188.861 E107.21653
G0 F6000 X190.558 Y188.861
G1 F857.1 X193.139 Y191.442 E107.32579
G0 F6000 X193.139 Y192.008
G1 F857.1 X189.993 Y188.861 E107.45899
G0 F6000 X189.427 Y188.861
G1 F857.1 X193.139 Y192.574 E107.61615
G0 F6000 X193.139 Y193.139
G1 F857.1 X188.861 Y188.861 E107.79725
G0 F6000 X188.296 Y188.861
G1 F857.1 X193.139 Y193.705 E108.00229
G0 F6000 X193.139 Y194.271
G1 F857.1 X187.73 Y188.861 E108.2313
G0 F6000 X187.164 Y188.861
G1 F857.1 X193.139 Y194.836 E108.48424
G0 F6000 X193.139 Y195.402
G1 F857.1 X186.599 Y188.861 E108.76112
G0 F6000 X186.033 Y188.861
G1 F857.1 X193.139 Y195.968 E109.06196
G0 F6000 X193.139 Y196.533
G1 F857.1 X185.467 Y188.861 E109.38674
G0 F6000 X184.902 Y188.861
G1 F857.1 X193.139 Y197.099 E109.73546
