;FLAVOR:Marlin
;TIME:6691
;Filament used: 2.87312m, 0m
;Layer height: 0.2
;MINX:153.018
;MINY:185.926
;MINZ:0.3
;MAXX:216.982
;MAXY:209.924
;MAXZ:15.6
;Generated with Cura_SteamEngine 5.0.0
T0
M140 S70
M105
M190 S70
M104 S215
M105
M109 S215
M82 ;absolute extrusion mode
;Sliced at: Tue 07-06-2022 17:37:17
G21 ;metric values
M107
G28
M420 S1
G90 ;absolute positioning
G92 E0; reset extruder distance
G1 X0 Y0 Z5 F5000 ;move nozzle up 5mm for safe homing
G29;ABL
M500
M82 ;set extruder to absolute mode
M107 ;start with the fan off
G1 X0 Y0 Z15.0 F5000 ;move the platform down 15mm
G92 E0 ;zero the extruded length
G1 F200 E3 ;extrude 3mm of feed stock
G1 F200 E0 ;Retract
G4 S2 ;Wait for material to fall
G1 F200 E3
G92 E0 ;zero the extruded length again
M117 Printing...
G92 E0
;WIPE
G91
G1 Z-0.5
G1 X -20 F3000
G1 X40
G1 X-20
G1 Z0.5
G90

G92 E0
G1 F2400 E-1
;LAYER_COUNT:75
;LAYER:0
M107
G1 F600 Z0.8
G0 F4800 X154.412 Y186.697 Z0.8
G1 F600 Z0.8
G0 F4800 X153.018 Y190.153
;TYPE:SKIRT
G1 F600 Z0.3
G1 F2400 E0.02495
G1 F1080 X153.027 Y189.486 E0.0549
G1 X153.074 Y188.952 E0.07897
G1 X153.2 Y188.431 E0.10303
G1 X153.403 Y187.934 E0.12714
G1 X153.676 Y187.473 E0.1512
G1 X154.015 Y187.057 E0.17529
G1 X154.412 Y186.697 E0.19936
G1 X154.858 Y186.399 E0.22344
G1 X155.344 Y186.171 E0.24754
G1 X155.858 Y186.018 E0.27162
G1 X156.526 Y185.936 E0.30184
G1 X156.948 Y185.926 E0.3208
G1 X212.728 Y185.927 E2.82539
G1 X213.425 Y185.937 E2.85668
G1 X213.959 Y185.985 E2.88076
G1 X214.48 Y186.111 E2.90483
G1 X214.977 Y186.314 E2.92893
G1 X215.438 Y186.588 E2.95301
G1 X215.853 Y186.927 E2.97707
G1 X216.213 Y187.325 E3.00117
G1 X216.51 Y187.771 E3.02523
G1 X216.738 Y188.257 E3.04933
G1 X216.89 Y188.771 E3.0734
G1 X216.972 Y189.436 E3.10349
G1 X216.982 Y189.857 E3.12239
G1 X216.982 Y205.633 E3.83076
G1 X216.973 Y206.36 E3.8634
G1 X216.926 Y206.894 E3.88747
G1 X216.801 Y207.415 E3.91153
G1 X216.599 Y207.912 E3.93562
G1 X216.326 Y208.374 E3.95971
G1 X215.988 Y208.79 E3.98378
G1 X215.591 Y209.151 E4.00787
G1 X215.145 Y209.449 E4.03196
G1 X214.66 Y209.677 E4.05602
G1 X214.146 Y209.831 E4.08011
G1 X213.474 Y209.914 E4.11052
G1 X213.052 Y209.924 E4.12947
G1 X157.279 Y209.924 E6.63374
G1 X156.581 Y209.915 E6.66509
G1 X156.046 Y209.868 E6.6892
G1 X155.525 Y209.742 E6.71327
G1 X155.028 Y209.54 E6.73736
G1 X154.567 Y209.267 E6.76142
G1 X154.151 Y208.928 E6.78551
G1 X153.79 Y208.532 E6.80957
G1 X153.492 Y208.086 E6.83366
G1 X153.264 Y207.6 E6.85776
G1 X153.111 Y207.086 E6.88184
G1 X153.028 Y206.412 E6.91233
G1 X153.018 Y205.982 E6.93165
G1 X153.018 Y190.153 E7.64239
G0 F4800 X153.418 Y190.159
G1 F1080 X153.427 Y189.492 E7.67234
G1 X153.474 Y188.988 E7.69507
G1 X153.599 Y188.499 E7.71773
G1 X153.8 Y188.035 E7.74043
G1 X154.072 Y187.608 E7.76317
G1 X154.407 Y187.23 E7.78585
G1 X154.798 Y186.909 E7.80856
G1 X155.234 Y186.654 E7.83124
G1 X155.706 Y186.471 E7.85397
G1 X156.2 Y186.364 E7.87667
G1 X156.858 Y186.327 E7.90626
G1 X212.722 Y186.327 E10.41462
G1 X213.419 Y186.337 E10.44592
G1 X213.922 Y186.384 E10.4686
G1 X214.412 Y186.51 E10.49132
G1 X214.876 Y186.712 E10.51404
G1 X215.302 Y186.984 E10.53673
G1 X215.68 Y187.319 E10.55941
G1 X216 Y187.71 E10.5821
G1 X216.255 Y188.147 E10.60482
G1 X216.438 Y188.618 E10.62751
G1 X216.545 Y189.112 E10.6502
G1 X216.581 Y189.767 E10.67966
G1 X216.582 Y205.628 E11.39183
G1 X216.573 Y206.355 E11.42448
G1 X216.527 Y206.858 E11.44716
G1 X216.402 Y207.348 E11.46987
G1 X216.201 Y207.812 E11.49257
G1 X215.93 Y208.239 E11.51528
G1 X215.595 Y208.618 E11.53799
G1 X215.205 Y208.939 E11.56067
G1 X214.769 Y209.195 E11.58337
G1 X214.298 Y209.378 E11.60606
G1 X213.804 Y209.486 E11.62877
G1 X213.142 Y209.523 E11.65854
G1 X157.284 Y209.524 E14.16663
G1 X156.586 Y209.515 E14.19797
G1 X156.082 Y209.468 E14.2207
G1 X155.592 Y209.343 E14.24341
G1 X155.128 Y209.142 E14.26611
G1 X154.702 Y208.871 E14.28878
G1 X154.323 Y208.536 E14.31149
G1 X154.002 Y208.145 E14.33421
G1 X153.747 Y207.709 E14.35689
G1 X153.563 Y207.238 E14.37959
G1 X153.456 Y206.744 E14.40229
G1 X153.419 Y206.068 E14.43269
G1 X153.418 Y190.159 E15.14702
G1 F2400 E14.14702
G1 F600 Z0.8
;MESH:dimension.stl
G0 F4800 X156.818 Y189.726 Z0.8
;TYPE:WALL-OUTER
G1 F600 Z0.3
G1 F2400 E15.17197
G1 F1080 X156.818 Y206.124 E15.90826
G1 X164.652 Y206.124 E16.26001
G1 F1014.1 X165.385 Y206.098 E16.29509
G1 F1004.7 X166.191 Y206.119 E16.334
G1 F1061.4 X166.984 Y206.121 E16.37023
G1 F995.4 X167.779 Y206.092 E16.40899
G1 F1002.3 X168.584 Y206.123 E16.44797
G1 F1080 X174.652 Y206.124 E16.72043
G1 F1014.1 X175.385 Y206.098 E16.7555
G1 F1004.7 X176.191 Y206.119 E16.79442
G1 F1061.4 X176.984 Y206.121 E16.83065
G1 F995.4 X177.779 Y206.092 E16.8694
G1 F1002.3 X178.584 Y206.123 E16.90838
G1 F1080 X184.652 Y206.124 E17.18084
G1 F1014.1 X185.385 Y206.098 E17.21591
G1 F1004.7 X186.191 Y206.119 E17.25483
G1 F1061.4 X186.984 Y206.121 E17.29106
G1 F995.4 X187.779 Y206.092 E17.32982
G1 F1002.3 X188.584 Y206.123 E17.36879
G1 F1080 X194.652 Y206.124 E17.64125
G1 F1014.1 X195.385 Y206.098 E17.67633
G1 F1004.7 X196.191 Y206.119 E17.71525
G1 F1061.4 X196.984 Y206.121 E17.75148
G1 F995.4 X197.779 Y206.092 E17.79023
G1 F1002.3 X198.584 Y206.123 E17.82921
G1 F1080 X204.652 Y206.124 E18.10167
G1 F1014.1 X205.385 Y206.098 E18.13674
G1 F1004.7 X206.191 Y206.119 E18.17566
G1 F1061.4 X206.984 Y206.121 E18.21189
G1 F995.4 X207.779 Y206.092 E18.25065
G1 F1002.3 X208.584 Y206.123 E18.28962
G1 F1080 X213.182 Y206.124 E18.49608
G1 X213.182 Y193.015 E19.08469
G1 X213.182 Y189.727 E19.23232
G1 X156.818 Y189.726 E21.76313
G0 F4800 X156.818 Y189.926
G1 F2400 E20.76313
G1 F600 Z0.8
G0 F4800 X171.618 Y199.928 Z0.8
G1 F600 Z0.3
G1 F2400 E21.78808
G1 F1148.9 X171.618 Y200.689 E21.8202
G1 X171.617 Y201.428 E21.85139
G1 F1064 X171.443 Y202.168 E21.88603
G1 F1080 X171.16 Y202.879 E21.92039
G1 X170.776 Y203.54 E21.95472
G1 X170.295 Y204.135 E21.98907
G1 X169.812 Y204.588 E22.01881
G1 X169.188 Y205.025 E22.05301
G1 X168.497 Y205.363 E22.08755
G1 F1016.5 X167.778 Y205.617 E22.12393
G1 F1007 X167.015 Y205.714 E22.16097
G1 F1061.4 X166.251 Y205.714 E22.19587
G1 F993.1 X165.491 Y205.631 E22.23321
G1 F1000 X164.767 Y205.374 E22.27046
G1 F1080 X164.076 Y205.038 E22.30496
G1 X163.527 Y204.669 E22.33466
G1 X162.959 Y204.158 E22.36897
G1 X162.475 Y203.563 E22.40341
G1 X162.087 Y202.907 E22.43763
G1 X161.801 Y202.197 E22.472
G1 X161.625 Y201.446 E22.50663
G1 X161.569 Y200.693 E22.54054
G1 X161.624 Y199.928 E22.57497
G1 X161.794 Y199.183 E22.60929
G1 X162.075 Y198.474 E22.64353
G1 X162.459 Y197.813 E22.67785
G1 X162.94 Y197.218 E22.71221
G1 X163.423 Y196.765 E22.74194
G1 X164.048 Y196.328 E22.77618
G1 X164.738 Y195.99 E22.81068
G1 X165.465 Y195.76 E22.84492
G1 X166.22 Y195.642 E22.87923
G1 X166.984 Y195.641 E22.91354
G1 X167.74 Y195.754 E22.94786
G1 X168.471 Y195.981 E22.98223
G1 X169.159 Y196.315 E23.01657
G1 X169.708 Y196.684 E23.04627
G1 X170.274 Y197.193 E23.08045
G1 X170.759 Y197.789 E23.11495
G1 X171.148 Y198.447 E23.14927
G1 X171.435 Y199.154 E23.18353
G1 F1066.7 X171.613 Y199.896 E23.21823
G1 F1051.1 X171.618 Y199.928 E23.21972
G1 F1064 X171.793 Y199.183 E23.2546
G1 F1080 X172.075 Y198.474 E23.28886
G1 X172.459 Y197.813 E23.32318
G1 X172.94 Y197.218 E23.35754
G1 X173.423 Y196.765 E23.38727
G1 X174.048 Y196.328 E23.42151
G1 X174.738 Y195.99 E23.45601
G1 X175.465 Y195.76 E23.49025
G1 X176.22 Y195.642 E23.52456
G1 X176.984 Y195.641 E23.55887
G1 X177.74 Y195.754 E23.59319
G1 X178.471 Y195.981 E23.62756
G1 X179.159 Y196.315 E23.6619
G1 X179.708 Y196.684 E23.6916
G1 X180.274 Y197.193 E23.72578
G1 X180.759 Y197.789 E23.76028
G1 X181.148 Y198.447 E23.7946
G1 X181.435 Y199.154 E23.82886
G1 F1066.7 X181.613 Y199.896 E23.86355
G1 F1051.1 X181.618 Y199.928 E23.86505
G1 F1064 X181.793 Y199.183 E23.89992
G1 F1080 X182.075 Y198.474 E23.93418
G1 X182.459 Y197.813 E23.96851
G1 X182.94 Y197.218 E24.00286
G1 X183.423 Y196.765 E24.0326
G1 X184.048 Y196.328 E24.06684
G1 X184.738 Y195.99 E24.10134
G1 X185.465 Y195.76 E24.13558
G1 X186.22 Y195.642 E24.16989
G1 X186.984 Y195.641 E24.20419
G1 X187.74 Y195.754 E24.23852
G1 X188.471 Y195.981 E24.27288
G1 X189.159 Y196.315 E24.30722
G1 X189.708 Y196.684 E24.33693
G1 X190.274 Y197.193 E24.3711
G1 X190.759 Y197.789 E24.40561
G1 X191.148 Y198.447 E24.43993
G1 X191.435 Y199.154 E24.47419
G1 F1066.7 X191.613 Y199.896 E24.50888
G1 F1051.1 X191.618 Y199.928 E24.51037
G1 F1064 X191.793 Y199.183 E24.54525
G1 F1080 X192.075 Y198.474 E24.57951
G1 X192.459 Y197.813 E24.61384
G1 X192.94 Y197.218 E24.64819
G1 X193.423 Y196.765 E24.67792
G1 X194.048 Y196.328 E24.71217
G1 X194.738 Y195.99 E24.74667
G1 X195.465 Y195.76 E24.7809
G1 X196.22 Y195.642 E24.81522
G1 X196.984 Y195.641 E24.84952
G1 X197.74 Y195.754 E24.88384
G1 X198.471 Y195.981 E24.91821
G1 X199.159 Y196.315 E24.95255
G1 X199.708 Y196.684 E24.98225
G1 X200.274 Y197.193 E25.01643
G1 X200.759 Y197.789 E25.05093
G1 X201.148 Y198.447 E25.08526
G1 X201.435 Y199.154 E25.11952
G1 F1066.7 X201.613 Y199.896 E25.15421
G1 F1051.1 X201.618 Y199.928 E25.1557
G1 F1064 X201.793 Y199.183 E25.19058
G1 F1080 X202.075 Y198.474 E25.22484
G1 X202.459 Y197.813 E25.25916
G1 X202.94 Y197.218 E25.29352
G1 X203.423 Y196.765 E25.32325
G1 X204.048 Y196.328 E25.35749
G1 X204.738 Y195.99 E25.39199
G1 X205.465 Y195.76 E25.42623
G1 X206.22 Y195.642 E25.46054
G1 X206.984 Y195.641 E25.49485
G1 X207.74 Y195.754 E25.52917
G1 X208.471 Y195.981 E25.56354
G1 X209.159 Y196.315 E25.59788
G1 X209.708 Y196.684 E25.62758
G1 X210.274 Y197.193 E25.66176
G1 X210.759 Y197.789 E25.69626
G1 X211.148 Y198.446 E25.73054
G1 X211.434 Y199.153 E25.76479
G1 X211.607 Y199.897 E25.79909
G1 X211.667 Y200.658 E25.83336
G1 X211.611 Y201.426 E25.86794
G1 X211.443 Y202.168 E25.9021
G1 X211.16 Y202.879 E25.93646
G1 X210.776 Y203.539 E25.97074
G1 X210.295 Y204.135 E26.00513
G1 X209.812 Y204.588 E26.03487
G1 X209.188 Y205.025 E26.06907
G1 X208.497 Y205.363 E26.10361
G1 F1016.5 X207.778 Y205.617 E26.13999
G1 F1007 X207.015 Y205.714 E26.17703
G1 F1061.4 X206.251 Y205.714 E26.21194
G1 F993.1 X205.491 Y205.631 E26.24927
G1 F1000 X204.767 Y205.374 E26.28652
G1 F1080 X204.076 Y205.038 E26.32102
G1 X203.527 Y204.669 E26.35072
G1 X202.959 Y204.158 E26.38503
G1 X202.475 Y203.563 E26.41947
G1 X202.087 Y202.907 E26.45369
G1 X201.801 Y202.197 E26.48806
G1 F1066.7 X201.622 Y201.458 E26.52263
G1 F1051.1 X201.617 Y201.428 E26.52403
G1 F1064 X201.443 Y202.168 E26.55868
G1 F1080 X201.16 Y202.879 E26.59304
G1 X200.776 Y203.54 E26.62736
G1 X200.295 Y204.135 E26.66172
G1 X199.812 Y204.588 E26.69145
G1 X199.188 Y205.025 E26.72565
G1 X198.497 Y205.363 E26.76019
G1 F1016.5 X197.778 Y205.617 E26.79657
G1 F1007 X197.015 Y205.714 E26.83361
G1 F1061.4 X196.251 Y205.714 E26.86852
G1 F993.1 X195.491 Y205.631 E26.90585
G1 F1000 X194.767 Y205.374 E26.9431
G1 F1080 X194.076 Y205.038 E26.9776
G1 X193.527 Y204.669 E27.00731
G1 X192.959 Y204.158 E27.04161
G1 X192.475 Y203.563 E27.07605
G1 X192.087 Y202.907 E27.11027
G1 X191.801 Y202.197 E27.14464
G1 F1066.7 X191.622 Y201.458 E27.17921
G1 F1051.1 X191.617 Y201.428 E27.18061
G1 F1064 X191.443 Y202.168 E27.21526
G1 F1080 X191.16 Y202.879 E27.24962
G1 X190.776 Y203.54 E27.28394
G1 X190.295 Y204.135 E27.3183
G1 X189.812 Y204.588 E27.34803
G1 X189.188 Y205.025 E27.38224
G1 X188.497 Y205.363 E27.41678
G1 F1016.5 X187.778 Y205.617 E27.45316
G1 F1007 X187.015 Y205.714 E27.49019
G1 F1061.4 X186.251 Y205.714 E27.5251
G1 F993.1 X185.491 Y205.631 E27.56243
G1 F1000 X184.767 Y205.374 E27.59969
G1 F1080 X184.076 Y205.038 E27.63419
G1 X183.527 Y204.669 E27.66389
G1 X182.959 Y204.158 E27.69819
G1 X182.475 Y203.563 E27.73263
G1 X182.087 Y202.907 E27.76685
G1 X181.801 Y202.197 E27.80122
G1 F1066.7 X181.622 Y201.458 E27.83579
G1 F1051.1 X181.617 Y201.428 E27.83719
G1 F1064 X181.443 Y202.168 E27.87184
G1 F1080 X181.16 Y202.879 E27.9062
G1 X180.776 Y203.54 E27.94053
G1 X180.295 Y204.135 E27.97488
G1 X179.812 Y204.588 E28.00461
G1 X179.188 Y205.025 E28.03882
G1 X178.497 Y205.363 E28.07336
G1 F1016.5 X177.778 Y205.617 E28.10974
G1 F1007 X177.015 Y205.714 E28.14678
G1 F1061.4 X176.251 Y205.714 E28.18168
G1 F993.1 X175.491 Y205.631 E28.21901
G1 F1000 X174.767 Y205.374 E28.25627
G1 F1080 X174.076 Y205.038 E28.29077
G1 X173.527 Y204.669 E28.32047
G1 X172.959 Y204.158 E28.35478
G1 X172.475 Y203.563 E28.38921
G1 X172.087 Y202.907 E28.42344
G1 X171.801 Y202.197 E28.45781
G1 F1066.7 X171.622 Y201.458 E28.49237
G1 F1051.1 X171.617 Y201.428 E28.49378
G0 F4800 X171.572 Y201.622
G1 F2400 E27.49378
G1 F600 Z0.8
G0 F4800 X168.672 Y205.723 Z0.8
;TYPE:WALL-INNER
G1 F600 Z0.3
G1 F2400 E28.51872
G1 F1080 X174.563 Y205.722 E28.78323
G1 X173.9 Y205.398 E28.81637
G1 X173.303 Y205.001 E28.84856
G1 X172.69 Y204.454 E28.88545
G1 X172.167 Y203.819 E28.92239
G1 X171.742 Y203.11 E28.9595
G1 X171.617 Y202.815 E28.97389
G1 X171.492 Y203.11 E28.98828
G1 X171.121 Y203.742 E29.02118
G1 X170.605 Y204.387 E29.05827
G1 X170.085 Y204.88 E29.09044
G1 X169.416 Y205.354 E29.12726
G1 X168.672 Y205.723 E29.16455
G1 F2400 E28.16455
G1 F600 Z0.8
G0 F4800 X173.067 Y205.323 Z0.8
G1 F600 Z0.3
G1 F2400 E29.18949
G1 F1080 X172.422 Y204.751 E29.2282
G1 X172.082 Y204.349 E29.25184
G1 X171.768 Y203.944 E29.27485
G1 X171.617 Y203.687 E29.28824
G1 X171.379 Y204.07 E29.30849
G1 X170.915 Y204.64 E29.34149
G1 X170.358 Y205.173 E29.3761
G1 X170.158 Y205.323 E29.38733
G1 X173.067 Y205.323 E29.51795
G1 F2400 E28.51795
G1 F600 Z0.8
G0 F4800 X178.672 Y205.723 Z0.8
G1 F600 Z0.3
G1 F2400 E29.54289
G1 F1080 X184.563 Y205.722 E29.8074
G1 X183.9 Y205.398 E29.84054
G1 X183.303 Y205.001 E29.87273
G1 X182.69 Y204.454 E29.90962
G1 X182.167 Y203.819 E29.94656
G1 X181.742 Y203.11 E29.98367
G1 X181.617 Y202.815 E29.99806
G1 X181.492 Y203.11 E30.01244
G1 X181.121 Y203.742 E30.04535
G1 X180.605 Y204.387 E30.08244
G1 X180.085 Y204.88 E30.11461
G1 X179.416 Y205.354 E30.15143
G1 X178.672 Y205.723 E30.18872
G1 F2400 E29.18872
G1 F600 Z0.8
G0 F4800 X183.067 Y205.323 Z0.8
G1 F600 Z0.3
G1 F2400 E30.21366
G1 F1080 X182.422 Y204.751 E30.25237
G1 X182.082 Y204.349 E30.27601
G1 X181.768 Y203.944 E30.29902
G1 X181.617 Y203.687 E30.31241
G1 X181.379 Y204.07 E30.33265
G1 X180.915 Y204.64 E30.36565
G1 X180.358 Y205.173 E30.40027
G1 X180.158 Y205.323 E30.4115
G1 X183.067 Y205.323 E30.54211
G1 F2400 E29.54211
G1 F600 Z0.8
G0 F4800 X181.617 Y201.428 Z0.8
;TYPE:WALL-OUTER
G1 F600 Z0.3
G1 F2400 E30.56706
G1 F1148.9 X181.618 Y200.689 E30.59825
G1 X181.618 Y199.928 E30.63037
G1 F2400 E29.63037
G1 F600 Z0.8
G0 F4800 X188.672 Y205.723 Z0.8
;TYPE:WALL-INNER
G1 F600 Z0.3
G1 F2400 E30.65531
G1 F1080 X194.563 Y205.722 E30.91983
G1 X193.9 Y205.398 E30.95296
G1 X193.303 Y205.001 E30.98515
G1 X192.69 Y204.454 E31.02204
G1 X192.167 Y203.819 E31.05898
G1 X191.742 Y203.11 E31.0961
G1 X191.617 Y202.815 E31.11048
G1 X191.492 Y203.11 E31.12487
G1 X191.121 Y203.742 E31.15777
G1 X190.605 Y204.387 E31.19486
G1 X190.085 Y204.88 E31.22704
G1 X189.416 Y205.354 E31.26385
G1 X188.672 Y205.723 E31.30114
G1 F2400 E30.30114
G1 F600 Z0.8
G0 F4800 X193.067 Y205.323 Z0.8
G1 F600 Z0.3
G1 F2400 E31.32609
G1 F1080 X192.422 Y204.751 E31.3648
G1 X192.082 Y204.349 E31.38844
G1 X191.768 Y203.944 E31.41145
G1 X191.617 Y203.687 E31.42483
G1 X191.379 Y204.07 E31.44508
G1 X190.915 Y204.64 E31.47808
G1 X190.358 Y205.173 E31.51269
G1 X190.158 Y205.323 E31.52392
G1 X193.067 Y205.323 E31.65454
G1 F2400 E30.65454
G1 F600 Z0.8
G0 F4800 X191.617 Y201.428 Z0.8
;TYPE:WALL-OUTER
G1 F600 Z0.3
G1 F2400 E31.67948
G1 F1148.9 X191.618 Y200.667 E31.7116
G1 X191.618 Y199.928 E31.74279
G1 F2400 E30.74279
G1 F600 Z0.8
G0 F4800 X198.672 Y205.723 Z0.8
;TYPE:WALL-INNER
G1 F600 Z0.3
G1 F2400 E31.76774
G1 F1080 X204.563 Y205.722 E32.03225
G1 X203.9 Y205.398 E32.06539
G1 X203.303 Y205.001 E32.09758
G1 X202.69 Y204.454 E32.13447
G1 X202.167 Y203.819 E32.1714
G1 X201.742 Y203.11 E32.20852
G1 X201.617 Y202.815 E32.22291
G1 X201.492 Y203.11 E32.23729
G1 X201.121 Y203.742 E32.2702
G1 X200.605 Y204.387 E32.30729
G1 X200.085 Y204.88 E32.33946
G1 X199.416 Y205.354 E32.37628
G1 X198.672 Y205.723 E32.41357
G1 F2400 E31.41357
G1 F600 Z0.8
G0 F4800 X203.067 Y205.323 Z0.8
G1 F600 Z0.3
