;FLAVOR:Marlin
;TIME:9700
;Filament used: 4.00881m, 0m
;Layer height: 0.2
;MINX:168.201
;MINY:180.701
;MINZ:0.3
;MAXX:201.799
;MAXY:214.299
;MAXZ:53.4
;Generated with Cura_SteamEngine 5.0.0
T0
M140 S70
M105
M190 S70
M104 S215
M105
M109 S215
M82 ;absolute extrusion mode
;Sliced at: Tue 07-06-2022 17:41:59
G21 ;metric values
M107
G28
M420 S1
G90 ;absolute positioning
G92 E0; reset extruder distance
G1 X0 Y0 Z5 F5000 ;move nozzle up 5mm for safe homing
G29;ABL
M500
M82 ;set extruder to absolute mode
M107 ;start with the fan off
G1 X0 Y0 Z15.0 F5000 ;move the platform down 15mm
G92 E0 ;zero the extruded length
G1 F200 E3 ;extrude 3mm of feed stock
G1 F200 E0 ;Retract
G4 S2 ;Wait for material to fall
G1 F200 E3
G92 E0 ;zero the extruded length again
M117 Printing...
G92 E0
;WIPE
G91
G1 Z-0.5
G1 X -20 F3000
G1 X40
G1 X-20
G1 Z0.5
G90

G92 E0
G1 F2400 E-1
;LAYER_COUNT:264
;LAYER:0
M107
G1 F600 Z0.8
G0 F4800 X168.804 Y181.156 Z0.8
G1 F600 Z0.8
G0 F4800 X168.201 Y182.501
;TYPE:SKIRT
G1 F600 Z0.3
G1 F2400 E0.02495
G1 F1080 X168.241 Y182.124 E0.04197
G1 X168.359 Y181.764 E0.05898
G1 X168.549 Y181.437 E0.07596
G1 X168.804 Y181.156 E0.093
G1 X169.113 Y180.936 E0.11003
G1 X169.46 Y180.784 E0.12704
G1 X170.001 Y180.701 E0.15162
G1 X199.999 Y180.701 E1.49856
G1 X200.376 Y180.741 E1.51558
G1 X200.736 Y180.859 E1.53259
G1 X201.063 Y181.049 E1.54958
G1 X201.344 Y181.304 E1.56661
G1 X201.564 Y181.613 E1.58365
G1 X201.716 Y181.96 E1.60066
G1 X201.799 Y182.501 E1.62523
G1 X201.799 Y212.499 E2.97218
G1 X201.759 Y212.876 E2.9892
G1 X201.641 Y213.236 E3.00621
G1 X201.451 Y213.563 E3.02319
G1 X201.196 Y213.844 E3.04023
G1 X200.887 Y214.064 E3.05726
G1 X200.54 Y214.216 E3.07427
G1 X199.999 Y214.299 E3.09885
G1 X170.001 Y214.299 E4.44579
G1 X169.624 Y214.259 E4.46282
G1 X169.264 Y214.141 E4.47983
G1 X168.937 Y213.951 E4.49681
G1 X168.656 Y213.696 E4.51384
G1 X168.436 Y213.387 E4.53088
G1 X168.284 Y213.04 E4.54789
G1 X168.201 Y212.499 E4.57246
G1 X168.201 Y182.501 E5.91941
G0 F4800 X168.601 Y182.501
G1 F1080 X168.641 Y182.169 E5.93442
G1 X168.758 Y181.857 E5.94938
G1 X168.946 Y181.58 E5.96442
G1 X169.194 Y181.357 E5.97939
G1 X169.488 Y181.198 E5.9944
G1 X170.001 Y181.101 E6.01784
G1 X199.999 Y181.101 E7.36479
G1 X200.331 Y181.141 E7.3798
G1 X200.643 Y181.258 E7.39476
G1 X200.92 Y181.446 E7.4098
G1 X201.143 Y181.694 E7.42477
G1 X201.302 Y181.988 E7.43978
G1 X201.399 Y182.501 E7.46322
G1 X201.399 Y212.499 E8.81017
G1 X201.359 Y212.831 E8.82518
G1 X201.242 Y213.143 E8.84014
G1 X201.054 Y213.42 E8.85518
G1 X200.806 Y213.643 E8.87015
G1 X200.512 Y213.802 E8.88516
G1 X199.999 Y213.899 E8.9086
G1 X170.001 Y213.899 E10.25555
G1 X169.669 Y213.859 E10.27056
G1 X169.357 Y213.742 E10.28552
G1 X169.08 Y213.554 E10.30056
G1 X168.857 Y213.306 E10.31553
G1 X168.698 Y213.012 E10.33054
G1 X168.601 Y212.499 E10.35398
G1 X168.601 Y182.501 E11.70093
G0 F4800 X169.001 Y182.501
G1 F1080 X169.041 Y182.222 E11.71358
G1 X169.157 Y181.965 E11.72624
G1 X169.34 Y181.75 E11.73892
G1 X169.576 Y181.596 E11.75157
G1 X170.001 Y181.501 E11.77113
G1 X199.999 Y181.501 E13.11807
G1 X200.278 Y181.541 E13.13073
G1 X200.535 Y181.657 E13.14339
G1 X200.75 Y181.84 E13.15607
G1 X200.904 Y182.076 E13.16872
G1 X200.999 Y182.501 E13.18827
G1 X200.999 Y212.499 E14.53522
G1 X200.959 Y212.778 E14.54787
G1 X200.843 Y213.035 E14.56054
G1 X200.66 Y213.25 E14.57321
G1 X200.424 Y213.404 E14.58587
G1 X199.999 Y213.499 E14.60542
G1 X170.001 Y213.499 E15.95237
G1 X169.722 Y213.459 E15.96502
G1 X169.465 Y213.343 E15.97768
G1 X169.25 Y213.16 E15.99036
G1 X169.096 Y212.924 E16.00301
G1 X169.001 Y212.499 E16.02257
G1 X169.001 Y182.501 E17.36951
G0 F4800 X169.401 Y182.501
G1 F1080 X169.441 Y182.286 E17.37933
G1 X169.554 Y182.1 E17.3891
G1 X169.727 Y181.967 E17.3989
G1 X170.001 Y181.901 E17.41156
G1 X199.999 Y181.901 E18.7585
G1 X200.214 Y181.941 E18.76832
G1 X200.4 Y182.054 E18.77809
G1 X200.533 Y182.227 E18.78789
G1 X200.599 Y182.501 E18.80055
G1 X200.599 Y212.499 E20.14749
G1 X200.559 Y212.714 E20.15731
G1 X200.446 Y212.9 E20.16708
G1 X200.273 Y213.033 E20.17688
G1 X199.999 Y213.099 E20.18954
G1 X170.001 Y213.099 E21.53648
G1 X169.786 Y213.059 E21.5463
G1 X169.6 Y212.946 E21.55607
G1 X169.467 Y212.773 E21.56587
G1 X169.401 Y212.499 E21.57853
G1 X169.401 Y182.501 E22.92547
G0 F4800 X169.801 Y182.501
G1 F1080 X169.84 Y182.382 E22.9311
G1 X170.001 Y182.301 E22.93919
G1 X199.999 Y182.301 E24.28613
G1 X200.118 Y182.34 E24.29176
G1 X200.199 Y182.501 E24.29985
G1 X200.199 Y212.499 E25.64679
G1 X200.16 Y212.618 E25.65242
G1 X199.999 Y212.699 E25.66051
G1 X170.001 Y212.699 E27.00746
G1 X169.882 Y212.66 E27.01308
G1 X169.801 Y212.499 E27.02117
G1 X169.801 Y182.501 E28.36812
;MESH:Z_Wobble_Test.stl
G0 F4800 X170.201 Y182.701
;TYPE:WALL-OUTER
G1 F1080 X170.201 Y212.299 E29.6971
G1 X199.799 Y212.299 E31.02609
G1 X199.799 Y197.5 E31.69058
G1 X199.799 Y182.701 E32.35507
G1 X170.201 Y182.701 E33.68406
G0 F4800 X170.201 Y182.901
G0 X170.601 Y183.101
;TYPE:WALL-INNER
G1 F1080 X170.601 Y211.899 E34.97712
G1 X199.399 Y211.899 E36.27019
G1 X199.399 Y197.5 E36.91672
G1 X199.399 Y183.101 E37.56325
G1 X170.601 Y183.101 E38.85631
G0 F4800 X171.001 Y183.501
G1 F1080 X171.001 Y211.499 E40.11346
G1 X198.999 Y211.499 E41.3706
G1 X198.999 Y197.5 E41.99917
G1 X198.999 Y183.501 E42.62774
G1 X171.001 Y183.501 E43.88489
G0 F4800 X171.261 Y183.761
;TYPE:SKIN
G1 F1080 X171.261 Y211.239 E45.11868
G1 X198.739 Y211.239 E46.35248
G1 X198.739 Y197.5 E46.96937
G1 X198.739 Y183.761 E47.58627
G1 X171.261 Y183.761 E48.82007
G0 F4800 X171.661 Y184.161
G1 F1080 X171.661 Y210.839 E50.01794
G1 X198.339 Y210.839 E51.21581
G1 X198.339 Y197.5 E51.81475
G1 X198.339 Y184.161 E52.41369
G1 X171.661 Y184.161 E53.61156
G1 F2400 E52.61156
G1 F600 Z0.8
G0 F4800 X197.937 Y184.361 Z0.8
G1 F600 Z0.3
G1 F2400 E53.63651
G1 F1080 X198.139 Y184.562 E53.6493
G0 F4800 X198.139 Y185.128
G1 F1080 X197.371 Y184.361 E53.69804
G0 F4800 X196.806 Y184.361
G1 F1080 X198.139 Y185.694 E53.78268
G0 F4800 X198.139 Y186.259
G1 F1080 X196.24 Y184.361 E53.90324
G0 F4800 X195.674 Y184.361
G1 F1080 X198.139 Y186.825 E54.05973
G0 F4800 X198.139 Y187.391
G1 F1080 X195.109 Y184.361 E54.25214
G0 F4800 X194.543 Y184.361
G1 F1080 X198.139 Y187.956 E54.48045
G0 F4800 X198.139 Y188.522
G1 F1080 X193.977 Y184.361 E54.74471
G0 F4800 X193.412 Y184.361
G1 F1080 X198.139 Y189.088 E55.04487
G0 F4800 X198.139 Y189.653
G1 F1080 X192.846 Y184.361 E55.38094
G0 F4800 X192.28 Y184.361
G1 F1080 X198.139 Y190.219 E55.75296
G0 F4800 X198.139 Y190.785
G1 F1080 X191.715 Y184.361 E56.16088
G0 F4800 X191.149 Y184.361
G1 F1080 X198.139 Y191.35 E56.60471
G0 F4800 X198.139 Y191.916
G1 F1080 X190.583 Y184.361 E57.08448
G0 F4800 X190.017 Y184.361
G1 F1080 X198.139 Y192.482 E57.6002
G0 F4800 X198.139 Y193.047
G1 F1080 X189.452 Y184.361 E58.15179
G0 F4800 X188.886 Y184.361
G1 F1080 X198.139 Y193.613 E58.73932
G0 F4800 X198.139 Y194.179
G1 F1080 X188.32 Y184.361 E59.3628
G0 F4800 X187.755 Y184.361
G1 F1080 X198.139 Y194.744 E60.02215
G0 F4800 X198.139 Y195.31
G1 F1080 X187.189 Y184.361 E60.71744
G0 F4800 X186.623 Y184.361
G1 F1080 X198.139 Y195.876 E61.44867
G0 F4800 X198.139 Y196.442
G1 F1080 X186.058 Y184.361 E62.21581
G0 F4800 X185.492 Y184.361
G1 F1080 X198.139 Y197.007 E63.01886
G0 F4800 X198.139 Y197.573
G1 F1080 X184.926 Y184.36 E63.85789
G0 F4800 X184.36 Y184.36
G1 F1080 X198.139 Y198.139 E64.73285
G0 F4800 X198.139 Y198.704
G1 F1080 X183.794 Y184.36 E65.64373
G0 F4800 X183.229 Y184.36
G1 F1080 X198.139 Y199.27 E66.59051
G0 F4800 X198.139 Y199.836
G1 F1080 X182.663 Y184.36 E67.57323
G0 F4800 X182.097 Y184.36
G1 F1080 X198.139 Y200.401 E68.59187
G0 F4800 X198.139 Y200.967
G1 F1080 X181.531 Y184.36 E69.64644
G0 F4800 X180.966 Y184.36
G1 F1080 X198.139 Y201.533 E70.73692
G0 F4800 X198.139 Y202.098
G1 F1080 X180.4 Y184.36 E71.86332
G0 F4800 X179.834 Y184.36
G1 F1080 X198.139 Y202.664 E73.02565
G0 F4800 X198.139 Y203.23
G1 F1080 X179.269 Y184.36 E74.22389
G0 F4800 X178.703 Y184.36
G1 F1080 X198.139 Y203.795 E75.45804
G0 F4800 X198.139 Y204.361
G1 F1080 X178.137 Y184.36 E76.72814
G0 F4800 X177.572 Y184.36
G1 F1080 X198.139 Y204.927 E78.03414
G0 F4800 X198.139 Y205.493
G1 F1080 X177.006 Y184.36 E79.37608
G0 F4800 X176.44 Y184.36
G1 F1080 X198.139 Y206.058 E80.75393
G0 F4800 X198.139 Y206.624
G1 F1080 X175.875 Y184.36 E82.16769
G0 F4800 X175.309 Y184.36
G1 F1080 X198.139 Y207.19 E83.61739
G0 F4800 X198.139 Y207.755
G1 F1080 X174.743 Y184.36 E85.103
G0 F4800 X174.178 Y184.36
G1 F1080 X198.139 Y208.321 E86.62452
G0 F4800 X198.139 Y208.887
G1 F1080 X173.612 Y184.36 E88.18199
G0 F4800 X173.046 Y184.36
G1 F1080 X198.139 Y209.452 E89.77536
G0 F4800 X198.139 Y210.018
G1 F1080 X172.481 Y184.36 E91.40464
G0 F4800 X171.915 Y184.36
G1 F1080 X198.139 Y210.584 E93.06986
G0 F4800 X197.627 Y210.637
G1 F1080 X171.86 Y184.871 E94.70603
G0 F4800 X171.86 Y185.437
G1 F1080 X197.061 Y210.637 E96.30625
G0 F4800 X196.495 Y210.637
G1 F1080 X171.86 Y186.003 E97.87054
G0 F4800 X171.86 Y186.568
G1 F1080 X195.93 Y210.637 E99.39895
G0 F4800 X195.364 Y210.637
G1 F1080 X171.86 Y187.134 E100.89142
G0 F4800 X171.86 Y187.7
G1 F1080 X194.798 Y210.637 E102.34795
G0 F4800 X194.233 Y210.637
G1 F1080 X171.86 Y188.265 E103.7686
G0 F4800 X171.86 Y188.831
G1 F1080 X193.667 Y210.637 E105.15331
G0 F4800 X193.101 Y210.637
G1 F1080 X171.86 Y189.397 E106.50208
G0 F4800 X171.86 Y189.962
G1 F1080 X192.535 Y210.637 E107.81494
G0 F4800 X191.97 Y210.637
G1 F1080 X171.86 Y190.528 E109.09189
G0 F4800 X171.86 Y191.094
G1 F1080 X191.404 Y210.637 E110.3329
G0 F4800 X190.838 Y210.637
G1 F1080 X171.86 Y191.659 E111.538
G0 F4800 X171.86 Y192.225
G1 F1080 X190.273 Y210.637 E112.70719
G0 F4800 X189.707 Y210.637
G1 F1080 X171.86 Y192.791 E113.84044
G0 F4800 X171.86 Y193.356
G1 F1080 X189.141 Y210.637 E114.93778
G0 F4800 X188.576 Y210.637
G1 F1080 X171.86 Y193.922 E115.99921
G0 F4800 X171.86 Y194.488
G1 F1080 X188.01 Y210.637 E117.0247
G0 F4800 X187.444 Y210.637
G1 F1080 X171.86 Y195.053 E118.01428
G0 F4800 X171.86 Y195.619
G1 F1080 X186.879 Y210.637 E118.96796
G0 F4800 X186.313 Y210.637
G1 F1080 X171.86 Y196.185 E119.88569
G0 F4800 X171.86 Y196.751
G1 F1080 X185.747 Y210.637 E120.76748
G0 F4800 X185.182 Y210.637
G1 F1080 X171.86 Y197.316 E121.61339
G0 F4800 X171.86 Y197.882
G1 F1080 X184.616 Y210.637 E122.42337
G0 F4800 X184.05 Y210.637
G1 F1080 X171.86 Y198.448 E123.1974
G0 F4800 X171.86 Y199.013
G1 F1080 X183.485 Y210.637 E123.93555
G0 F4800 X182.919 Y210.637
G1 F1080 X171.86 Y199.579 E124.63776
G0 F4800 X171.86 Y200.145
M104 S205
G1 F1080 X182.353 Y210.637 E125.30404
G0 F4800 X181.787 Y210.637
G1 F1080 X171.86 Y200.71 E125.9344
G0 F4800 X171.86 Y201.276
G1 F1080 X181.222 Y210.637 E126.52885
G0 F4800 X180.656 Y210.637
G1 F1080 X171.86 Y201.842 E127.08737
G0 F4800 X171.86 Y202.407
G1 F1080 X180.09 Y210.637 E127.60997
G0 F4800 X179.525 Y210.637
G1 F1080 X171.86 Y202.973 E128.09667
G0 F4800 X171.86 Y203.539
G1 F1080 X178.959 Y210.637 E128.54742
G0 F4800 X178.393 Y210.637
G1 F1080 X171.86 Y204.104 E128.96226
G0 F4800 X171.86 Y204.67
G1 F1080 X177.828 Y210.637 E129.3412
G0 F4800 X177.262 Y210.637
G1 F1080 X171.86 Y205.236 E129.68419
G0 F4800 X171.86 Y205.802
G1 F1080 X176.696 Y210.637 E129.99125
G0 F4800 X176.131 Y210.637
G1 F1080 X171.86 Y206.367 E130.26242
G0 F4800 X171.86 Y206.933
G1 F1080 X175.565 Y210.637 E130.49766
G0 F4800 X174.999 Y210.637
G1 F1080 X171.86 Y207.499 E130.69695
G0 F4800 X171.86 Y208.064
G1 F1080 X174.434 Y210.637 E130.86037
G0 F4800 X173.868 Y210.637
G1 F1080 X171.86 Y208.63 E130.98785
G0 F4800 X171.86 Y209.196
G1 F1080 X173.302 Y210.637 E131.07938
G0 F4800 X172.736 Y210.637
G1 F1080 X171.86 Y209.761 E131.13501
G0 F4800 X171.86 Y210.327
G1 F1080 X172.171 Y210.637 E131.15472
G1 F2400 E130.15472
G1 F600 Z0.8
;MESH:NONMESH
G0 F4800 X170.201 Y182.701 Z0.8
;TIME_ELAPSED:174.525419
;LAYER:1
M140 S60
M106 S255
;MESH:Z_Wobble_Test.stl
G0 F5400 X170.201 Y182.701 Z1
;TYPE:WALL-OUTER
G1 F600 Z0.5
G1 F2400 E131.17967
G1 F1170 X170.201 Y212.299 E132.06566
G1 X199.799 Y212.299 E132.95165
G1 X199.799 Y182.701 E133.83764
G1 X185 Y182.701 E134.28063
G1 X170.201 Y182.701 E134.72363
G0 F5400 X170.201 Y182.901
G0 X170.601 Y183.101
;TYPE:WALL-INNER
G1 F1470 X170.601 Y211.899 E135.58567
G1 X199.399 Y211.899 E136.44771
G1 X199.399 Y183.101 E137.30976
G1 X185 Y183.101 E137.74078
G1 X170.601 Y183.101 E138.1718
G0 F5400 X171.001 Y183.501
G1 F1470 X171.001 Y211.499 E139.0099
G1 X198.999 Y211.499 E139.84799
G1 X198.999 Y183.501 E140.68609
G1 X185 Y183.501 E141.10513
G1 X171.001 Y183.501 E141.52418
G0 F5400 X171.261 Y183.761
;TYPE:SKIN
G1 F1440 X171.261 Y211.239 E142.34671
G1 X198.739 Y211.239 E143.16924
G1 X198.739 Y197.5 E143.58051
G1 X198.739 Y183.761 E143.99177
G1 X171.261 Y183.761 E144.8143
G0 F5400 X171.661 Y184.161
G1 F1440 X171.661 Y210.839 E145.61288
G1 X198.339 Y210.839 E146.41147
G1 X198.339 Y197.5 E146.81076
G1 X198.339 Y184.161 E147.21005
G1 X171.661 Y184.161 E148.00863
G0 F5400 X171.86 Y184.52
G1 F1440 X172.022 Y184.359 E148.01547
G0 F5400 X172.587 Y184.359
G1 F1440 X171.86 Y185.086 E148.04624
G0 F5400 X171.86 Y185.652
G1 F1440 X173.153 Y184.359 E148.10098
G0 F5400 X173.719 Y184.359
G1 F1440 X171.86 Y186.217 E148.17966
G0 F5400 X171.86 Y186.783
G1 F1440 X174.284 Y184.359 E148.28227
G0 F5400 X174.85 Y184.359
G1 F1440 X171.86 Y187.349 E148.40885
G0 F5400 X171.86 Y187.915
G1 F1440 X175.416 Y184.359 E148.55939
G0 F5400 X175.981 Y184.359
G1 F1440 X171.86 Y188.48 E148.73384
G0 F5400 X171.86 Y189.046
G1 F1440 X176.547 Y184.359 E148.93226
G0 F5400 X177.113 Y184.359
G1 F1440 X171.86 Y189.612 E149.15463
G0 F5400 X171.86 Y190.177
G1 F1440 X177.678 Y184.359 E149.40093
G0 F5400 X178.244 Y184.359
G1 F1440 X171.86 Y190.743 E149.67118
G0 F5400 X171.86 Y191.309
G1 F1440 X178.81 Y184.359 E149.9654
G0 F5400 X179.376 Y184.359
G1 F1440 X171.86 Y191.874 E150.28356
G0 F5400 X171.86 Y192.44
G1 F1440 X179.941 Y184.359 E150.62565
G0 F5400 X180.507 Y184.359
G1 F1440 X171.86 Y193.006 E150.99171
G0 F5400 X171.86 Y193.571
G1 F1440 X181.073 Y184.359 E151.3817
G0 F5400 X181.638 Y184.359
G1 F1440 X171.86 Y194.137 E151.79564
G0 F5400 X171.86 Y194.703
G1 F1440 X182.204 Y184.359 E152.23353
G0 F5400 X182.77 Y184.359
G1 F1440 X171.86 Y195.268 E152.69537
G0 F5400 X171.86 Y195.834
G1 F1440 X183.335 Y184.359 E153.18114
G0 F5400 X183.901 Y184.359
G1 F1440 X171.86 Y196.4 E153.69087
G0 F5400 X171.86 Y196.966
G1 F1440 X184.467 Y184.359 E154.22457
G0 F5400 X185.032 Y184.36
G1 F1440 X171.86 Y197.531 E154.78216
G0 F5400 X171.86 Y198.097
G1 F1440 X185.597 Y184.36 E155.36369
G0 F5400 X186.163 Y184.36
G1 F1440 X171.86 Y198.663 E155.96919
G0 F5400 X171.86 Y199.228
G1 F1440 X186.729 Y184.36 E156.59862
G0 F5400 X187.294 Y184.36
G1 F1440 X171.86 Y199.794 E157.25199
G0 F5400 X171.86 Y200.36
G1 F1440 X187.86 Y184.36 E157.92932
G0 F5400 X188.426 Y184.36
G1 F1440 X171.86 Y200.925 E158.63059
G0 F5400 X171.86 Y201.491
G1 F1440 X188.991 Y184.36 E159.3558
G0 F5400 X189.557 Y184.36
G1 F1440 X171.86 Y202.057 E160.10497
G0 F5400 X171.86 Y202.622
G1 F1440 X190.123 Y184.36 E160.87808
G0 F5400 X190.689 Y184.36
G1 F1440 X171.86 Y203.188 E161.67516
G0 F5400 X171.86 Y203.754
G1 F1440 X191.254 Y184.36 E162.49617
G0 F5400 X191.82 Y184.36
G1 F1440 X171.86 Y204.319 E163.34112
G0 F5400 X171.86 Y204.885
G1 F1440 X192.386 Y184.36 E164.21003
G0 F5400 X192.951 Y184.36
G1 F1440 X171.86 Y205.451 E165.10288
G0 F5400 X171.86 Y206.016
G1 F1440 X193.517 Y184.36 E166.01967
G0 F5400 X194.083 Y184.36
G1 F1440 X171.86 Y206.582 E166.96042
G0 F5400 X171.86 Y207.148
G1 F1440 X194.648 Y184.36 E167.92511
G0 F5400 X195.214 Y184.36
G1 F1440 X171.86 Y207.714 E168.91376
G0 F5400 X171.86 Y208.279
G1 F1440 X195.78 Y184.36 E169.92635
G0 F5400 X196.345 Y184.36
G1 F1440 X171.86 Y208.845 E170.96288
G0 F5400 X171.86 Y209.411
G1 F1440 X196.911 Y184.36 E172.02337
G0 F5400 X197.477 Y184.36
G1 F1440 X171.86 Y209.976 E173.1078
G0 F5400 X171.86 Y210.542
G1 F1440 X198.042 Y184.36 E174.21617
G0 F5400 X198.138 Y184.83
G1 F1440 X172.33 Y210.638 E175.3087
G0 F5400 X172.896 Y210.638
G1 F1440 X198.138 Y185.396 E176.37728
G0 F5400 X198.138 Y185.962
