;FLAVOR:Marlin
;TIME:1732
;Filament used: 1.4763m
;Layer height: 0.2
;MINX:0.7
;MINY:0.7
;MINZ:0.3
;MAXX:249.3
;MAXY:249.3
;MAXZ:0.8
;Generated with Cura_SteamEngine 5.0.0
M140 S70
M105
M190 S70
M104 S215
M105
M109 S215
M82 ;absolute extrusion mode
;Sliced at: Sat 04-06-2022 16:54:50
G21 ;metric values
M107
G28
M420 S1
G90 ;absolute positioning
G92 E0; reset extruder distance
G1 X0 Y0 Z5 F5000 ;move nozzle up 5mm for safe homing
G29;ABL
M500
M82 ;set extruder to absolute mode
M107 ;start with the fan off
G1 X0 Y0 Z15.0 F5000 ;move the platform down 15mm
G92 E0 ;zero the extruded length
G1 F200 E3 ;extrude 3mm of feed stock
G1 F200 E0 ;Retract
G4 S2 ;Wait for material to fall
G1 F200 E3
G92 E0 ;zero the extruded length again
M117 Printing...
G92 E0
;WIPE
G91
G1 X -20 F3000
G1 X40
G1 X-20
G90

G92 E0
G1 F2400 E-1
;LAYER_COUNT:1
;LAYER:0
M107
G1 F600 Z0.8
G0 F4800 X1.303 Y1.155 Z0.8
G1 F600 Z0.8
G0 F4800 X0.7 Y2.5
;TYPE:SKIRT
G1 F600 Z0.3
G1 F2400 E0.02495
G1 F1200 X0.74 Y2.123 E0.04197
G1 X0.858 Y1.763 E0.05898
G1 X1.048 Y1.436 E0.07596
G1 X1.303 Y1.155 E0.093
G1 X1.612 Y0.935 E0.11003
G1 X1.959 Y0.783 E0.12704
G1 X2.5 Y0.7 E0.15162
G1 X33.125 Y0.7 E1.52671
G1 X33.502 Y0.74 E1.54374
G1 X33.862 Y0.858 E1.56075
G1 X34.189 Y1.048 E1.57773
G1 X34.47 Y1.303 E1.59477
G1 X34.69 Y1.612 E1.6118
G1 X34.842 Y1.959 E1.62881
G1 X34.925 Y2.5 E1.65338
G1 X34.925 Y40.781 E3.37225
G1 X34.885 Y41.158 E3.38927
G1 X34.767 Y41.518 E3.40628
G1 X34.577 Y41.845 E3.42326
G1 X34.322 Y42.126 E3.4403
G1 X34.013 Y42.346 E3.45733
G1 X33.666 Y42.498 E3.47434
G1 X33.125 Y42.581 E3.49892
G1 X2.5 Y42.581 E4.87401
G1 X2.123 Y42.541 E4.89104
G1 X1.763 Y42.423 E4.90805
G1 X1.436 Y42.233 E4.92503
G1 X1.155 Y41.978 E4.94207
G1 X0.935 Y41.669 E4.9591
G1 X0.783 Y41.322 E4.97611
G1 X0.7 Y40.781 E5.00069
G1 X0.7 Y2.5 E6.71955
G0 F4800 X1.1 Y2.5
G1 F1200 X1.14 Y2.168 E6.73456
G1 X1.257 Y1.856 E6.74952
G1 X1.445 Y1.579 E6.76456
G1 X1.693 Y1.356 E6.77953
G1 X1.987 Y1.197 E6.79454
G1 X2.5 Y1.1 E6.81798
G1 X33.125 Y1.1 E8.19308
G1 X33.457 Y1.14 E8.20809
G1 X33.769 Y1.257 E8.22306
G1 X34.046 Y1.445 E8.23809
G1 X34.269 Y1.693 E8.25306
G1 X34.428 Y1.987 E8.26807
G1 X34.525 Y2.5 E8.29151
G1 X34.525 Y40.781 E10.01038
G1 X34.485 Y41.113 E10.02539
G1 X34.368 Y41.425 E10.04035
G1 X34.18 Y41.702 E10.05538
G1 X33.932 Y41.925 E10.07036
G1 X33.638 Y42.084 E10.08537
G1 X33.125 Y42.181 E10.10881
G1 X2.5 Y42.181 E11.48391
G1 X2.168 Y42.141 E11.49892
G1 X1.856 Y42.024 E11.51389
G1 X1.579 Y41.836 E11.52892
G1 X1.356 Y41.588 E11.54389
G1 X1.197 Y41.294 E11.5589
G1 X1.1 Y40.781 E11.58234
G1 X1.1 Y2.5 E13.30121
G0 F4800 X1.5 Y2.5
G1 F1200 X1.54 Y2.221 E13.31386
G1 X1.656 Y1.964 E13.32652
G1 X1.839 Y1.749 E13.3392
G1 X2.075 Y1.595 E13.35185
G1 X2.5 Y1.5 E13.37141
G1 X33.125 Y1.5 E14.7465
G1 X33.404 Y1.54 E14.75916
G1 X33.661 Y1.656 E14.77182
G1 X33.876 Y1.839 E14.7845
G1 X34.03 Y2.075 E14.79715
G1 X34.125 Y2.5 E14.8167
G1 X34.125 Y40.781 E16.53557
G1 X34.085 Y41.06 E16.54822
G1 X33.969 Y41.317 E16.56088
G1 X33.786 Y41.532 E16.57356
G1 X33.55 Y41.686 E16.58621
G1 X33.125 Y41.781 E16.60577
G1 X2.5 Y41.781 E17.98087
G1 X2.221 Y41.741 E17.99352
G1 X1.964 Y41.625 E18.00618
G1 X1.749 Y41.442 E18.01886
G1 X1.595 Y41.206 E18.03151
G1 X1.5 Y40.781 E18.05107
G1 X1.5 Y2.5 E19.76993
G0 F4800 X1.9 Y2.5
G1 F1200 X1.94 Y2.285 E19.77975
G1 X2.053 Y2.099 E19.78952
G1 X2.226 Y1.966 E19.79932
G1 X2.5 Y1.9 E19.81197
G1 X33.125 Y1.9 E21.18707
G1 X33.34 Y1.94 E21.19689
G1 X33.526 Y2.053 E21.20666
G1 X33.659 Y2.226 E21.21646
G1 X33.725 Y2.5 E21.22912
G1 X33.725 Y40.781 E22.94798
G1 X33.685 Y40.996 E22.9578
G1 X33.572 Y41.182 E22.96757
G1 X33.399 Y41.315 E22.97737
G1 X33.125 Y41.381 E22.99002
G1 X2.5 Y41.381 E24.36512
G1 X2.285 Y41.341 E24.37494
G1 X2.099 Y41.228 E24.38471
G1 X1.966 Y41.055 E24.39451
G1 X1.9 Y40.781 E24.40717
G1 X1.9 Y2.5 E26.12603
G0 F4800 X2.3 Y2.5
G1 F1200 X2.339 Y2.381 E26.13165
G1 X2.5 Y2.3 E26.13974
G1 X33.125 Y2.3 E27.51484
G1 X33.244 Y2.339 E27.52047
G1 X33.325 Y2.5 E27.52856
G1 X33.325 Y40.781 E29.24742
G1 X33.286 Y40.9 E29.25304
G1 X33.125 Y40.981 E29.26114
G1 X2.5 Y40.981 E30.63623
G1 X2.381 Y40.942 E30.64186
G1 X2.3 Y40.781 E30.64995
G1 X2.3 Y2.5 E32.36881
G1 F2400 E31.36881
G1 F600 Z0.8
G0 F4800 X1.959 Y104.142 Z0.8
G1 F600 Z0.3
G1 F2400 E32.39376
G1 F1200 X2.5 Y104.059 E32.41833
G1 X33.125 Y104.059 E33.79343
G1 X33.502 Y104.099 E33.81045
G1 X33.862 Y104.217 E33.82746
G1 X34.189 Y104.407 E33.84445
G1 X34.47 Y104.662 E33.86148
G1 X34.69 Y104.971 E33.87852
G1 X34.842 Y105.318 E33.89553
G1 X34.925 Y105.859 E33.9201
G1 X34.925 Y144.141 E35.63901
G1 X34.885 Y144.518 E35.65603
G1 X34.767 Y144.878 E35.67304
G1 X34.577 Y145.205 E35.69002
G1 X34.322 Y145.486 E35.70706
G1 X34.013 Y145.706 E35.72409
G1 X33.666 Y145.858 E35.7411
G1 X33.125 Y145.941 E35.76568
G1 X2.5 Y145.941 E37.14078
G1 X2.123 Y145.901 E37.1578
G1 X1.763 Y145.783 E37.17481
G1 X1.436 Y145.593 E37.19179
G1 X1.155 Y145.338 E37.20883
G1 X0.935 Y145.029 E37.22586
G1 X0.783 Y144.682 E37.24287
G1 X0.7 Y144.141 E37.26745
G1 X0.7 Y105.859 E38.98635
G1 X0.74 Y105.482 E39.00338
G1 X0.858 Y105.122 E39.02039
G1 X1.048 Y104.795 E39.03737
G1 X1.303 Y104.514 E39.05441
G1 X1.612 Y104.294 E39.07144
G1 X1.959 Y104.142 E39.08845
G1 F2400 E38.08845
G1 F600 Z0.8
G0 F4800 X1.9 Y105.859 Z0.8
G1 F600 Z0.3
G1 F2400 E39.11339
G1 F1200 X1.94 Y105.644 E39.12321
G1 X2.053 Y105.458 E39.13298
G1 X2.226 Y105.325 E39.14278
G1 X2.5 Y105.259 E39.15544
G1 X33.125 Y105.259 E40.53054
G1 X33.34 Y105.299 E40.54036
G1 X33.526 Y105.412 E40.55013
G1 X33.659 Y105.585 E40.55993
G1 X33.725 Y105.859 E40.57258
G1 X33.725 Y144.141 E42.29149
G1 X33.685 Y144.356 E42.30131
G1 X33.572 Y144.542 E42.31108
G1 X33.399 Y144.675 E42.32088
G1 X33.125 Y144.741 E42.33353
G1 X2.5 Y144.741 E43.70863
G1 X2.285 Y144.701 E43.71845
G1 X2.099 Y144.588 E43.72822
G1 X1.966 Y144.415 E43.73802
G1 X1.9 Y144.141 E43.75068
G1 X1.9 Y105.859 E45.46958
G0 F4800 X2.3 Y105.859
G1 F1200 X2.339 Y105.74 E45.47521
G1 X2.5 Y105.659 E45.4833
G1 X33.125 Y105.659 E46.8584
G1 X33.244 Y105.698 E46.86402
G1 X33.325 Y105.859 E46.87211
G1 X33.325 Y144.141 E48.59102
G1 X33.286 Y144.26 E48.59664
G1 X33.125 Y144.341 E48.60473
G1 X2.5 Y144.341 E49.97983
G1 X2.381 Y144.302 E49.98546
G1 X2.3 Y144.141 E49.99355
G1 X2.3 Y105.859 E51.71246
G0 F4800 X1.5 Y105.859
G1 F1200 X1.54 Y105.58 E51.72511
G1 X1.656 Y105.323 E51.73777
G1 X1.839 Y105.108 E51.75045
G1 X2.075 Y104.954 E51.7631
G1 X2.5 Y104.859 E51.78266
G1 X33.125 Y104.859 E53.15775
G1 X33.404 Y104.899 E53.17041
G1 X33.661 Y105.015 E53.18307
G1 X33.876 Y105.198 E53.19575
G1 X34.03 Y105.434 E53.2084
G1 X34.125 Y105.859 E53.22796
G1 X34.125 Y144.141 E54.94686
G1 X34.085 Y144.42 E54.95952
G1 X33.969 Y144.677 E54.97218
G1 X33.786 Y144.892 E54.98486
G1 X33.55 Y145.046 E54.99751
G1 X33.125 Y145.141 E55.01706
G1 X2.5 Y145.141 E56.39216
G1 X2.221 Y145.101 E56.40482
G1 X1.964 Y144.985 E56.41748
G1 X1.749 Y144.802 E56.43015
G1 X1.595 Y144.566 E56.44281
G1 X1.5 Y144.141 E56.46236
G1 X1.5 Y105.859 E58.18127
G0 F4800 X1.1 Y105.859
G1 F1200 X1.14 Y105.527 E58.19628
G1 X1.257 Y105.215 E58.21125
G1 X1.445 Y104.938 E58.22628
G1 X1.693 Y104.715 E58.24125
G1 X1.987 Y104.556 E58.25626
G1 X2.5 Y104.459 E58.2797
G1 X33.125 Y104.459 E59.6548
G1 X33.457 Y104.499 E59.66982
G1 X33.769 Y104.616 E59.68478
G1 X34.046 Y104.804 E59.69981
G1 X34.269 Y105.052 E59.71479
G1 X34.428 Y105.346 E59.72979
G1 X34.525 Y105.859 E59.75324
G1 X34.525 Y144.141 E61.47214
G1 X34.485 Y144.473 E61.48716
G1 X34.368 Y144.785 E61.50212
G1 X34.18 Y145.062 E61.51715
G1 X33.932 Y145.285 E61.53213
G1 X33.638 Y145.444 E61.54713
G1 X33.125 Y145.541 E61.57058
G1 X2.5 Y145.541 E62.94568
G1 X2.168 Y145.501 E62.96069
G1 X1.856 Y145.384 E62.97565
G1 X1.579 Y145.196 E62.99068
G1 X1.356 Y144.948 E63.00566
G1 X1.197 Y144.654 E63.02067
G1 X1.1 Y144.141 E63.04411
G1 X1.1 Y105.859 E64.76302
G1 F2400 E63.76302
G1 F600 Z0.8
G0 F4800 X1.959 Y207.502 Z0.8
G1 F600 Z0.3
G1 F2400 E64.78796
G1 F1200 X2.5 Y207.419 E64.81254
G1 X33.125 Y207.419 E66.18764
G1 X33.502 Y207.459 E66.20466
G1 X33.862 Y207.577 E66.22167
G1 X34.189 Y207.767 E66.23865
G1 X34.47 Y208.022 E66.25569
G1 X34.69 Y208.331 E66.27272
G1 X34.842 Y208.678 E66.28973
G1 X34.925 Y209.219 E66.31431
G1 X34.925 Y247.5 E68.03317
G1 X34.885 Y247.877 E68.05019
G1 X34.767 Y248.237 E68.0672
G1 X34.577 Y248.564 E68.08418
G1 X34.322 Y248.845 E68.10122
G1 X34.013 Y249.065 E68.11825
G1 X33.666 Y249.217 E68.13526
G1 X33.125 Y249.3 E68.15984
G1 X2.5 Y249.3 E69.53494
G1 X2.123 Y249.26 E69.55196
G1 X1.763 Y249.142 E69.56897
G1 X1.436 Y248.952 E69.58595
G1 X1.155 Y248.697 E69.60299
G1 X0.935 Y248.388 E69.62002
G1 X0.783 Y248.041 E69.63703
G1 X0.7 Y247.5 E69.66161
G1 X0.7 Y209.219 E71.38047
G1 X0.74 Y208.842 E71.39749
G1 X0.858 Y208.482 E71.4145
G1 X1.048 Y208.155 E71.43148
G1 X1.303 Y207.874 E71.44852
G1 X1.612 Y207.654 E71.46555
G1 X1.959 Y207.502 E71.48256
G1 F2400 E70.48256
G1 F600 Z0.8
G0 F4800 X1.9 Y209.219 Z0.8
G1 F600 Z0.3
G1 F2400 E71.50751
G1 F1200 X1.94 Y209.004 E71.51733
G1 X2.053 Y208.818 E71.5271
G1 X2.226 Y208.685 E71.5369
G1 X2.5 Y208.619 E71.54955
G1 X33.125 Y208.619 E72.92465
G1 X33.34 Y208.659 E72.93447
G1 X33.526 Y208.772 E72.94424
G1 X33.659 Y208.945 E72.95404
G1 X33.725 Y209.219 E72.9667
G1 X33.725 Y247.5 E74.68556
G1 X33.685 Y247.715 E74.69538
G1 X33.572 Y247.901 E74.70515
G1 X33.399 Y248.034 E74.71495
G1 X33.125 Y248.1 E74.7276
G1 X2.5 Y248.1 E76.1027
G1 X2.285 Y248.06 E76.11252
G1 X2.099 Y247.947 E76.12229
G1 X1.966 Y247.774 E76.13209
G1 X1.9 Y247.5 E76.14475
G1 X1.9 Y209.219 E77.86361
G0 F4800 X2.3 Y209.219
G1 F1200 X2.339 Y209.1 E77.86923
G1 X2.5 Y209.019 E77.87732
G1 X33.125 Y209.019 E79.25242
G1 X33.244 Y209.058 E79.25805
G1 X33.325 Y209.219 E79.26614
G1 X33.325 Y247.5 E80.985
G1 X33.286 Y247.619 E80.99062
G1 X33.125 Y247.7 E80.99872
G1 X2.5 Y247.7 E82.37381
G1 X2.381 Y247.661 E82.37944
G1 X2.3 Y247.5 E82.38753
G1 X2.3 Y209.219 E84.10639
G0 F4800 X1.5 Y209.219
G1 F1200 X1.54 Y208.94 E84.11905
G1 X1.656 Y208.683 E84.13171
G1 X1.839 Y208.468 E84.14438
G1 X2.075 Y208.314 E84.15704
G1 X2.5 Y208.219 E84.17659
G1 X33.125 Y208.219 E85.55169
G1 X33.404 Y208.259 E85.56435
G1 X33.661 Y208.375 E85.57701
G1 X33.876 Y208.558 E85.58968
G1 X34.03 Y208.794 E85.60234
G1 X34.125 Y209.219 E85.62189
G1 X34.125 Y247.5 E87.34075
G1 X34.085 Y247.779 E87.35341
G1 X33.969 Y248.036 E87.36607
G1 X33.786 Y248.251 E87.37875
G1 X33.55 Y248.405 E87.3914
G1 X33.125 Y248.5 E87.41095
G1 X2.5 Y248.5 E88.78605
G1 X2.221 Y248.46 E88.79871
G1 X1.964 Y248.344 E88.81137
G1 X1.749 Y248.161 E88.82405
G1 X1.595 Y247.925 E88.8367
G1 X1.5 Y247.5 E88.85625
G1 X1.5 Y209.219 E90.57512
G0 F4800 X1.1 Y209.219
G1 F1200 X1.14 Y208.887 E90.59013
G1 X1.257 Y208.575 E90.60509
G1 X1.445 Y208.298 E90.62012
G1 X1.693 Y208.075 E90.6351
G1 X1.987 Y207.916 E90.65011
G1 X2.5 Y207.819 E90.67355
G1 X33.125 Y207.819 E92.04865
G1 X33.457 Y207.859 E92.06366
G1 X33.769 Y207.976 E92.07863
G1 X34.046 Y208.164 E92.09366
G1 X34.269 Y208.412 E92.10863
G1 X34.428 Y208.706 E92.12364
G1 X34.525 Y209.219 E92.14708
G1 X34.525 Y247.5 E93.86594
G1 X34.485 Y247.832 E93.88096
G1 X34.368 Y248.144 E93.89592
G1 X34.18 Y248.421 E93.91095
G1 X33.932 Y248.644 E93.92593
G1 X33.638 Y248.803 E93.94094
G1 X33.125 Y248.9 E93.96438
G1 X2.5 Y248.9 E95.33948
G1 X2.168 Y248.86 E95.35449
G1 X1.856 Y248.743 E95.36945
G1 X1.579 Y248.555 E95.38449
G1 X1.356 Y248.307 E95.39946
G1 X1.197 Y248.013 E95.41447
G1 X1.1 Y247.5 E95.43791
G1 X1.1 Y209.219 E97.15677
G1 F2400 E96.15677
G1 F600 Z0.8
G0 F4800 X107.887 Y209.219 Z0.8
G1 F600 Z0.3
G1 F2400 E97.18172
G1 F1200 X107.927 Y208.842 E97.19874
G1 X108.045 Y208.482 E97.21575
G1 X108.235 Y208.155 E97.23273
G1 X108.49 Y207.874 E97.24977
G1 X108.799 Y207.654 E97.2668
G1 X109.146 Y207.502 E97.28381
G1 X109.687 Y207.419 E97.30839
G1 X140.313 Y207.419 E98.68353
G1 X140.69 Y207.459 E98.70055
G1 X141.05 Y207.577 E98.71757
G1 X141.377 Y207.767 E98.73455
G1 X141.658 Y208.022 E98.75158
G1 X141.878 Y208.331 E98.76862
G1 X142.03 Y208.678 E98.78563
G1 X142.113 Y209.219 E98.8102
G1 X142.113 Y247.5 E100.52906
G1 X142.073 Y247.877 E100.54609
G1 X141.955 Y248.237 E100.5631
G1 X141.765 Y248.564 E100.58008
G1 X141.51 Y248.845 E100.59712
G1 X141.201 Y249.065 E100.61415
G1 X140.854 Y249.217 E100.63116
G1 X140.313 Y249.3 E100.65573
G1 X109.687 Y249.3 E102.03088
G1 X109.31 Y249.26 E102.0479
G1 X108.95 Y249.142 E102.06491
G1 X108.623 Y248.952 E102.08189
G1 X108.342 Y248.697 E102.09893
G1 X108.122 Y248.388 E102.11596
G1 X107.97 Y248.041 E102.13297
G1 X107.887 Y247.5 E102.15755
G1 X107.887 Y209.219 E103.87641
G0 F4800 X108.287 Y209.219
G1 F1200 X108.327 Y208.887 E103.89143
G1 X108.444 Y208.575 E103.90639
G1 X108.632 Y208.298 E103.92142
G1 X108.88 Y208.075 E103.93639
G1 X109.174 Y207.916 E103.9514
G1 X109.687 Y207.819 E103.97484
G1 X140.313 Y207.819 E105.34999
G1 X140.645 Y207.859 E105.365
G1 X140.957 Y207.976 E105.37996
G1 X141.234 Y208.164 E105.395
G1 X141.457 Y208.412 E105.40997
G1 X141.616 Y208.706 E105.42498
G1 X141.713 Y209.219 E105.44842
G1 X141.713 Y247.5 E107.16728
G1 X141.673 Y247.832 E107.1823
G1 X141.556 Y248.144 E107.19726
G1 X141.368 Y248.421 E107.21229
G1 X141.12 Y248.644 E107.22727
G1 X140.826 Y248.803 E107.24228
G1 X140.313 Y248.9 E107.26572
G1 X109.687 Y248.9 E108.64086
G1 X109.355 Y248.86 E108.65588
G1 X109.043 Y248.743 E108.67084
G1 X108.766 Y248.555 E108.68587
G1 X108.543 Y248.307 E108.70085
G1 X108.384 Y248.013 E108.71585
G1 X108.287 Y247.5 E108.7393
G1 X108.287 Y209.219 E110.45816
G0 F4800 X108.687 Y209.219
G1 F1200 X108.727 Y208.94 E110.47081
G1 X108.843 Y208.683 E110.48347
G1 X109.026 Y208.468 E110.49615
G1 X109.262 Y208.314 E110.5088
G1 X109.687 Y208.219 E110.52836
G1 X140.313 Y208.219 E111.9035
G1 X140.592 Y208.259 E111.91616
G1 X140.849 Y208.375 E111.92882
G1 X141.064 Y208.558 E111.9415
G1 X141.218 Y208.794 E111.95415
G1 X141.313 Y209.219 E111.9737
G1 X141.313 Y247.5 E113.69256
G1 X141.273 Y247.779 E113.70522
G1 X141.157 Y248.036 E113.71788
G1 X140.974 Y248.251 E113.73056
G1 X140.738 Y248.405 E113.74321
G1 X140.313 Y248.5 E113.76277
G1 X109.687 Y248.5 E115.13791
G1 X109.408 Y248.46 E115.15056
G1 X109.151 Y248.344 E115.16323
G1 X108.936 Y248.161 E115.1759
G1 X108.782 Y247.925 E115.18856
G1 X108.687 Y247.5 E115.20811
G1 X108.687 Y209.219 E116.92697
G0 F4800 X109.087 Y209.219
G1 F1200 X109.127 Y209.004 E116.93679
G1 X109.24 Y208.818 E116.94656
G1 X109.413 Y208.685 E116.95636
G1 X109.687 Y208.619 E116.96902
G1 X140.313 Y208.619 E118.34416
G1 X140.528 Y208.659 E118.35398
G1 X140.714 Y208.772 E118.36375
G1 X140.847 Y208.945 E118.37355
G1 X140.913 Y209.219 E118.3862
G1 X140.913 Y247.5 E120.10507
G1 X140.873 Y247.715 E120.11489
G1 X140.76 Y247.901 E120.12466
G1 X140.587 Y248.034 E120.13446
G1 X140.313 Y248.1 E120.14711
G1 X109.687 Y248.1 E121.52225
G1 X109.472 Y248.06 E121.53207
G1 X109.286 Y247.947 E121.54185
G1 X109.153 Y247.774 E121.55164
G1 X109.087 Y247.5 E121.5643
G1 X109.087 Y209.219 E123.28316
G0 F4800 X109.487 Y209.219
G1 F1200 X109.526 Y209.1 E123.28878
G1 X109.687 Y209.019 E123.29688
G1 X140.313 Y209.019 E124.67202
G1 X140.432 Y209.058 E124.67764
G1 X140.513 Y209.219 E124.68574
G1 X140.513 Y247.5 E126.4046
G1 X140.474 Y247.619 E126.41022
G1 X140.313 Y247.7 E126.41831
G1 X109.687 Y247.7 E127.79346
G1 X109.568 Y247.661 E127.79908
G1 X109.487 Y247.5 E127.80717
G1 X109.487 Y209.219 E129.52603
G1 F2400 E128.52603
G1 F600 Z0.8
G0 F4800 X108.95 Y145.783 Z0.8
G1 F600 Z0.3
G1 F2400 E129.55098
G1 F1200 X108.623 Y145.593 E129.56796
G1 X108.342 Y145.338 E129.585
G1 X108.122 Y145.029 E129.60203
G1 X107.97 Y144.682 E129.61904
G1 X107.887 Y144.141 E129.64362
G1 X107.887 Y105.859 E131.36252
G1 X107.927 Y105.482 E131.37955
G1 X108.045 Y105.122 E131.39656
G1 X108.235 Y104.795 E131.41354
G1 X108.49 Y104.514 E131.43058
G1 X108.799 Y104.294 E131.44761
G1 X109.146 Y104.142 E131.46462
G1 X109.687 Y104.059 E131.48919
G1 X140.313 Y104.059 E132.86434
G1 X140.69 Y104.099 E132.88136
G1 X141.05 Y104.217 E132.89837
G1 X141.377 Y104.407 E132.91535
G1 X141.658 Y104.662 E132.93239
G1 X141.878 Y104.971 E132.94942
G1 X142.03 Y105.318 E132.96643
