;FLAVOR:Marlin
;TIME:4179
;Filament used: 1.99425m
;Layer height: 0.2
;MINX:94.818
;MINY:115.226
;MINZ:0.3
;MAXX:155.182
;MAXY:135.624
;MAXZ:15.6
;Generated with Cura_SteamEngine 5.0.0
M140 S70
M105
M190 S70
M104 S215
M105
M109 S215
M82 ;absolute extrusion mode
;Sliced at: Sat 04-06-2022 16:38:24
G21 ;metric values
M107
G28
M420 S1
G90 ;absolute positioning
G92 E0; reset extruder distance
G1 X0 Y0 Z5 F5000 ;move nozzle up 5mm for safe homing
G29;ABL
M500
M82 ;set extruder to absolute mode
M107 ;start with the fan off
G1 X0 Y0 Z15.0 F5000 ;move the platform down 15mm
G92 E0 ;zero the extruded length
G1 F200 E3 ;extrude 3mm of feed stock
G1 F200 E0 ;Retract
G4 S2 ;Wait for material to fall
G1 F200 E3
G92 E0 ;zero the extruded length again
M117 Printing...
G92 E0
;WIPE
G91
G1 X -20 F3000
G1 X40
G1 X-20
G90

G92 E0
G1 F2400 E-1
;LAYER_COUNT:75
;LAYER:0
M107
G1 F600 Z0.8
G0 F4800 X95.421 Y115.681 Z0.8
G1 F600 Z0.8
G0 F4800 X94.818 Y117.026
;TYPE:SKIRT
G1 F600 Z0.3
G1 F2400 E0.02495
G1 F1200 X94.858 Y116.649 E0.04197
G1 X94.976 Y116.289 E0.05898
G1 X95.166 Y115.962 E0.07596
G1 X95.421 Y115.681 E0.093
G1 X95.73 Y115.461 E0.11003
G1 X96.077 Y115.309 E0.12704
G1 X96.618 Y115.226 E0.15162
G1 X153.382 Y115.227 E2.70039
G1 X153.759 Y115.267 E2.71741
G1 X154.119 Y115.385 E2.73442
G1 X154.446 Y115.575 E2.7514
G1 X154.727 Y115.831 E2.76847
G1 X154.947 Y116.139 E2.78546
G1 X155.099 Y116.486 E2.80247
G1 X155.182 Y117.027 E2.82705
G1 X155.182 Y133.824 E3.58125
G1 X155.142 Y134.201 E3.59828
G1 X155.024 Y134.561 E3.61529
G1 X154.834 Y134.888 E3.63227
G1 X154.579 Y135.169 E3.64931
G1 X154.27 Y135.389 E3.66634
G1 X153.923 Y135.541 E3.68335
G1 X153.382 Y135.624 E3.70792
G1 X96.618 Y135.624 E6.2567
G1 X96.241 Y135.584 E6.27372
G1 X95.881 Y135.466 E6.29073
G1 X95.554 Y135.276 E6.30771
G1 X95.273 Y135.021 E6.32475
G1 X95.053 Y134.712 E6.34178
G1 X94.901 Y134.365 E6.35879
G1 X94.818 Y133.824 E6.38337
G1 X94.818 Y117.026 E7.13762
G0 F4800 X95.218 Y117.026
G1 F1200 X95.258 Y116.694 E7.15263
G1 X95.375 Y116.382 E7.16759
G1 X95.563 Y116.105 E7.18262
G1 X95.811 Y115.882 E7.1976
G1 X96.105 Y115.723 E7.21261
G1 X96.618 Y115.626 E7.23605
G1 X153.382 Y115.627 E9.78482
G1 X153.714 Y115.667 E9.79984
G1 X154.026 Y115.784 E9.8148
G1 X154.303 Y115.972 E9.82983
G1 X154.526 Y116.22 E9.8448
G1 X154.685 Y116.514 E9.85981
G1 X154.782 Y117.027 E9.88325
G1 X154.782 Y133.824 E10.63746
G1 X154.742 Y134.156 E10.65247
G1 X154.625 Y134.468 E10.66744
G1 X154.437 Y134.745 E10.68247
G1 X154.189 Y134.968 E10.69744
G1 X153.895 Y135.127 E10.71245
G1 X153.382 Y135.224 E10.73589
G1 X96.618 Y135.224 E13.28466
G1 X96.286 Y135.184 E13.29968
G1 X95.974 Y135.067 E13.31464
G1 X95.697 Y134.879 E13.32967
G1 X95.474 Y134.631 E13.34465
G1 X95.315 Y134.337 E13.35966
G1 X95.218 Y133.824 E13.3831
G1 X95.218 Y117.026 E14.13735
G0 F4800 X95.618 Y117.026
G1 F1200 X95.658 Y116.747 E14.15
G1 X95.774 Y116.49 E14.16266
G1 X95.957 Y116.275 E14.17534
G1 X96.193 Y116.121 E14.188
G1 X96.618 Y116.026 E14.20755
G1 X153.382 Y116.027 E16.75632
G1 X153.661 Y116.067 E16.76898
G1 X153.918 Y116.183 E16.78164
G1 X154.133 Y116.366 E16.79431
G1 X154.287 Y116.602 E16.80697
G1 X154.382 Y117.027 E16.82652
G1 X154.382 Y133.824 E17.58073
G1 X154.342 Y134.103 E17.59338
G1 X154.226 Y134.36 E17.60604
G1 X154.043 Y134.575 E17.61872
G1 X153.807 Y134.729 E17.63137
G1 X153.382 Y134.824 E17.65093
G1 X96.618 Y134.824 E20.1997
G1 X96.339 Y134.784 E20.21235
G1 X96.082 Y134.668 E20.22501
G1 X95.867 Y134.485 E20.23769
G1 X95.713 Y134.249 E20.25034
G1 X95.618 Y133.824 E20.2699
G1 X95.618 Y117.026 E21.02415
G0 F4800 X96.018 Y117.026
G1 F1200 X96.058 Y116.811 E21.03397
G1 X96.171 Y116.625 E21.04374
G1 X96.344 Y116.492 E21.05354
G1 X96.618 Y116.426 E21.06619
G1 X153.382 Y116.427 E23.61496
G1 X153.597 Y116.467 E23.62478
G1 X153.783 Y116.58 E23.63455
G1 X153.916 Y116.753 E23.64435
G1 X153.982 Y117.027 E23.65701
G1 X153.982 Y133.824 E24.41121
G1 X153.942 Y134.039 E24.42103
G1 X153.829 Y134.225 E24.4308
G1 X153.656 Y134.358 E24.4406
G1 X153.382 Y134.424 E24.45326
G1 X96.618 Y134.424 E27.00203
G1 X96.403 Y134.384 E27.01185
G1 X96.217 Y134.271 E27.02162
G1 X96.084 Y134.098 E27.03142
G1 X96.018 Y133.824 E27.04407
G1 X96.018 Y117.026 E27.79832
G0 F4800 X96.418 Y117.026
G1 F1200 X96.457 Y116.907 E27.80394
G1 X96.618 Y116.826 E27.81204
G1 X153.382 Y116.827 E30.36081
G1 X153.501 Y116.866 E30.36643
G1 X153.582 Y117.027 E30.37452
G1 X153.582 Y133.824 E31.12873
G1 X153.543 Y133.943 E31.13435
G1 X153.382 Y134.024 E31.14244
G1 X96.618 Y134.024 E33.69121
G1 X96.499 Y133.985 E33.69684
G1 X96.418 Y133.824 E33.70493
G1 X96.418 Y117.026 E34.45918
G1 F2400 E33.45918
G1 F600 Z0.8
G0 F4800 X102.182 Y126.79 Z0.8
G1 F600 Z0.3
G1 F2400 E34.48412
G1 F1200 X102.022 Y127.478 E34.51584
G1 X101.969 Y128.174 E34.54718
G1 X102.021 Y128.877 E34.57883
G1 X102.18 Y129.561 E34.61037
G1 X102.442 Y130.22 E34.64221
G1 X102.803 Y130.833 E34.67415
G1 X103.239 Y131.37 E34.70521
G1 X103.688 Y131.783 E34.7326
G1 X104.263 Y132.184 E34.76408
G1 X104.899 Y132.496 E34.79589
G1 X105.568 Y132.705 E34.82736
G1 X106.269 Y132.811 E34.85919
G1 X106.966 Y132.812 E34.89049
G1 X107.668 Y132.706 E34.92237
G1 X108.334 Y132.498 E34.95369
G1 X108.97 Y132.186 E34.9855
G1 X109.567 Y131.768 E35.01823
G1 X110.051 Y131.309 E35.04818
G1 X110.445 Y130.814 E35.07658
G1 X110.793 Y130.218 E35.10757
G1 X111.052 Y129.578 E35.13857
G1 X111.216 Y128.849 E35.17212
G1 X111.267 Y128.174 E35.20252
G1 X111.215 Y127.477 E35.2339
G1 X111.05 Y126.775 E35.26628
G1 X110.792 Y126.131 E35.29743
G1 X110.432 Y125.52 E35.32927
G1 X109.992 Y124.979 E35.36059
G1 X109.547 Y124.569 E35.38776
G1 X108.973 Y124.169 E35.41917
G1 X108.339 Y123.858 E35.45088
G1 X107.667 Y123.648 E35.48249
G1 X106.966 Y123.541 E35.51433
G1 X106.268 Y123.54 E35.54567
G1 X105.567 Y123.647 E35.57751
G1 X104.901 Y123.855 E35.60884
G1 X104.266 Y124.167 E35.64061
G1 X103.668 Y124.585 E35.67337
G1 X103.185 Y125.042 E35.70322
G1 X102.751 Y125.597 E35.73486
G1 X102.444 Y126.131 E35.76252
G1 X102.182 Y126.79 E35.79436
G1 F2400 E34.79436
G1 F600 Z0.8
G0 F4800 X102.37 Y128.178 Z0.8
G1 F600 Z0.3
G1 F2400 E35.8193
G1 F1200 X102.417 Y128.818 E35.84812
G1 X102.563 Y129.443 E35.87694
G1 X102.8 Y130.039 E35.90574
G1 X103.133 Y130.604 E35.93518
G1 X103.535 Y131.099 E35.96382
G1 X103.998 Y131.52 E35.99192
G1 X104.523 Y131.871 E36.02027
G1 X105.047 Y132.123 E36.04638
G1 X105.662 Y132.315 E36.07531
G1 X106.296 Y132.411 E36.1041
G1 X106.941 Y132.412 E36.13306
G1 X107.574 Y132.317 E36.1618
G1 X108.187 Y132.125 E36.19064
G1 X108.765 Y131.841 E36.21956
G1 X109.312 Y131.458 E36.24954
G1 X109.752 Y131.043 E36.2767
G1 X110.146 Y130.542 E36.30532
G1 X110.432 Y130.044 E36.33111
G1 X110.67 Y129.456 E36.35959
G1 X110.818 Y128.797 E36.38992
G1 X110.866 Y128.174 E36.41797
G1 X110.818 Y127.534 E36.44679
G1 X110.669 Y126.898 E36.47612
G1 X110.433 Y126.311 E36.50453
G1 X110.102 Y125.749 E36.53381
G1 X109.698 Y125.252 E36.56257
G1 X109.239 Y124.834 E36.59045
G1 X108.707 Y124.478 E36.61919
G1 X108.191 Y124.231 E36.64488
G1 X107.573 Y124.038 E36.67395
G1 X106.939 Y123.941 E36.70275
G1 X106.295 Y123.94 E36.73166
G1 X105.661 Y124.037 E36.76046
G1 X105.048 Y124.228 E36.78929
G1 X104.471 Y124.512 E36.81817
G1 X103.923 Y124.895 E36.84819
G1 X103.483 Y125.31 E36.87534
G1 X103.092 Y125.807 E36.90374
G1 X102.805 Y126.306 E36.92959
G1 X102.562 Y126.917 E36.95911
G1 X102.419 Y127.534 E36.98755
G1 X102.37 Y128.178 E37.01655
G0 F4800 X102.57 Y128.232
G1 F1200 X102.625 Y127.503 E37.04937
G1 X102.809 Y126.803 E37.08187
G1 X103.119 Y126.14 E37.11474
G1 X103.54 Y125.545 E37.14746
G1 X104.067 Y125.035 E37.18039
G1 X104.672 Y124.629 E37.21311
G1 X105.341 Y124.337 E37.24588
G1 X106.053 Y124.172 E37.2787
G1 X106.78 Y124.137 E37.31138
G1 X107.088 Y124.157 E37.32524
G1 X107.7 Y124.277 E37.35324
G1 X108.381 Y124.533 E37.38591
G1 X109.001 Y124.904 E37.41835
G1 X109.548 Y125.382 E37.45097
G1 X110.001 Y125.952 E37.48366
G1 X110.343 Y126.595 E37.51636
G1 X110.569 Y127.298 E37.54952
G1 X110.662 Y128.02 E37.5822
G1 X110.622 Y128.752 E37.61512
G1 X110.453 Y129.46 E37.6478
G1 X110.159 Y130.128 E37.68058
G1 X110.002 Y130.396 E37.69452
G1 X109.623 Y130.888 E37.72241
G1 X109.089 Y131.381 E37.75504
G1 X108.476 Y131.772 E37.78769
G1 X107.806 Y132.046 E37.82019
G1 X107.089 Y132.197 E37.85309
G1 X106.367 Y132.216 E37.88552
G1 X105.637 Y132.103 E37.91869
G1 X104.946 Y131.861 E37.95156
G1 X104.315 Y131.504 E37.98412
G1 X103.753 Y131.033 E38.01704
G1 X103.288 Y130.473 E38.04972
G1 X102.931 Y129.839 E38.08239
G1 X102.81 Y129.55 E38.09646
G1 X102.646 Y128.956 E38.12413
G1 X102.57 Y128.232 E38.15682
G0 F4800 X102.969 Y128.196
G1 F1200 X103.024 Y127.538 E38.18647
G1 X103.194 Y126.91 E38.21568
G1 X103.494 Y126.289 E38.24665
G1 X103.861 Y125.784 E38.27468
G1 X104.338 Y125.33 E38.30424
G1 X104.883 Y124.968 E38.33362
G1 X105.487 Y124.71 E38.36311
G1 X106.127 Y124.565 E38.39258
G1 X106.781 Y124.537 E38.42197
G1 X107.623 Y124.67 E38.46025
G1 X108.235 Y124.906 E38.4897
G1 X108.792 Y125.245 E38.51898
G1 X109.281 Y125.679 E38.54833
G1 X109.704 Y126.227 E38.57942
G1 X109.999 Y126.803 E38.60847
G1 X110.184 Y127.408 E38.63688
G1 X110.264 Y128.059 E38.66633
G1 X110.224 Y128.715 E38.69584
G1 X110.068 Y129.351 E38.72524
G1 X109.8 Y129.951 E38.75475
G1 X109.306 Y130.644 E38.79296
G1 X108.822 Y131.084 E38.82233
G1 X108.265 Y131.432 E38.85182
G1 X107.659 Y131.674 E38.88112
G1 X107.012 Y131.804 E38.91076
G1 X106.362 Y131.816 E38.93995
G1 X105.709 Y131.71 E38.96965
G1 X105.091 Y131.488 E38.99914
G1 X104.524 Y131.163 E39.02848
G1 X104.022 Y130.736 E39.05807
G1 X103.607 Y130.231 E39.08742
G1 X103.288 Y129.658 E39.11687
G1 X103.031 Y128.849 E39.15498
G1 X102.969 Y128.196 E39.18443
G1 F2400 E38.18443
G1 F600 Z0.8
G0 F4800 X111.969 Y128.174 Z0.8
G1 F600 Z0.3
G1 F2400 E39.20938
G1 F1200 X112.021 Y128.877 E39.24103
G1 X112.18 Y129.561 E39.27256
G1 X112.442 Y130.22 E39.3044
G1 X112.803 Y130.833 E39.33635
G1 X113.239 Y131.37 E39.36741
G1 X113.688 Y131.783 E39.3948
G1 X114.263 Y132.184 E39.42628
G1 X114.899 Y132.496 E39.45808
G1 X115.568 Y132.705 E39.48955
G1 X116.269 Y132.811 E39.52139
G1 X116.966 Y132.812 E39.55268
G1 X117.668 Y132.706 E39.58456
G1 X118.334 Y132.498 E39.61589
G1 X118.97 Y132.186 E39.6477
G1 X119.567 Y131.768 E39.68042
G1 X120.051 Y131.309 E39.71037
G1 X120.445 Y130.814 E39.73878
G1 X120.793 Y130.218 E39.76977
G1 X121.052 Y129.578 E39.80077
G1 X121.216 Y128.849 E39.83432
G1 X121.267 Y128.174 E39.86472
G1 X121.215 Y127.477 E39.8961
G1 X121.05 Y126.775 E39.92848
G1 X120.792 Y126.131 E39.95963
G1 X120.432 Y125.52 E39.99147
G1 X119.992 Y124.979 E40.02278
G1 X119.547 Y124.569 E40.04995
G1 X118.973 Y124.169 E40.08137
G1 X118.339 Y123.858 E40.11307
G1 X117.667 Y123.648 E40.14469
G1 X116.966 Y123.541 E40.17653
G1 X116.268 Y123.54 E40.20787
G1 X115.567 Y123.647 E40.23971
G1 X114.901 Y123.855 E40.27104
G1 X114.266 Y124.167 E40.3028
G1 X113.668 Y124.585 E40.33556
G1 X113.185 Y125.042 E40.36542
G1 X112.751 Y125.597 E40.39706
G1 X112.444 Y126.131 E40.42471
G1 X112.182 Y126.79 E40.45656
G1 X112.022 Y127.478 E40.48827
G1 X111.969 Y128.174 E40.51961
G0 F4800 X112.37 Y128.178
G1 F1200 X112.417 Y128.818 E40.54843
G1 X112.563 Y129.443 E40.57725
G1 X112.8 Y130.039 E40.60605
G1 X113.133 Y130.604 E40.63549
G1 X113.535 Y131.099 E40.66413
G1 X113.998 Y131.52 E40.69222
G1 X114.523 Y131.871 E40.72058
G1 X115.047 Y132.123 E40.74669
G1 X115.662 Y132.315 E40.77562
G1 X116.296 Y132.411 E40.80441
G1 X116.941 Y132.412 E40.83337
G1 X117.574 Y132.317 E40.86211
G1 X118.187 Y132.125 E40.89095
G1 X118.765 Y131.841 E40.91987
G1 X119.312 Y131.458 E40.94985
G1 X119.752 Y131.043 E40.97701
G1 X120.146 Y130.542 E41.00563
G1 X120.432 Y130.044 E41.03142
G1 X120.67 Y129.456 E41.0599
G1 X120.818 Y128.797 E41.09023
G1 X120.866 Y128.174 E41.11828
G1 X120.818 Y127.534 E41.1471
G1 X120.669 Y126.898 E41.17643
G1 X120.433 Y126.311 E41.20484
G1 X120.102 Y125.749 E41.23412
G1 X119.698 Y125.252 E41.26288
G1 X119.239 Y124.834 E41.29076
G1 X118.707 Y124.478 E41.3195
G1 X118.191 Y124.231 E41.34519
G1 X117.573 Y124.038 E41.37426
G1 X116.939 Y123.941 E41.40305
G1 X116.295 Y123.94 E41.43197
G1 X115.661 Y124.037 E41.46077
G1 X115.048 Y124.228 E41.4896
G1 X114.471 Y124.512 E41.51848
G1 X113.923 Y124.895 E41.5485
G1 X113.483 Y125.31 E41.57565
G1 X113.092 Y125.807 E41.60405
G1 X112.805 Y126.306 E41.62989
G1 X112.562 Y126.917 E41.65942
G1 X112.419 Y127.534 E41.68786
G1 X112.37 Y128.178 E41.71686
G0 F4800 X112.67 Y128.232
G1 F1200 X112.724 Y127.516 E41.7491
G1 X112.906 Y126.828 E41.78105
G1 X113.213 Y126.177 E41.81337
G1 X113.627 Y125.599 E41.84529
G1 X114.143 Y125.1 E41.87752
G1 X114.746 Y124.7 E41.91002
G1 X115.407 Y124.42 E41.94225
G1 X116.106 Y124.263 E41.97442
G1 X116.822 Y124.235 E42.00659
G1 X117.53 Y124.337 E42.03871
G1 X118.212 Y124.569 E42.07105
G1 X118.837 Y124.915 E42.10313
G1 X119.392 Y125.375 E42.1355
G1 X119.851 Y125.92 E42.16749
G1 X120.021 Y126.176 E42.18129
G1 X120.29 Y126.726 E42.20878
G1 X120.49 Y127.41 E42.24078
G1 X120.565 Y128.119 E42.27279
G1 X120.511 Y128.836 E42.30508
G1 X120.33 Y129.524 E42.33702
G1 X120.021 Y130.176 E42.36942
G1 X119.608 Y130.753 E42.40128
G1 X119.092 Y131.253 E42.43354
G1 X118.489 Y131.653 E42.46603
G1 X117.828 Y131.933 E42.49826
G1 X117.129 Y132.09 E42.53043
G1 X116.414 Y132.118 E42.56256
G1 X115.705 Y132.016 E42.59472
G1 X115.023 Y131.784 E42.62707
G1 X114.398 Y131.438 E42.65915
G1 X113.843 Y130.978 E42.69151
G1 X113.384 Y130.433 E42.72351
G1 X113.214 Y130.175 E42.73738
G1 X112.946 Y129.626 E42.76481
G1 X112.745 Y128.943 E42.79678
G1 X112.67 Y128.232 E42.82888
G0 F4800 X113.069 Y128.196
G1 F1200 X113.123 Y127.551 E42.85794
G1 X113.291 Y126.935 E42.88661
G1 X113.572 Y126.352 E42.91567
G1 X113.949 Y125.836 E42.94437
G1 X114.417 Y125.391 E42.97336
G1 X114.958 Y125.039 E43.00234
G1 X115.552 Y124.793 E43.03121
G1 X116.181 Y124.656 E43.06012
G1 X116.823 Y124.635 E43.08896
G1 X117.458 Y124.73 E43.11779
G1 X118.068 Y124.942 E43.14678
G1 X118.627 Y125.256 E43.17557
G1 X119.123 Y125.67 E43.20458
G1 X119.532 Y126.162 E43.23331
G1 X119.931 Y126.902 E43.27106
G1 X120.105 Y127.517 E43.29976
G1 X120.167 Y128.156 E43.32858
G1 X120.112 Y128.8 E43.35761
G1 X119.945 Y129.417 E43.38631
G1 X119.662 Y129.999 E43.41537
G1 X119.286 Y130.516 E43.44407
G1 X118.818 Y130.962 E43.4731
G1 X118.277 Y131.314 E43.50208
G1 X117.683 Y131.56 E43.53095
G1 X117.054 Y131.697 E43.55985
G1 X116.413 Y131.718 E43.58865
G1 X115.777 Y131.623 E43.61752
G1 X115.167 Y131.411 E43.64652
G1 X114.608 Y131.097 E43.67531
G1 X114.112 Y130.683 E43.70432
G1 X113.703 Y130.191 E43.73304
G1 X113.305 Y129.451 E43.77077
G1 X113.13 Y128.836 E43.79948
G1 X113.069 Y128.196 E43.82835
G1 F2400 E42.82835
G1 F600 Z0.8
G0 F4800 X121.969 Y128.174 Z0.8
G1 F600 Z0.3
G1 F2400 E43.85329
G1 F1200 X122.021 Y128.877 E43.88495
G1 X122.18 Y129.561 E43.91648
G1 X122.442 Y130.22 E43.94832
G1 X122.803 Y130.833 E43.98026
G1 X123.239 Y131.37 E44.01132
G1 X123.688 Y131.783 E44.03871
G1 X124.263 Y132.184 E44.07019
G1 X124.899 Y132.496 E44.102
G1 X125.568 Y132.705 E44.13347
G1 X126.269 Y132.811 E44.1653
G1 X126.966 Y132.812 E44.1966
G1 X127.668 Y132.706 E44.22848
G1 X128.334 Y132.498 E44.25981
G1 X128.97 Y132.186 E44.29161
G1 X129.567 Y131.768 E44.32434
G1 X130.051 Y131.309 E44.35429
G1 X130.445 Y130.814 E44.3827
G1 X130.793 Y130.218 E44.41368
G1 X131.052 Y129.578 E44.44469
G1 X131.216 Y128.849 E44.47824
G1 X131.267 Y128.174 E44.50863
G1 X131.215 Y127.477 E44.54001
G1 X131.05 Y126.775 E44.57239
G1 X130.792 Y126.131 E44.60354
G1 X130.432 Y125.52 E44.63539
G1 X129.992 Y124.979 E44.6667
G1 X129.547 Y124.569 E44.69387
G1 X128.973 Y124.169 E44.72528
G1 X128.339 Y123.858 E44.75699
G1 X127.667 Y123.648 E44.7886
G1 X126.966 Y123.541 E44.82044
G1 X126.268 Y123.54 E44.85178
G1 X125.567 Y123.647 E44.88362
G1 X124.901 Y123.855 E44.91495
G1 X124.266 Y124.167 E44.94672
G1 X123.668 Y124.585 E44.97948
G1 X123.185 Y125.042 E45.00934
G1 X122.751 Y125.597 E45.04097
G1 X122.444 Y126.131 E45.06863
G1 X122.182 Y126.79 E45.10047
G1 X122.022 Y127.478 E45.13219
G1 X121.969 Y128.174 E45.16353
G0 F4800 X122.37 Y128.178
