;FLAVOR:Marlin
;TIME:1180
;Filament used: 0.502726m
;Layer height: 0.2
;MINX:113.2
;MINY:112.702
;MINZ:0.3
;MAXX:136.8
;MAXY:136.302
;MAXZ:22
;Generated with Cura_SteamEngine 5.0.0
M140 S70
M105
M190 S70
M104 S215
M105
M109 S215
M82 ;absolute extrusion mode
;Sliced at: Sat 04-06-2022 17:06:23
G21 ;metric values
M107
G28
M420 S1
G90 ;absolute positioning
G92 E0; reset extruder distance
G1 X0 Y0 Z5 F5000 ;move nozzle up 5mm for safe homing
G29;ABL
M500
M82 ;set extruder to absolute mode
M107 ;start with the fan off
G1 X0 Y0 Z15.0 F5000 ;move the platform down 15mm
G92 E0 ;zero the extruded length
G1 F200 E3 ;extrude 3mm of feed stock
G1 F200 E0 ;Retract
G4 S2 ;Wait for material to fall
G1 F200 E3
G92 E0 ;zero the extruded length again
M117 Printing...
G92 E0
;WIPE
G91
G1 X -20 F3000
G1 X40
G1 X-20
G90

G92 E0
G1 F2400 E-1
;LAYER_COUNT:110
;LAYER:0
M107
G1 F600 Z0.8
G0 F4800 X113.803 Y113.157 Z0.8
G1 F600 Z0.8
G0 F4800 X113.2 Y114.502
;TYPE:SKIRT
G1 F600 Z0.3
G1 F2400 E0.02495
G1 F1200 X113.24 Y114.125 E0.04197
G1 X113.358 Y113.765 E0.05898
G1 X113.548 Y113.438 E0.07596
G1 X113.803 Y113.157 E0.093
G1 X114.112 Y112.937 E0.11003
G1 X114.459 Y112.785 E0.12704
G1 X115 Y112.702 E0.15162
G1 X135 Y112.702 E1.04964
G1 X135.377 Y112.742 E1.06666
G1 X135.737 Y112.86 E1.08367
G1 X136.064 Y113.05 E1.10065
G1 X136.345 Y113.305 E1.11769
G1 X136.565 Y113.614 E1.13472
G1 X136.717 Y113.961 E1.15173
G1 X136.8 Y114.502 E1.17631
G1 X136.8 Y134.502 E2.07433
G1 X136.76 Y134.879 E2.09136
G1 X136.642 Y135.239 E2.10837
G1 X136.452 Y135.566 E2.12535
G1 X136.197 Y135.847 E2.14239
G1 X135.888 Y136.067 E2.15942
G1 X135.541 Y136.219 E2.17643
G1 X135 Y136.302 E2.201
G1 X115 Y136.302 E3.09903
G1 X114.623 Y136.262 E3.11605
G1 X114.263 Y136.144 E3.13306
G1 X113.936 Y135.954 E3.15004
G1 X113.655 Y135.699 E3.16708
G1 X113.435 Y135.39 E3.18411
G1 X113.283 Y135.043 E3.20112
G1 X113.2 Y134.502 E3.2257
G1 X113.2 Y114.502 E4.12372
G0 F4800 X113.6 Y114.502
G1 F1200 X113.64 Y114.17 E4.13874
G1 X113.757 Y113.858 E4.1537
G1 X113.945 Y113.581 E4.16873
G1 X114.193 Y113.358 E4.1837
G1 X114.487 Y113.199 E4.19871
G1 X115 Y113.102 E4.22215
G1 X135 Y113.102 E5.12018
G1 X135.332 Y113.142 E5.13519
G1 X135.644 Y113.259 E5.15015
G1 X135.921 Y113.447 E5.16519
G1 X136.144 Y113.695 E5.18016
G1 X136.303 Y113.989 E5.19517
G1 X136.4 Y114.502 E5.21861
G1 X136.4 Y134.502 E6.11664
G1 X136.36 Y134.834 E6.13165
G1 X136.243 Y135.146 E6.14661
G1 X136.055 Y135.423 E6.16164
G1 X135.807 Y135.646 E6.17662
G1 X135.513 Y135.805 E6.19163
G1 X135 Y135.902 E6.21507
G1 X115 Y135.902 E7.11309
G1 X114.668 Y135.862 E7.12811
G1 X114.356 Y135.745 E7.14307
G1 X114.079 Y135.557 E7.1581
G1 X113.856 Y135.309 E7.17308
G1 X113.697 Y135.015 E7.18808
G1 X113.6 Y134.502 E7.21153
G1 X113.6 Y114.502 E8.10955
G0 F4800 X114 Y114.502
G1 F1200 X114.04 Y114.223 E8.12221
G1 X114.156 Y113.966 E8.13487
G1 X114.339 Y113.751 E8.14754
G1 X114.575 Y113.597 E8.1602
G1 X115 Y113.502 E8.17975
G1 X135 Y113.502 E9.07777
G1 X135.279 Y113.542 E9.09043
G1 X135.536 Y113.658 E9.10309
G1 X135.751 Y113.841 E9.11577
G1 X135.905 Y114.077 E9.12842
G1 X136 Y114.502 E9.14798
G1 X136 Y134.502 E10.046
G1 X135.96 Y134.781 E10.05865
G1 X135.844 Y135.038 E10.07132
G1 X135.661 Y135.253 E10.08399
G1 X135.425 Y135.407 E10.09665
G1 X135 Y135.502 E10.1162
G1 X115 Y135.502 E11.01422
G1 X114.721 Y135.462 E11.02688
G1 X114.464 Y135.346 E11.03954
G1 X114.249 Y135.163 E11.05222
G1 X114.095 Y134.927 E11.06487
G1 X114 Y134.502 E11.08442
G1 X114 Y114.502 E11.98245
G0 F4800 X114.4 Y114.502
G1 F1200 X114.44 Y114.287 E11.99227
G1 X114.553 Y114.101 E12.00204
G1 X114.726 Y113.968 E12.01184
G1 X115 Y113.902 E12.02449
G1 X135 Y113.902 E12.92252
G1 X135.215 Y113.942 E12.93234
G1 X135.401 Y114.055 E12.94211
G1 X135.534 Y114.228 E12.95191
G1 X135.6 Y114.502 E12.96456
G1 X135.6 Y134.502 E13.86258
G1 X135.56 Y134.717 E13.8724
G1 X135.447 Y134.903 E13.88218
G1 X135.274 Y135.036 E13.89197
G1 X135 Y135.102 E13.90463
G1 X115 Y135.102 E14.80265
G1 X114.785 Y135.062 E14.81247
G1 X114.599 Y134.949 E14.82224
G1 X114.466 Y134.776 E14.83204
G1 X114.4 Y134.502 E14.8447
G1 X114.4 Y114.502 E15.74272
G0 F4800 X114.8 Y114.502
G1 F1200 X114.839 Y114.383 E15.74834
G1 X115 Y114.302 E15.75644
G1 X135 Y114.302 E16.65446
G1 X135.119 Y114.341 E16.66008
G1 X135.2 Y114.502 E16.66817
G1 X135.2 Y134.502 E17.5662
G1 X135.161 Y134.621 E17.57182
G1 X135 Y134.702 E17.57991
G1 X115 Y134.702 E18.47794
G1 X114.881 Y134.663 E18.48356
G1 X114.8 Y134.502 E18.49165
G1 X114.8 Y114.502 E19.38968
;MESH:scalable_overhang_retraction_test.stl
G0 F4800 X115.2 Y114.702
;TYPE:WALL-OUTER
G1 F1200 X115.2 Y134.302 E20.26974
G1 X134.8 Y134.302 E21.1498
G1 X134.8 Y114.702 E22.02987
G1 X125 Y114.702 E22.4699
G1 X115.2 Y114.702 E22.90993
G0 F4800 X115.2 Y114.902
G0 X115.6 Y115.102
;TYPE:WALL-INNER
G1 F1200 X115.6 Y133.902 E23.75407
G1 X134.4 Y133.902 E24.59821
G1 X134.4 Y115.102 E25.44236
G1 X125 Y115.102 E25.86443
G1 X115.6 Y115.102 E26.2865
G0 F4800 X115.86 Y115.362
;TYPE:SKIN
G1 F1200 X115.86 Y133.642 E27.10729
G1 X134.14 Y133.642 E27.92808
G1 X134.14 Y124.502 E28.33848
G1 X134.14 Y115.362 E28.74888
G1 X115.86 Y115.362 E29.56967
G0 F4800 X116.26 Y115.762
G1 F1200 X116.26 Y133.242 E30.35454
G1 X133.74 Y133.242 E31.13942
G1 X133.74 Y124.502 E31.53185
G1 X133.74 Y115.762 E31.92429
G1 X116.26 Y115.762 E32.70916
G1 F2400 E31.70916
G1 F600 Z0.8
G0 F4800 X132.932 Y115.961 Z0.8
G1 F600 Z0.3
G1 F2400 E32.73411
G1 F1200 X133.539 Y116.568 E32.77265
G0 F4800 X133.539 Y117.134
G1 F1200 X132.366 Y115.961 E32.84714
G0 F4800 X131.801 Y115.961
G1 F1200 X133.539 Y117.7 E32.95753
G0 F4800 X133.539 Y118.265
G1 F1200 X131.235 Y115.961 E33.10384
G0 F4800 X130.669 Y115.961
G1 F1200 X133.539 Y118.831 E33.28608
G0 F4800 X133.539 Y119.397
G1 F1200 X130.104 Y115.961 E33.50423
G0 F4800 X129.538 Y115.961
G1 F1200 X133.539 Y119.962 E33.7583
G0 F4800 X133.539 Y120.528
G1 F1200 X128.972 Y115.961 E34.0483
G0 F4800 X128.407 Y115.961
G1 F1200 X133.539 Y121.094 E34.37421
G0 F4800 X133.539 Y121.659
G1 F1200 X127.841 Y115.961 E34.73604
G0 F4800 X127.275 Y115.961
G1 F1200 X133.539 Y122.225 E35.1338
G0 F4800 X133.539 Y122.791
G1 F1200 X126.709 Y115.961 E35.5675
G0 F4800 X126.144 Y115.961
G1 F1200 X133.539 Y123.356 E36.03708
G0 F4800 X133.539 Y123.922
G1 F1200 X125.578 Y115.961 E36.54261
G0 F4800 X125.012 Y115.961
G1 F1200 X133.539 Y124.488 E37.08407
G0 F4800 X133.539 Y125.053
G1 F1200 X124.447 Y115.961 E37.66141
G0 F4800 X123.881 Y115.961
G1 F1200 X133.539 Y125.619 E38.27469
G0 F4800 X133.539 Y126.185
G1 F1200 X123.315 Y115.961 E38.92392
G0 F4800 X122.75 Y115.961
G1 F1200 X133.539 Y126.751 E39.60905
G0 F4800 X133.539 Y127.316
G1 F1200 X122.184 Y115.961 E40.33009
G0 F4800 X121.618 Y115.961
G1 F1200 X133.539 Y127.882 E41.08707
G0 F4800 X133.539 Y128.448
G1 F1200 X121.053 Y115.961 E41.87996
G0 F4800 X120.487 Y115.961
G1 F1200 X133.539 Y129.013 E42.70876
G0 F4800 X133.539 Y129.579
G1 F1200 X119.921 Y115.961 E43.5735
G0 F4800 X119.356 Y115.961
G1 F1200 X133.539 Y130.145 E44.47415
G0 F4800 X133.539 Y130.71
G1 F1200 X118.79 Y115.961 E45.41071
G0 F4800 X118.224 Y115.961
G1 F1200 X133.539 Y131.276 E46.38321
G0 F4800 X133.539 Y131.842
G1 F1200 X117.659 Y115.961 E47.39162
G0 F4800 X117.093 Y115.961
G1 F1200 X133.539 Y132.407 E48.43594
G0 F4800 X133.539 Y132.973
G1 F1200 X116.527 Y115.961 E49.5162
G0 F4800 X116.459 Y116.459
G1 F1200 X133.041 Y133.041 E50.56915
G0 F4800 X132.475 Y133.041
G1 F1200 X116.459 Y117.025 E51.58617
G0 F4800 X116.459 Y117.591
G1 F1200 X131.91 Y133.041 E52.56727
G0 F4800 X131.344 Y133.041
G1 F1200 X116.459 Y118.156 E53.51247
G0 F4800 X116.459 Y118.722
G1 F1200 X130.778 Y133.041 E54.42172
G0 F4800 X130.213 Y133.041
G1 F1200 X116.459 Y119.288 E55.29507
G0 F4800 X116.459 Y119.853
G1 F1200 X129.647 Y133.041 E56.1325
G0 F4800 X129.081 Y133.041
G1 F1200 X116.459 Y120.419 E56.934
G0 F4800 X116.459 Y120.985
G1 F1200 X128.515 Y133.041 E57.69955
G0 F4800 X127.95 Y133.041
G1 F1200 X116.459 Y121.55 E58.42923
G0 F4800 X116.459 Y122.116
M104 S205
G1 F1200 X127.384 Y133.041 E59.12297
G0 F4800 X126.818 Y133.041
G1 F1200 X116.459 Y122.682 E59.78076
G0 F4800 X116.459 Y123.248
G1 F1200 X126.253 Y133.041 E60.40265
G0 F4800 X125.687 Y133.041
G1 F1200 X116.459 Y123.813 E60.98862
G0 F4800 X116.459 Y124.379
G1 F1200 X125.121 Y133.041 E61.53866
G0 F4800 X124.556 Y133.041
G1 F1200 X116.459 Y124.945 E62.05279
G0 F4800 X116.459 Y125.51
G1 F1200 X123.99 Y133.041 E62.531
G0 F4800 X123.424 Y133.041
G1 F1200 X116.459 Y126.076 E62.97328
G0 F4800 X116.459 Y126.642
G1 F1200 X122.859 Y133.041 E63.37965
G0 F4800 X122.293 Y133.041
G1 F1200 X116.459 Y127.207 E63.75011
G0 F4800 X116.459 Y127.773
G1 F1200 X121.727 Y133.041 E64.08462
G0 F4800 X121.162 Y133.041
G1 F1200 X116.459 Y128.339 E64.38323
G0 F4800 X116.459 Y128.904
G1 F1200 X120.596 Y133.041 E64.64593
G0 F4800 X120.03 Y133.041
G1 F1200 X116.459 Y129.47 E64.87269
G0 F4800 X116.459 Y130.036
G1 F1200 X119.464 Y133.041 E65.06351
G0 F4800 X118.899 Y133.041
G1 F1200 X116.459 Y130.601 E65.21845
G0 F4800 X116.459 Y131.167
G1 F1200 X118.333 Y133.041 E65.33744
G0 F4800 X117.767 Y133.041
G1 F1200 X116.459 Y131.733 E65.4205
G0 F4800 X116.459 Y132.298
G1 F1200 X117.202 Y133.041 E65.46768
G0 F4800 X116.636 Y133.041
G1 F1200 X116.459 Y132.864 E65.47892
G1 F2400 E64.47892
G1 F600 Z0.8
;MESH:NONMESH
G0 F4800 X115.2 Y114.702 Z0.8
;TIME_ELAPSED:82.154372
;LAYER:1
M140 S60
M106 S255
;MESH:scalable_overhang_retraction_test.stl
G0 F5400 X115.2 Y114.702 Z1
;TYPE:WALL-OUTER
G1 F600 Z0.5
G1 F2400 E65.50387
G1 F2843 X115.2 Y134.302 E66.09058
G1 X134.8 Y134.302 E66.67728
G1 X134.8 Y124.502 E66.97064
G1 X134.8 Y114.702 E67.26399
G1 X115.2 Y114.702 E67.8507
G0 F5400 X115.2 Y114.902
G0 X115.6 Y115.102
;TYPE:WALL-INNER
G1 F3127.3 X115.6 Y133.902 E68.41346
G1 X134.4 Y133.902 E68.97623
G1 X134.4 Y124.502 E69.25761
G1 X134.4 Y115.102 E69.53899
G1 X115.6 Y115.102 E70.10175
G0 F5400 X115.86 Y115.362
;TYPE:SKIN
G1 F1990.1 X115.86 Y133.642 E70.64894
G1 X134.14 Y133.642 E71.19614
G1 X134.14 Y115.362 E71.74334
G1 X115.86 Y115.362 E72.29053
G0 F5400 X116.26 Y115.762
G1 F1990.1 X116.26 Y133.242 E72.81378
G1 X133.74 Y133.242 E73.33703
G1 X133.74 Y115.762 E73.86028
G1 X116.26 Y115.762 E74.38352
G0 F5400 X116.534 Y115.961
G1 F1990.1 X116.459 Y116.036 E74.3867
G0 F5400 X116.459 Y116.602
G1 F1990.1 X117.1 Y115.961 E74.41384
G0 F5400 X117.666 Y115.961
G1 F1990.1 X116.459 Y117.168 E74.46493
G0 F5400 X116.459 Y117.733
G1 F1990.1 X118.231 Y115.961 E74.53995
G0 F5400 X118.797 Y115.961
G1 F1990.1 X116.459 Y118.299 E74.63892
G0 F5400 X116.459 Y118.865
G1 F1990.1 X119.363 Y115.961 E74.76186
G0 F5400 X119.928 Y115.961
G1 F1990.1 X116.459 Y119.431 E74.90873
G0 F5400 X116.459 Y119.996
G1 F1990.1 X120.494 Y115.961 E75.07955
G0 F5400 X121.06 Y115.961
G1 F1990.1 X116.459 Y120.562 E75.27432
G0 F5400 X116.459 Y121.128
G1 F1990.1 X121.625 Y115.961 E75.49304
G0 F5400 X122.191 Y115.961
G1 F1990.1 X116.459 Y121.693 E75.73569
G0 F5400 X116.459 Y122.259
G1 F1990.1 X122.757 Y115.961 E76.00231
G0 F5400 X123.322 Y115.961
G1 F1990.1 X116.459 Y122.825 E76.29286
G0 F5400 X116.459 Y123.39
G1 F1990.1 X123.888 Y115.961 E76.60735
G0 F5400 X124.454 Y115.961
G1 F1990.1 X116.459 Y123.956 E76.94581
G0 F5400 X116.459 Y124.522
G1 F1990.1 X125.02 Y115.961 E77.30822
G0 F5400 X125.585 Y115.961
G1 F1990.1 X116.459 Y125.087 E77.69456
G0 F5400 X116.459 Y125.653
G1 F1990.1 X126.151 Y115.961 E78.10485
G0 F5400 X126.717 Y115.961
G1 F1990.1 X116.459 Y126.219 E78.5391
G0 F5400 X116.459 Y126.784
G1 F1990.1 X127.282 Y115.961 E78.99728
G0 F5400 X127.848 Y115.961
G1 F1990.1 X116.459 Y127.35 E79.47941
G0 F5400 X116.459 Y127.916
G1 F1990.1 X128.414 Y115.961 E79.9855
G0 F5400 X128.979 Y115.961
G1 F1990.1 X116.459 Y128.482 E80.51554
G0 F5400 X116.459 Y129.047
G1 F1990.1 X129.545 Y115.961 E81.06951
G0 F5400 X130.111 Y115.961
G1 F1990.1 X116.459 Y129.613 E81.64744
G0 F5400 X116.459 Y130.179
G1 F1990.1 X130.676 Y115.961 E82.24932
G0 F5400 X131.242 Y115.961
G1 F1990.1 X116.459 Y130.744 E82.87513
G0 F5400 X116.459 Y131.31
G1 F1990.1 X131.808 Y115.961 E83.5249
G0 F5400 X132.373 Y115.961
G1 F1990.1 X116.459 Y131.876 E84.19861
G0 F5400 X116.459 Y132.441
G1 F1990.1 X132.939 Y115.961 E84.89627
G0 F5400 X133.505 Y115.961
G1 F1990.1 X116.459 Y133.007 E85.61788
G0 F5400 X116.991 Y133.041
G1 F1990.1 X133.539 Y116.493 E86.31841
G0 F5400 X133.539 Y117.059
G1 F1990.1 X117.557 Y133.041 E86.99498
G0 F5400 X118.122 Y133.041
G1 F1990.1 X133.539 Y117.625 E87.64761
G0 F5400 X133.539 Y118.19
G1 F1990.1 X118.688 Y133.041 E88.2763
G0 F5400 X119.254 Y133.041
G1 F1990.1 X133.539 Y118.756 E88.88103
G0 F5400 X133.539 Y119.322
G1 F1990.1 X119.819 Y133.041 E89.46182
G0 F5400 X120.385 Y133.041
G1 F1990.1 X133.539 Y119.887 E90.01867
G0 F5400 X133.539 Y120.453
G1 F1990.1 X120.951 Y133.041 E90.55156
G0 F5400 X121.517 Y133.041
G1 F1990.1 X133.539 Y121.019 E91.06049
G0 F5400 X133.539 Y121.584
G1 F1990.1 X122.082 Y133.041 E91.54551
G0 F5400 X122.648 Y133.041
G1 F1990.1 X133.539 Y122.15 E92.00656
G0 F5400 X133.539 Y122.716
G1 F1990.1 X123.214 Y133.041 E92.44365
G0 F5400 X123.779 Y133.041
G1 F1990.1 X133.539 Y123.281 E92.85682
G0 F5400 X133.539 Y123.847
G1 F1990.1 X124.345 Y133.041 E93.24603
G0 F5400 X124.911 Y133.041
G1 F1990.1 X133.539 Y124.413 E93.61128
G0 F5400 X133.539 Y124.979
G1 F1990.1 X125.476 Y133.041 E93.95259
G0 F5400 X126.042 Y133.041
G1 F1990.1 X133.539 Y125.544 E94.26997
G0 F5400 X133.539 Y126.11
G1 F1990.1 X126.608 Y133.041 E94.56338
G0 F5400 X127.173 Y133.041
G1 F1990.1 X133.539 Y126.676 E94.83285
G0 F5400 X133.539 Y127.241
G1 F1990.1 X127.739 Y133.041 E95.07838
G0 F5400 X128.305 Y133.041
G1 F1990.1 X133.539 Y127.807 E95.29996
G0 F5400 X133.539 Y128.373
G1 F1990.1 X128.87 Y133.041 E95.49759
G0 F5400 X129.436 Y133.041
G1 F1990.1 X133.539 Y128.938 E95.67128
G0 F5400 X133.539 Y129.504
G1 F1990.1 X130.002 Y133.041 E95.82101
G0 F5400 X130.567 Y133.041
G1 F1990.1 X133.539 Y130.07 E95.94681
G0 F5400 X133.539 Y130.635
G1 F1990.1 X131.133 Y133.041 E96.04866
G0 F5400 X131.699 Y133.041
G1 F1990.1 X133.539 Y131.201 E96.12655
G0 F5400 X133.539 Y131.767
G1 F1990.1 X132.265 Y133.041 E96.18049
G0 F5400 X132.83 Y133.041
G1 F1990.1 X133.539 Y132.332 E96.2105
G0 F5400 X133.539 Y132.898
G1 F1990.1 X133.396 Y133.041 E96.21656
G1 F2400 E95.21656
G1 F600 Z1
;MESH:NONMESH
G0 F5400 X115.2 Y114.702 Z1
;TIME_ELAPSED:116.297691
;LAYER:2
;MESH:scalable_overhang_retraction_test.stl
G0 F6000 X115.2 Y114.702 Z1.2
;TYPE:WALL-OUTER
G1 F600 Z0.7
G1 F2400 E96.2415
G1 F3166.2 X115.2 Y134.302 E96.82821
G1 X134.8 Y134.302 E97.41492
G1 X134.8 Y124.502 E97.70827
G1 X134.8 Y114.702 E98.00163
G1 X115.2 Y114.702 E98.58834
G0 F6000 X115.2 Y114.902
G0 X115.6 Y115.102
;TYPE:WALL-INNER
G1 F3562 X115.6 Y133.902 E99.1511
G1 X134.4 Y133.902 E99.71386
G1 X134.4 Y124.502 E99.99524
G1 X134.4 Y115.102 E100.27662
G1 X115.6 Y115.102 E100.83938
G0 F6000 X115.86 Y115.362
;TYPE:SKIN
G1 F1978.9 X115.86 Y133.642 E101.38658
G1 X134.14 Y133.642 E101.93377
G1 X134.14 Y124.502 E102.20737
G1 X134.14 Y115.362 E102.48097
G1 X115.86 Y115.362 E103.02816
G0 F6000 X116.26 Y115.762
G1 F1978.9 X116.26 Y133.242 E103.55141
G1 X133.74 Y133.242 E104.07466
G1 X133.74 Y124.502 E104.33629
G1 X133.74 Y115.762 E104.59791
G1 X116.26 Y115.762 E105.12116
G1 F2400 E104.12116
G1 F600 Z1.2
G0 F6000 X132.932 Y115.961 Z1.2
G1 F600 Z0.7
G1 F2400 E105.1461
G1 F1978.9 X133.539 Y116.568 E105.1718
G0 F6000 X133.539 Y117.134
G1 F1978.9 X132.366 Y115.961 E105.22146
G0 F6000 X131.801 Y115.961
G1 F1978.9 X133.539 Y117.7 E105.29505
G0 F6000 X133.539 Y118.265
G1 F1978.9 X131.235 Y115.961 E105.39259
G0 F6000 X130.669 Y115.961
G1 F1978.9 X133.539 Y118.831 E105.51408
G0 F6000 X133.539 Y119.397
G1 F1978.9 X130.104 Y115.961 E105.65952
G0 F6000 X129.538 Y115.961
G1 F1978.9 X133.539 Y119.962 E105.8289
G0 F6000 X133.539 Y120.528
G1 F1978.9 X128.972 Y115.961 E106.02223
G0 F6000 X128.407 Y115.961
G1 F1978.9 X133.539 Y121.094 E106.23951
G0 F6000 X133.539 Y121.659
G1 F1978.9 X127.841 Y115.961 E106.48072
G0 F6000 X127.275 Y115.961
G1 F1978.9 X133.539 Y122.225 E106.7459
G0 F6000 X133.539 Y122.791
G1 F1978.9 X126.709 Y115.961 E107.03503
