;FLAVOR:Marlin
;TIME:2838
;Filament used: 1.85293m
;Layer height: 0.2
;MINX:98.55
;MINY:98.55
;MINZ:0.3
;MAXX:151.45
;MAXY:151.45
;MAXZ:16.6
;Generated with Cura_SteamEngine 5.0.0
M140 S70
M105
M190 S70
M104 S215
M105
M109 S215
M82 ;absolute extrusion mode
;Sliced at: Sat 04-06-2022 17:11:51
G21 ;metric values
M107
G28
M420 S1
G90 ;absolute positioning
G92 E0; reset extruder distance
G1 X0 Y0 Z5 F5000 ;move nozzle up 5mm for safe homing
G29;ABL
M500
M82 ;set extruder to absolute mode
M107 ;start with the fan off
G1 X0 Y0 Z15.0 F5000 ;move the platform down 15mm
G92 E0 ;zero the extruded length
G1 F200 E3 ;extrude 3mm of feed stock
G1 F200 E0 ;Retract
G4 S2 ;Wait for material to fall
G1 F200 E3
G92 E0 ;zero the extruded length again
M117 Printing...
G92 E0
;WIPE
G91
G1 X -20 F3000
G1 X40
G1 X-20
G90

G92 E0
G1 F2400 E-1
;LAYER_COUNT:80
;LAYER:0
M107
G1 F600 Z0.8
G0 F4800 X99.153 Y99.005 Z0.8
G1 F600 Z0.8
G0 F4800 X98.55 Y100.35
;TYPE:SKIRT
G1 F600 Z0.3
G1 F2400 E0.02495
G1 F1200 X98.59 Y99.973 E0.04197
G1 X98.708 Y99.613 E0.05898
G1 X98.898 Y99.286 E0.07596
G1 X99.153 Y99.005 E0.093
G1 X99.462 Y98.785 E0.11003
G1 X99.809 Y98.633 E0.12704
G1 X100.35 Y98.55 E0.15162
G1 X149.65 Y98.55 E2.36524
G1 X150.027 Y98.59 E2.38227
G1 X150.387 Y98.708 E2.39928
G1 X150.714 Y98.898 E2.41626
G1 X150.995 Y99.153 E2.4333
G1 X151.215 Y99.462 E2.45033
G1 X151.367 Y99.809 E2.46734
G1 X151.45 Y100.35 E2.49191
G1 X151.45 Y149.65 E4.70554
G1 X151.41 Y150.027 E4.72256
G1 X151.292 Y150.387 E4.73958
G1 X151.102 Y150.714 E4.75656
G1 X150.847 Y150.995 E4.77359
G1 X150.538 Y151.215 E4.79063
G1 X150.191 Y151.367 E4.80764
G1 X149.65 Y151.45 E4.83221
G1 X100.35 Y151.45 E7.04584
G1 X99.973 Y151.41 E7.06286
G1 X99.613 Y151.292 E7.07987
G1 X99.286 Y151.102 E7.09685
G1 X99.005 Y150.847 E7.11389
G1 X98.785 Y150.538 E7.13092
G1 X98.633 Y150.191 E7.14793
G1 X98.55 Y149.65 E7.17251
G1 X98.55 Y100.35 E9.38614
G0 F4800 X98.95 Y100.35
G1 F1200 X98.99 Y100.018 E9.40115
G1 X99.107 Y99.706 E9.41612
G1 X99.295 Y99.429 E9.43115
G1 X99.543 Y99.206 E9.44612
G1 X99.837 Y99.047 E9.46113
G1 X100.35 Y98.95 E9.48457
G1 X149.65 Y98.95 E11.6982
G1 X149.982 Y98.99 E11.71322
G1 X150.294 Y99.107 E11.72818
G1 X150.571 Y99.295 E11.74321
G1 X150.794 Y99.543 E11.75818
G1 X150.953 Y99.837 E11.77319
G1 X151.05 Y100.35 E11.79663
G1 X151.05 Y149.65 E14.01026
G1 X151.01 Y149.982 E14.02528
G1 X150.893 Y150.294 E14.04024
G1 X150.705 Y150.571 E14.05527
G1 X150.457 Y150.794 E14.07025
G1 X150.163 Y150.953 E14.08525
G1 X149.65 Y151.05 E14.1087
G1 X100.35 Y151.05 E16.32233
G1 X100.018 Y151.01 E16.33734
G1 X99.706 Y150.893 E16.3523
G1 X99.429 Y150.705 E16.36733
G1 X99.206 Y150.457 E16.38231
G1 X99.047 Y150.163 E16.39732
G1 X98.95 Y149.65 E16.42076
G1 X98.95 Y100.35 E18.63439
G0 F4800 X99.35 Y100.35
G1 F1200 X99.39 Y100.071 E18.64704
G1 X99.506 Y99.814 E18.6597
G1 X99.689 Y99.599 E18.67238
G1 X99.925 Y99.445 E18.68503
G1 X100.35 Y99.35 E18.70459
G1 X149.65 Y99.35 E20.91822
G1 X149.929 Y99.39 E20.93087
G1 X150.186 Y99.506 E20.94353
G1 X150.401 Y99.689 E20.95621
G1 X150.555 Y99.925 E20.96886
G1 X150.65 Y100.35 E20.98842
G1 X150.65 Y149.65 E23.20205
G1 X150.61 Y149.929 E23.2147
G1 X150.494 Y150.186 E23.22736
G1 X150.311 Y150.401 E23.24004
G1 X150.075 Y150.555 E23.25269
G1 X149.65 Y150.65 E23.27225
G1 X100.35 Y150.65 E25.48587
G1 X100.071 Y150.61 E25.49853
G1 X99.814 Y150.494 E25.51119
G1 X99.599 Y150.311 E25.52387
G1 X99.445 Y150.075 E25.53652
G1 X99.35 Y149.65 E25.55607
G1 X99.35 Y100.35 E27.7697
G0 F4800 X99.75 Y100.35
G1 F1200 X99.79 Y100.135 E27.77952
G1 X99.903 Y99.949 E27.78929
G1 X100.076 Y99.816 E27.79909
G1 X100.35 Y99.75 E27.81175
G1 X149.65 Y99.75 E30.02538
G1 X149.865 Y99.79 E30.0352
G1 X150.051 Y99.903 E30.04497
G1 X150.184 Y100.076 E30.05477
G1 X150.25 Y100.35 E30.06742
G1 X150.25 Y149.65 E32.28105
G1 X150.21 Y149.865 E32.29087
G1 X150.097 Y150.051 E32.30064
G1 X149.924 Y150.184 E32.31044
G1 X149.65 Y150.25 E32.32309
G1 X100.35 Y150.25 E34.53672
G1 X100.135 Y150.21 E34.54654
G1 X99.949 Y150.097 E34.55631
G1 X99.816 Y149.924 E34.56611
G1 X99.75 Y149.65 E34.57877
G1 X99.75 Y100.35 E36.79239
G0 F4800 X100.15 Y100.35
G1 F1200 X100.189 Y100.231 E36.79802
G1 X100.35 Y100.15 E36.80611
G1 X149.65 Y100.15 E39.01974
G1 X149.769 Y100.189 E39.02536
G1 X149.85 Y100.35 E39.03345
G1 X149.85 Y149.65 E41.24708
G1 X149.811 Y149.769 E41.2527
G1 X149.65 Y149.85 E41.2608
G1 X100.35 Y149.85 E43.47442
G1 X100.231 Y149.811 E43.48005
G1 X100.15 Y149.65 E43.48814
G1 X100.15 Y100.35 E45.70177
;MESH:XY_resonance_1.0mm_walls.stl
G0 F4800 X100.551 Y100.551
;TYPE:WALL-OUTER
G1 F1200 X100.55 Y143.197 E47.61662
G1 X100.551 Y149.449 E47.89735
G1 X149.45 Y149.45 E50.09297
G1 X149.45 Y106.003 E52.04379
G1 X149.45 Y100.55 E52.28864
G1 X100.551 Y100.551 E54.48426
G0 F4800 X100.551 Y100.751
G0 X100.951 Y100.951
;TYPE:WALL-INNER
G1 F1200 X100.95 Y143.197 E56.38116
G1 X100.951 Y149.049 E56.64392
G1 X149.05 Y149.05 E58.80362
G1 X149.05 Y106.003 E60.73648
G1 X149.05 Y100.95 E60.96337
G1 X100.951 Y100.951 E63.12307
G1 F2400 E62.12307
G1 F600 Z0.8
G0 F4800 X109.8 Y110 Z0.8
;TYPE:WALL-OUTER
G1 F600 Z0.3
G1 F2400 E63.14801
G1 F1200 X109.858 Y109.858 E63.1549
G1 X110 Y109.8 E63.16179
G1 X140 Y109.8 E64.50882
G1 X140.142 Y109.858 E64.51571
G1 X140.2 Y110 E64.5226
G1 X140.2 Y140 E65.86963
G1 X140.142 Y140.142 E65.87652
G1 X140 Y140.2 E65.88341
G1 X110 Y140.2 E67.23044
G1 X109.858 Y140.142 E67.23733
G1 X109.81 Y140.065 E67.2414
G1 X109.8 Y140 E67.24436
G1 X109.8 Y110 E68.59139
G0 F4800 X109.858 Y109.858
G0 X109.901 Y109.841
G0 X109.4 Y110
;TYPE:WALL-INNER
G1 F1200 X109.469 Y109.719 E68.60439
G1 X109.641 Y109.518 E68.61626
G1 X109.901 Y109.408 E68.62894
G1 X110 Y109.4 E68.6334
G1 X140 Y109.4 E69.98044
G1 X140.281 Y109.469 E69.99343
G1 X140.482 Y109.641 E70.00531
G1 X140.592 Y109.901 E70.01798
G1 X140.6 Y110 E70.02244
G1 X140.6 Y140 E71.36948
G1 X140.531 Y140.281 E71.38247
G1 X140.359 Y140.482 E71.39435
G1 X140.099 Y140.592 E71.40702
G1 X140 Y140.6 E71.41148
G1 X110 Y140.6 E72.75852
G1 X109.719 Y140.531 E72.77151
G1 X109.518 Y140.359 E72.78339
G1 X109.431 Y140.194 E72.79176
G1 X109.4 Y140 E72.80059
G1 X109.4 Y110 E74.14762
G1 F2400 E73.14762
G1 F600 Z0.8
G0 F4800 X101.212 Y101.212 Z0.8
;TYPE:SKIN
G1 F600 Z0.3
G1 F2400 E74.17257
G1 F1200 X101.212 Y148.788 E76.30879
G1 X148.79 Y148.79 E78.44509
G1 X148.79 Y106.006 E80.36615
G1 X148.79 Y101.21 E80.58149
G1 X106.007 Y101.211 E82.5025
G1 X101.212 Y101.212 E82.7178
G0 F4800 X101.612 Y101.612
G1 F1200 X101.612 Y148.388 E84.8181
G1 X148.39 Y148.39 E86.91849
G1 X148.39 Y106.006 E88.82158
G1 X148.39 Y101.61 E89.01896
G1 X106.007 Y101.611 E90.92201
G1 X101.612 Y101.612 E91.11935
G1 F2400 E90.11935
G1 F600 Z0.8
G0 F4800 X140.352 Y140.78 Z0.8
G1 F600 Z0.3
G1 F2400 E91.1443
G1 F1200 X139.987 Y140.86 E91.16107
G1 X109.996 Y140.86 E92.5077
G1 X109.805 Y140.835 E92.51635
G1 X109.455 Y140.661 E92.5339
G1 X109.22 Y140.353 E92.5513
G1 X109.14 Y139.989 E92.56803
G1 X109.14 Y109.996 E93.91476
G1 X109.165 Y109.805 E93.9234
G1 X109.339 Y109.455 E93.94095
G1 X109.648 Y109.22 E93.95839
G1 X110.013 Y109.14 E93.97516
G1 X140.004 Y109.14 E95.3218
G1 X140.195 Y109.165 E95.33044
G1 X140.545 Y109.339 E95.34799
G1 X140.78 Y109.647 E95.36539
G1 X140.86 Y110.011 E95.38212
G1 X140.86 Y139.989 E96.72817
G1 X140.834 Y140.202 E96.73781
G1 X140.661 Y140.545 E96.75506
G1 X140.352 Y140.78 E96.77249
G0 F4800 X140.623 Y141.095
G1 F1200 X140.125 Y141.245 E96.79584
G1 X139.987 Y141.26 E96.80207
G1 X109.968 Y141.259 E98.14996
G1 X109.645 Y141.202 E98.16469
G1 X109.261 Y141.021 E98.18375
G1 X108.905 Y140.623 E98.20773
G1 X108.756 Y140.128 E98.23094
G1 X108.74 Y139.989 E98.23722
G1 X108.741 Y109.968 E99.5852
G1 X108.798 Y109.645 E99.59993
G1 X108.979 Y109.261 E99.61899
G1 X109.377 Y108.905 E99.64296
G1 X109.875 Y108.755 E99.66632
G1 X110.013 Y108.74 E99.67255
G1 X140.032 Y108.741 E101.02044
G1 X140.355 Y108.798 E101.03517
G1 X140.739 Y108.979 E101.05423
G1 X141.095 Y109.375 E101.07814
G1 X141.245 Y109.873 E101.10149
G1 X141.26 Y110.011 E101.10772
G1 X141.26 Y139.989 E102.45377
G1 X141.2 Y140.364 E102.47082
G1 X141.02 Y140.74 E102.48954
G1 X140.623 Y141.095 E102.51345
G1 F2400 E101.51345
G1 F600 Z0.8
G0 F4800 X148.189 Y102.369 Z0.8
G1 F600 Z0.3
G1 F2400 E102.5384
G1 F1200 X147.631 Y101.81 E102.57386
G0 F4800 X147.065 Y101.81
G1 F1200 X148.189 Y102.934 E102.64524
G0 F4800 X148.189 Y103.5
G1 F1200 X146.499 Y101.81 E102.75255
G0 F4800 X145.934 Y101.81
G1 F1200 X148.189 Y104.066 E102.89578
G0 F4800 X148.189 Y104.632
G1 F1200 X145.368 Y101.81 E103.07494
G0 F4800 X144.802 Y101.81
G1 F1200 X148.189 Y105.197 E103.29001
G0 F4800 X148.189 Y105.763
G1 F1200 X144.237 Y101.81 E103.541
G0 F4800 X143.671 Y101.81
G1 F1200 X148.189 Y106.329 E103.82792
G0 F4800 X148.189 Y106.894
G1 F1200 X143.105 Y101.81 E104.15076
G0 F4800 X142.539 Y101.81
G1 F1200 X148.189 Y107.46 E104.50953
G0 F4800 X148.189 Y108.026
G1 F1200 X141.974 Y101.81 E104.90421
G0 F4800 X141.408 Y101.81
G1 F1200 X148.189 Y108.591 E105.33481
G0 F4800 X148.189 Y109.157
G1 F1200 X140.842 Y101.81 E105.80134
G0 F4800 X140.277 Y101.81
G1 F1200 X148.189 Y109.723 E106.30378
G0 F4800 X148.189 Y110.288
G1 F1200 X139.711 Y101.81 E106.84213
G0 F4800 X139.145 Y101.81
G1 F1200 X148.189 Y110.854 E107.41643
G0 F4800 X148.189 Y111.42
G1 F1200 X138.58 Y101.81 E108.02663
G0 F4800 X138.014 Y101.81
G1 F1200 X148.189 Y111.985 E108.67274
G0 F4800 X148.189 Y112.551
G1 F1200 X137.448 Y101.81 E109.35479
G0 F4800 X136.883 Y101.81
G1 F1200 X148.189 Y113.117 E110.07275
G0 F4800 X148.189 Y113.682
G1 F1200 X136.317 Y101.81 E110.82662
G0 F4800 X135.751 Y101.81
G1 F1200 X148.189 Y114.248 E111.61643
G0 F4800 X148.189 Y114.814
G1 F1200 X135.186 Y101.81 E112.44215
G0 F4800 X134.62 Y101.81
G1 F1200 X148.189 Y115.38 E113.30382
G0 F4800 X148.189 Y115.945
G1 F1200 X134.054 Y101.81 E114.20139
G0 F4800 X133.489 Y101.81
G1 F1200 X140.244 Y108.565 E114.63033
G0 F4800 X139.652 Y108.54
G1 F1200 X132.923 Y101.81 E115.05765
G0 F4800 X132.357 Y101.81
G1 F1200 X139.087 Y108.54 E115.485
G0 F4800 X138.521 Y108.54
G1 F1200 X131.791 Y101.81 E115.91236
G0 F4800 X131.226 Y101.81
G1 F1200 X137.955 Y108.54 E116.33968
G0 F4800 X137.39 Y108.54
G1 F1200 X130.66 Y101.81 E116.76703
G0 F4800 X130.094 Y101.81
G1 F1200 X136.824 Y108.54 E117.19439
G0 F4800 X136.258 Y108.54
G1 F1200 X129.529 Y101.81 E117.62171
G0 F4800 X128.963 Y101.81
G1 F1200 X135.693 Y108.54 E118.04907
G0 F4800 X135.127 Y108.54
G1 F1200 X128.397 Y101.81 E118.47642
G0 F4800 X127.832 Y101.81
G1 F1200 X134.561 Y108.54 E118.90374
G0 F4800 X133.996 Y108.54
G1 F1200 X127.266 Y101.81 E119.3311
G0 F4800 X126.7 Y101.81
G1 F1200 X133.43 Y108.54 E119.75845
G0 F4800 X132.864 Y108.54
G1 F1200 X126.135 Y101.81 E120.18577
G0 F4800 X125.569 Y101.81
G1 F1200 X132.298 Y108.54 E120.61309
G0 F4800 X131.733 Y108.54
G1 F1200 X125.003 Y101.81 E121.04045
G0 F4800 X124.438 Y101.811
G1 F1200 X131.167 Y108.54 E121.46774
G0 F4800 X130.601 Y108.54
G1 F1200 X123.873 Y101.811 E121.895
G0 F4800 X123.307 Y101.811
G1 F1200 X130.036 Y108.54 E122.32229
G0 F4800 X129.47 Y108.54
G1 F1200 X122.741 Y101.811 E122.74958
G0 F4800 X122.176 Y101.811
G1 F1200 X128.904 Y108.54 E123.17684
G0 F4800 X128.339 Y108.54
G1 F1200 X121.61 Y101.811 E123.60413
G0 F4800 X121.044 Y101.811
G1 F1200 X127.773 Y108.54 E124.03142
G0 F4800 X127.207 Y108.54
G1 F1200 X120.478 Y101.811 E124.45871
G0 F4800 X119.913 Y101.811
G1 F1200 X126.642 Y108.54 E124.886
G0 F4800 X126.076 Y108.54
G1 F1200 X119.347 Y101.811 E125.31329
G0 F4800 X118.781 Y101.811
G1 F1200 X125.51 Y108.54 E125.74058
G0 F4800 X124.945 Y108.54
G1 F1200 X118.216 Y101.811 E126.16787
G0 F4800 X117.65 Y101.811
G1 F1200 X124.379 Y108.54 E126.59516
G0 F4800 X123.813 Y108.54
G1 F1200 X117.084 Y101.811 E127.02245
G0 F4800 X116.519 Y101.811
G1 F1200 X123.248 Y108.54 E127.44974
G0 F4800 X122.682 Y108.54
G1 F1200 X115.953 Y101.811 E127.87703
G0 F4800 X115.387 Y101.811
G1 F1200 X122.116 Y108.54 E128.30432
G0 F4800 X121.55 Y108.54
G1 F1200 X114.822 Y101.811 E128.73158
G0 F4800 X114.256 Y101.811
G1 F1200 X120.985 Y108.54 E129.15887
G0 F4800 X120.419 Y108.54
G1 F1200 X113.69 Y101.811 E129.58616
G0 F4800 X113.125 Y101.811
G1 F1200 X119.853 Y108.54 E130.01342
G0 F4800 X119.288 Y108.54
G1 F1200 X112.559 Y101.811 E130.44071
G0 F4800 X111.993 Y101.811
G1 F1200 X118.722 Y108.54 E130.868
G0 F4800 X118.156 Y108.54
G1 F1200 X111.428 Y101.811 E131.29526
G0 F4800 X110.862 Y101.811
G1 F1200 X117.591 Y108.54 E131.72255
G0 F4800 X117.025 Y108.54
G1 F1200 X110.296 Y101.811 E132.14984
G0 F4800 X109.73 Y101.811
G1 F1200 X116.459 Y108.54 E132.57713
G0 F4800 X115.894 Y108.54
G1 F1200 X109.165 Y101.811 E133.00443
G0 F4800 X108.599 Y101.811
G1 F1200 X115.328 Y108.54 E133.43172
G0 F4800 X114.762 Y108.54
G1 F1200 X108.033 Y101.811 E133.85901
G0 F4800 X107.468 Y101.811
G1 F1200 X114.197 Y108.54 E134.2863
G0 F4800 X113.631 Y108.54
G1 F1200 X106.902 Y101.811 E134.71359
G0 F4800 X106.336 Y101.811
G1 F1200 X113.065 Y108.54 E135.14088
G0 F4800 X112.499 Y108.54
G1 F1200 X105.771 Y101.811 E135.56814
G0 F4800 X105.205 Y101.811
G1 F1200 X111.934 Y108.54 E135.99543
G0 F4800 X111.368 Y108.54
G1 F1200 X104.639 Y101.811 E136.42272
G0 F4800 X104.074 Y101.811
G1 F1200 X110.802 Y108.54 E136.84998
G0 F4800 X110.237 Y108.54
G1 F1200 X103.508 Y101.811 E137.27727
G0 F4800 X102.942 Y101.811
G1 F1200 X109.725 Y108.593 E137.70796
G0 F4800 X109.291 Y108.725
G1 F1200 X102.377 Y101.811 E138.14699
G0 F4800 X101.811 Y101.811
G1 F1200 X108.977 Y108.977 E138.60203
G0 F4800 X108.731 Y109.297
G1 F1200 X101.811 Y102.377 E139.04145
G0 F4800 X101.811 Y102.942
G1 F1200 X108.571 Y109.702 E139.47071
G0 F4800 X108.54 Y110.237
G1 F1200 X101.811 Y103.508 E139.898
G0 F4800 X101.811 Y104.074
G1 F1200 X108.54 Y110.802 E140.32526
G0 F4800 X108.54 Y111.368
G1 F1200 X101.811 Y104.639 E140.75255
G0 F4800 X101.811 Y105.205
G1 F1200 X108.54 Y111.934 E141.17984
G0 F4800 X108.54 Y112.499
G1 F1200 X101.811 Y105.771 E141.6071
G0 F4800 X101.811 Y106.336
G1 F1200 X108.54 Y113.065 E142.03439
G0 F4800 X108.54 Y113.631
G1 F1200 X101.811 Y106.902 E142.46168
G0 F4800 X101.811 Y107.468
G1 F1200 X108.54 Y114.197 E142.88897
G0 F4800 X108.54 Y114.762
G1 F1200 X101.811 Y108.033 E143.31626
G0 F4800 X101.811 Y108.599
G1 F1200 X108.54 Y115.328 E143.74355
G0 F4800 X108.54 Y115.894
G1 F1200 X101.811 Y109.165 E144.17084
G0 F4800 X101.811 Y109.73
G1 F1200 X108.54 Y116.459 E144.59813
G0 F4800 X108.54 Y117.025
G1 F1200 X101.811 Y110.296 E145.02543
G0 F4800 X101.811 Y110.862
G1 F1200 X108.54 Y117.591 E145.45272
G0 F4800 X108.54 Y118.156
G1 F1200 X101.811 Y111.428 E145.87997
G0 F4800 X101.811 Y111.993
G1 F1200 X108.54 Y118.722 E146.30727
G0 F4800 X108.54 Y119.288
G1 F1200 X101.811 Y112.559 E146.73456
G0 F4800 X101.811 Y113.125
G1 F1200 X108.54 Y119.853 E147.16181
G0 F4800 X108.54 Y120.419
G1 F1200 X101.811 Y113.69 E147.58911
G0 F4800 X101.811 Y114.256
G1 F1200 X108.54 Y120.985 E148.0164
G0 F4800 X108.54 Y121.55
G1 F1200 X101.811 Y114.822 E148.44365
G0 F4800 X101.811 Y115.387
G1 F1200 X108.54 Y122.116 E148.87095
G0 F4800 X108.54 Y122.682
G1 F1200 X101.811 Y115.953 E149.29824
G0 F4800 X101.811 Y116.519
G1 F1200 X108.54 Y123.248 E149.72553
G0 F4800 X108.54 Y123.813
G1 F1200 X101.811 Y117.084 E150.15282
G0 F4800 X101.811 Y117.65
G1 F1200 X108.54 Y124.379 E150.58011
G0 F4800 X108.54 Y124.945
G1 F1200 X101.811 Y118.216 E151.0074
G0 F4800 X101.811 Y118.781
G1 F1200 X108.54 Y125.51 E151.43469
G0 F4800 X108.54 Y126.076
G1 F1200 X101.811 Y119.347 E151.86198
G0 F4800 X101.811 Y119.913
G1 F1200 X108.54 Y126.642 E152.28927
G0 F4800 X108.54 Y127.207
G1 F1200 X101.811 Y120.478 E152.71656
G0 F4800 X101.811 Y121.044
G1 F1200 X108.54 Y127.773 E153.14385
G0 F4800 X108.54 Y128.339
G1 F1200 X101.811 Y121.61 E153.57114
G0 F4800 X101.811 Y122.176
G1 F1200 X108.54 Y128.904 E153.9984
G0 F4800 X108.54 Y129.47
G1 F1200 X101.811 Y122.741 E154.42569
G0 F4800 X101.811 Y123.307
G1 F1200 X108.54 Y130.036 E154.85298
G0 F4800 X108.54 Y130.601
G1 F1200 X101.811 Y123.873 E155.28024
G0 F4800 X101.811 Y124.438
G1 F1200 X108.54 Y131.167 E155.70753
G0 F4800 X108.54 Y131.733
G1 F1200 X101.811 Y125.004 E156.13482
