;FLAVOR:Marlin
;TIME:4019
;Filament used: 2.43725m
;Layer height: 0.2
;MINX:108.201
;MINY:108.201
;MINZ:0.3
;MAXX:141.799
;MAXY:141.799
;MAXZ:53.4
;Generated with Cura_SteamEngine 5.0.0
M140 S70
M105
M190 S70
M104 S215
M105
M109 S215
M82 ;absolute extrusion mode
;Sliced at: Sat 04-06-2022 16:45:50
G21 ;metric values
M107
G28
M420 S1
G90 ;absolute positioning
G92 E0; reset extruder distance
G1 X0 Y0 Z5 F5000 ;move nozzle up 5mm for safe homing
G29;ABL
M500
M82 ;set extruder to absolute mode
M107 ;start with the fan off
G1 X0 Y0 Z15.0 F5000 ;move the platform down 15mm
G92 E0 ;zero the extruded length
G1 F200 E3 ;extrude 3mm of feed stock
G1 F200 E0 ;Retract
G4 S2 ;Wait for material to fall
G1 F200 E3
G92 E0 ;zero the extruded length again
M117 Printing...
G92 E0
;WIPE
G91
G1 X -20 F3000
G1 X40
G1 X-20
G90

G92 E0
G1 F2400 E-1
;LAYER_COUNT:264
;LAYER:0
M107
G1 F600 Z0.8
G0 F4800 X108.804 Y108.656 Z0.8
G1 F600 Z0.8
G0 F4800 X108.201 Y110.001
;TYPE:SKIRT
G1 F600 Z0.3
G1 F2400 E0.02495
G1 F1200 X108.241 Y109.624 E0.04197
G1 X108.359 Y109.264 E0.05898
G1 X108.549 Y108.937 E0.07596
G1 X108.804 Y108.656 E0.093
G1 X109.113 Y108.436 E0.11003
G1 X109.46 Y108.284 E0.12704
G1 X110.001 Y108.201 E0.15162
G1 X139.999 Y108.201 E1.49856
G1 X140.376 Y108.241 E1.51558
G1 X140.736 Y108.359 E1.53259
G1 X141.063 Y108.549 E1.54958
G1 X141.344 Y108.804 E1.56661
G1 X141.564 Y109.113 E1.58365
G1 X141.716 Y109.46 E1.60066
G1 X141.799 Y110.001 E1.62523
G1 X141.799 Y139.999 E2.97218
G1 X141.759 Y140.376 E2.9892
G1 X141.641 Y140.736 E3.00621
G1 X141.451 Y141.063 E3.02319
G1 X141.196 Y141.344 E3.04023
G1 X140.887 Y141.564 E3.05726
G1 X140.54 Y141.716 E3.07427
G1 X139.999 Y141.799 E3.09885
G1 X110.001 Y141.799 E4.44579
G1 X109.624 Y141.759 E4.46282
G1 X109.264 Y141.641 E4.47983
G1 X108.937 Y141.451 E4.49681
G1 X108.656 Y141.196 E4.51384
G1 X108.436 Y140.887 E4.53088
G1 X108.284 Y140.54 E4.54789
G1 X108.201 Y139.999 E4.57246
G1 X108.201 Y110.001 E5.91941
G0 F4800 X108.601 Y110.001
G1 F1200 X108.641 Y109.669 E5.93442
G1 X108.758 Y109.357 E5.94938
G1 X108.946 Y109.08 E5.96442
G1 X109.194 Y108.857 E5.97939
G1 X109.488 Y108.698 E5.9944
G1 X110.001 Y108.601 E6.01784
G1 X139.999 Y108.601 E7.36479
G1 X140.331 Y108.641 E7.3798
G1 X140.643 Y108.758 E7.39476
G1 X140.92 Y108.946 E7.4098
G1 X141.143 Y109.194 E7.42477
G1 X141.302 Y109.488 E7.43978
G1 X141.399 Y110.001 E7.46322
G1 X141.399 Y139.999 E8.81017
G1 X141.359 Y140.331 E8.82518
G1 X141.242 Y140.643 E8.84014
G1 X141.054 Y140.92 E8.85518
G1 X140.806 Y141.143 E8.87015
G1 X140.512 Y141.302 E8.88516
G1 X139.999 Y141.399 E8.9086
G1 X110.001 Y141.399 E10.25555
G1 X109.669 Y141.359 E10.27056
G1 X109.357 Y141.242 E10.28552
G1 X109.08 Y141.054 E10.30056
G1 X108.857 Y140.806 E10.31553
G1 X108.698 Y140.512 E10.33054
G1 X108.601 Y139.999 E10.35398
G1 X108.601 Y110.001 E11.70093
G0 F4800 X109.001 Y110.001
G1 F1200 X109.041 Y109.722 E11.71358
G1 X109.157 Y109.465 E11.72624
G1 X109.34 Y109.25 E11.73892
G1 X109.576 Y109.096 E11.75157
G1 X110.001 Y109.001 E11.77113
G1 X139.999 Y109.001 E13.11807
G1 X140.278 Y109.041 E13.13073
G1 X140.535 Y109.157 E13.14339
G1 X140.75 Y109.34 E13.15607
G1 X140.904 Y109.576 E13.16872
G1 X140.999 Y110.001 E13.18827
G1 X140.999 Y139.999 E14.53522
G1 X140.959 Y140.278 E14.54787
G1 X140.843 Y140.535 E14.56054
G1 X140.66 Y140.75 E14.57321
G1 X140.424 Y140.904 E14.58587
G1 X139.999 Y140.999 E14.60542
G1 X110.001 Y140.999 E15.95237
G1 X109.722 Y140.959 E15.96502
G1 X109.465 Y140.843 E15.97768
G1 X109.25 Y140.66 E15.99036
G1 X109.096 Y140.424 E16.00301
G1 X109.001 Y139.999 E16.02257
G1 X109.001 Y110.001 E17.36951
G0 F4800 X109.401 Y110.001
G1 F1200 X109.441 Y109.786 E17.37933
G1 X109.554 Y109.6 E17.3891
G1 X109.727 Y109.467 E17.3989
G1 X110.001 Y109.401 E17.41156
G1 X139.999 Y109.401 E18.7585
G1 X140.214 Y109.441 E18.76832
G1 X140.4 Y109.554 E18.77809
G1 X140.533 Y109.727 E18.78789
G1 X140.599 Y110.001 E18.80055
G1 X140.599 Y139.999 E20.14749
G1 X140.559 Y140.214 E20.15731
G1 X140.446 Y140.4 E20.16708
G1 X140.273 Y140.533 E20.17688
G1 X139.999 Y140.599 E20.18954
G1 X110.001 Y140.599 E21.53648
G1 X109.786 Y140.559 E21.5463
G1 X109.6 Y140.446 E21.55607
G1 X109.467 Y140.273 E21.56587
G1 X109.401 Y139.999 E21.57853
G1 X109.401 Y110.001 E22.92547
G0 F4800 X109.801 Y110.001
G1 F1200 X109.84 Y109.882 E22.9311
G1 X110.001 Y109.801 E22.93919
G1 X139.999 Y109.801 E24.28613
G1 X140.118 Y109.84 E24.29176
G1 X140.199 Y110.001 E24.29985
G1 X140.199 Y139.999 E25.64679
G1 X140.16 Y140.118 E25.65242
G1 X139.999 Y140.199 E25.66051
G1 X110.001 Y140.199 E27.00746
G1 X109.882 Y140.16 E27.01308
G1 X109.801 Y139.999 E27.02117
G1 X109.801 Y110.001 E28.36812
;MESH:wallxy50mm (1).stl
G0 F4800 X110.201 Y110.201
;TYPE:WALL-OUTER
G1 F1200 X110.201 Y139.799 E29.6971
G1 X139.799 Y139.799 E31.02609
G1 X139.799 Y125 E31.69058
G1 X139.799 Y110.201 E32.35507
G1 X110.201 Y110.201 E33.68406
G0 F4800 X110.201 Y110.401
G0 X110.601 Y110.601
;TYPE:WALL-INNER
G1 F1200 X110.601 Y139.399 E34.97712
G1 X139.399 Y139.399 E36.27019
G1 X139.399 Y125 E36.91672
G1 X139.399 Y110.601 E37.56325
G1 X110.601 Y110.601 E38.85631
G0 F4800 X110.861 Y110.861
;TYPE:SKIN
G1 F1200 X110.861 Y139.139 E40.12603
G1 X139.139 Y139.139 E41.39575
G1 X139.139 Y110.861 E42.66546
G1 X110.861 Y110.861 E43.93518
G0 F4800 X111.261 Y111.261
G1 F1200 X111.261 Y138.739 E45.16897
G1 X138.739 Y138.739 E46.40277
G1 X138.739 Y111.261 E47.63656
G1 X111.261 Y111.261 E48.87036
G1 F2400 E47.87036
G1 F600 Z0.8
G0 F4800 X138.047 Y111.46 Z0.8
G1 F600 Z0.3
G1 F2400 E48.8953
G1 F1200 X138.538 Y111.951 E48.92648
G0 F4800 X138.538 Y112.516
G1 F1200 X137.482 Y111.46 E48.99353
G0 F4800 X136.916 Y111.46
G1 F1200 X138.538 Y113.082 E49.09653
G0 F4800 X138.538 Y113.648
G1 F1200 X136.35 Y111.46 E49.23547
G0 F4800 X135.785 Y111.46
G1 F1200 X138.538 Y114.214 E49.41032
G0 F4800 X138.538 Y114.779
G1 F1200 X135.219 Y111.46 E49.62107
G0 F4800 X134.653 Y111.46
G1 F1200 X138.538 Y115.345 E49.86777
G0 F4800 X138.538 Y115.911
G1 F1200 X134.087 Y111.46 E50.15041
G0 F4800 X133.522 Y111.46
G1 F1200 X138.538 Y116.476 E50.46892
G0 F4800 X138.538 Y117.042
G1 F1200 X132.956 Y111.46 E50.82338
G0 F4800 X132.39 Y111.46
G1 F1200 X138.538 Y117.608 E51.21378
G0 F4800 X138.538 Y118.173
G1 F1200 X131.825 Y111.46 E51.64005
G0 F4800 X131.259 Y111.46
G1 F1200 X138.538 Y118.739 E52.10227
G0 F4800 X138.538 Y119.305
G1 F1200 X130.693 Y111.46 E52.60042
G0 F4800 X130.128 Y111.46
G1 F1200 X138.538 Y119.87 E53.13446
G0 F4800 X138.538 Y120.436
G1 F1200 X129.562 Y111.46 E53.70443
G0 F4800 X128.996 Y111.46
G1 F1200 X138.538 Y121.002 E54.31035
G0 F4800 X138.538 Y121.567
G1 F1200 X128.431 Y111.46 E54.95214
G0 F4800 X127.865 Y111.46
G1 F1200 X138.538 Y122.133 E55.62987
G0 F4800 X138.538 Y122.699
G1 F1200 X127.299 Y111.46 E56.34355
G0 F4800 X126.734 Y111.46
G1 F1200 X138.538 Y123.264 E57.0931
G0 F4800 X138.538 Y123.83
G1 F1200 X126.168 Y111.46 E57.87859
G0 F4800 X125.602 Y111.46
G1 F1200 X138.538 Y124.396 E58.70003
G0 F4800 X138.538 Y124.962
G1 F1200 X125.036 Y111.46 E59.5574
G0 F4800 X124.471 Y111.46
G1 F1200 X138.538 Y125.527 E60.45066
G0 F4800 X138.538 Y126.093
G1 F1200 X123.905 Y111.46 E61.37985
G0 F4800 X123.339 Y111.46
G1 F1200 X138.538 Y126.659 E62.34498
G0 F4800 X138.538 Y127.224
G1 F1200 X122.774 Y111.46 E63.346
G0 F4800 X122.208 Y111.46
G1 F1200 X138.538 Y127.79 E64.38295
G0 F4800 X138.538 Y128.356
G1 F1200 X121.642 Y111.46 E65.45584
G0 F4800 X121.077 Y111.46
G1 F1200 X138.538 Y128.921 E66.56461
G0 F4800 X138.538 Y129.487
G1 F1200 X120.511 Y111.46 E67.70932
G0 F4800 X119.945 Y111.46
G1 F1200 X138.538 Y130.053 E68.88998
G0 F4800 X138.538 Y130.618
G1 F1200 X119.38 Y111.46 E70.10651
G0 F4800 X118.814 Y111.46
G1 F1200 X138.538 Y131.184 E71.35898
G0 F4800 X138.538 Y131.75
G1 F1200 X118.248 Y111.46 E72.64739
G0 F4800 X117.683 Y111.46
G1 F1200 X138.538 Y132.315 E73.97168
G0 F4800 X138.538 Y132.881
G1 F1200 X117.117 Y111.46 E75.33191
G0 F4800 X116.551 Y111.46
G1 F1200 X138.538 Y133.447 E76.72808
G0 F4800 X138.538 Y134.012
G1 F1200 X115.986 Y111.46 E78.16013
G0 F4800 X115.42 Y111.46
G1 F1200 X138.538 Y134.578 E79.62812
G0 F4800 X138.538 Y135.144
G1 F1200 X114.854 Y111.46 E81.13205
G0 F4800 X114.288 Y111.46
G1 F1200 X138.538 Y135.71 E82.67192
G0 F4800 X138.538 Y136.275
G1 F1200 X113.723 Y111.46 E84.24767
G0 F4800 X113.157 Y111.46
G1 F1200 X138.538 Y136.841 E85.85936
G0 F4800 X138.538 Y137.407
G1 F1200 X112.591 Y111.46 E87.50699
G0 F4800 X112.026 Y111.46
G1 F1200 X138.538 Y137.972 E89.1905
G0 F4800 X138.538 Y138.538
G1 F1200 X111.46 Y111.46 E90.90995
G0 F4800 X111.46 Y112.026
G1 F1200 X137.972 Y138.538 E92.59346
G0 F4800 X137.407 Y138.538
G1 F1200 X111.46 Y112.591 E94.24109
G0 F4800 X111.46 Y113.157
G1 F1200 X136.841 Y138.538 E95.85278
G0 F4800 X136.275 Y138.538
G1 F1200 X111.46 Y113.723 E97.42853
G0 F4800 X111.46 Y114.288
G1 F1200 X135.71 Y138.538 E98.9684
G0 F4800 X135.144 Y138.538
G1 F1200 X111.46 Y114.854 E100.47233
G0 F4800 X111.46 Y115.42
G1 F1200 X134.578 Y138.538 E101.94032
G0 F4800 X134.012 Y138.538
G1 F1200 X111.46 Y115.986 E103.37237
G0 F4800 X111.46 Y116.551
G1 F1200 X133.447 Y138.538 E104.76854
G0 F4800 X132.881 Y138.538
G1 F1200 X111.46 Y117.117 E106.12877
G0 F4800 X111.46 Y117.683
G1 F1200 X132.315 Y138.538 E107.45306
G0 F4800 X131.75 Y138.538
G1 F1200 X111.46 Y118.248 E108.74147
G0 F4800 X111.46 Y118.814
G1 F1200 X131.184 Y138.538 E109.99395
G0 F4800 X130.618 Y138.538
G1 F1200 X111.46 Y119.38 E111.21048
G0 F4800 X111.46 Y119.945
G1 F1200 X130.053 Y138.538 E112.39113
G0 F4800 X129.487 Y138.538
G1 F1200 X111.46 Y120.511 E113.53584
G0 F4800 X111.46 Y121.077
G1 F1200 X128.921 Y138.538 E114.64461
G0 F4800 X128.356 Y138.538
G1 F1200 X111.46 Y121.642 E115.71751
G0 F4800 X111.46 Y122.208
G1 F1200 X127.79 Y138.538 E116.75446
G0 F4800 X127.224 Y138.538
G1 F1200 X111.46 Y122.774 E117.75547
G0 F4800 X111.46 Y123.339
G1 F1200 X126.659 Y138.538 E118.7206
G0 F4800 X126.093 Y138.538
G1 F1200 X111.46 Y123.905 E119.6498
G0 F4800 X111.46 Y124.471
G1 F1200 X125.527 Y138.538 E120.54305
G0 F4800 X124.962 Y138.538
G1 F1200 X111.46 Y125.036 E121.40043
G0 F4800 X111.46 Y125.602
G1 F1200 X124.396 Y138.538 E122.22186
G0 F4800 X123.83 Y138.538
G1 F1200 X111.46 Y126.168 E123.00735
G0 F4800 X111.46 Y126.734
G1 F1200 X123.264 Y138.538 E123.75691
G0 F4800 X122.699 Y138.538
M104 S205
G1 F1200 X111.46 Y127.299 E124.47058
G0 F4800 X111.46 Y127.865
G1 F1200 X122.133 Y138.538 E125.14831
G0 F4800 X121.567 Y138.538
G1 F1200 X111.46 Y128.431 E125.79011
G0 F4800 X111.46 Y128.996
G1 F1200 X121.002 Y138.538 E126.39602
G0 F4800 X120.436 Y138.538
G1 F1200 X111.46 Y129.562 E126.966
G0 F4800 X111.46 Y130.128
G1 F1200 X119.87 Y138.538 E127.50003
G0 F4800 X119.305 Y138.538
G1 F1200 X111.46 Y130.693 E127.99819
G0 F4800 X111.46 Y131.259
G1 F1200 X118.739 Y138.538 E128.4604
G0 F4800 X118.173 Y138.538
G1 F1200 X111.46 Y131.825 E128.88668
G0 F4800 X111.46 Y132.39
G1 F1200 X117.608 Y138.538 E129.27708
G0 F4800 X117.042 Y138.538
G1 F1200 X111.46 Y132.956 E129.63153
G0 F4800 X111.46 Y133.522
G1 F1200 X116.476 Y138.538 E129.95005
G0 F4800 X115.911 Y138.538
G1 F1200 X111.46 Y134.087 E130.23268
G0 F4800 X111.46 Y134.653
G1 F1200 X115.345 Y138.538 E130.47938
G0 F4800 X114.779 Y138.538
G1 F1200 X111.46 Y135.219 E130.69014
G0 F4800 X111.46 Y135.785
G1 F1200 X114.214 Y138.538 E130.86498
G0 F4800 X113.648 Y138.538
G1 F1200 X111.46 Y136.35 E131.00392
G0 F4800 X111.46 Y136.916
G1 F1200 X113.082 Y138.538 E131.10692
G0 F4800 X112.516 Y138.538
G1 F1200 X111.46 Y137.482 E131.17398
G0 F4800 X111.46 Y138.047
G1 F1200 X111.951 Y138.538 E131.20515
G1 F2400 E130.20515
G1 F600 Z0.8
;MESH:NONMESH
G0 F4800 X110.201 Y110.201 Z0.8
;TIME_ELAPSED:157.176170
;LAYER:1
M140 S60
M106 S255
;MESH:wallxy50mm (1).stl
G0 F5400 X110.201 Y110.201 Z1
;TYPE:WALL-OUTER
G1 F600 Z0.5
G1 F2400 E131.2301
G1 F3000 X110.201 Y139.799 E132.11609
G1 X139.799 Y139.799 E133.00208
G1 X139.799 Y125 E133.44507
G1 X139.799 Y110.201 E133.88807
G1 X110.201 Y110.201 E134.77406
G0 F5400 X110.201 Y110.401
G0 X110.601 Y110.601
;TYPE:WALL-INNER
G1 F3300 X110.601 Y139.399 E135.6361
G1 X139.399 Y139.399 E136.49814
G1 X139.399 Y125 E136.92917
G1 X139.399 Y110.601 E137.36019
G1 X110.601 Y110.601 E138.22223
G0 F5400 X110.861 Y110.861
;TYPE:SKIN
G1 F2100 X110.861 Y139.139 E139.06871
G1 X125 Y139.139 E139.49195
G1 X139.139 Y139.139 E139.91518
G1 X139.139 Y110.861 E140.76166
G1 X110.861 Y110.861 E141.60814
G0 F5400 X111.261 Y111.261
G1 F2100 X111.261 Y138.739 E142.43067
G1 X125 Y138.739 E142.84193
G1 X138.739 Y138.739 E143.2532
G1 X138.739 Y111.261 E144.07573
G1 X111.261 Y111.261 E144.89826
G0 F5400 X111.985 Y111.46
G1 F2100 X111.46 Y111.985 E144.92048
G0 F5400 X111.46 Y112.55
G1 F2100 X112.55 Y111.46 E144.96663
G0 F5400 X113.116 Y111.46
G1 F2100 X111.46 Y113.116 E145.03673
G0 F5400 X111.46 Y113.682
G1 F2100 X113.682 Y111.46 E145.13079
G0 F5400 X114.247 Y111.46
G1 F2100 X111.46 Y114.247 E145.24878
G0 F5400 X111.46 Y114.813
G1 F2100 X114.813 Y111.46 E145.39072
G0 F5400 X115.379 Y111.46
G1 F2100 X111.46 Y115.379 E145.55662
G0 F5400 X111.46 Y115.945
G1 F2100 X115.945 Y111.46 E145.74649
G0 F5400 X116.51 Y111.46
G1 F2100 X111.46 Y116.51 E145.96027
G0 F5400 X111.46 Y117.076
G1 F2100 X117.076 Y111.46 E146.19802
G0 F5400 X117.642 Y111.46
G1 F2100 X111.46 Y117.642 E146.45972
G0 F5400 X111.46 Y118.207
G1 F2100 X118.207 Y111.46 E146.74534
G0 F5400 X118.773 Y111.46
G1 F2100 X111.46 Y118.773 E147.05492
G0 F5400 X111.46 Y119.339
G1 F2100 X119.339 Y111.46 E147.38847
G0 F5400 X119.904 Y111.46
G1 F2100 X111.46 Y119.904 E147.74593
G0 F5400 X111.46 Y120.47
G1 F2100 X120.47 Y111.46 E148.12735
G0 F5400 X121.036 Y111.46
G1 F2100 X111.46 Y121.036 E148.53274
G0 F5400 X111.46 Y121.601
G1 F2100 X121.601 Y111.46 E148.96204
G0 F5400 X122.167 Y111.46
G1 F2100 X111.46 Y122.167 E149.4153
G0 F5400 X111.46 Y122.733
G1 F2100 X122.733 Y111.46 E149.89252
G0 F5400 X123.298 Y111.46
G1 F2100 X111.46 Y123.298 E150.39366
G0 F5400 X111.46 Y123.864
G1 F2100 X123.864 Y111.46 E150.91876
G0 F5400 X124.43 Y111.46
G1 F2100 X111.46 Y124.43 E151.46783
G0 F5400 X111.46 Y124.995
G1 F2100 X124.995 Y111.46 E152.04081
G0 F5400 X125.561 Y111.46
G1 F2100 X111.46 Y125.561 E152.63775
G0 F5400 X111.46 Y126.127
G1 F2100 X126.127 Y111.46 E153.25865
G0 F5400 X126.693 Y111.46
G1 F2100 X111.46 Y126.693 E153.90351
G0 F5400 X111.46 Y127.258
G1 F2100 X127.258 Y111.46 E154.57229
G0 F5400 X127.824 Y111.46
G1 F2100 X111.46 Y127.824 E155.26503
G0 F5400 X111.46 Y128.39
G1 F2100 X128.39 Y111.46 E155.98174
G0 F5400 X128.955 Y111.46
G1 F2100 X111.46 Y128.955 E156.72236
G0 F5400 X111.46 Y129.521
G1 F2100 X129.521 Y111.46 E157.48694
G0 F5400 X130.087 Y111.46
G1 F2100 X111.46 Y130.087 E158.27548
G0 F5400 X111.46 Y130.652
G1 F2100 X130.652 Y111.46 E159.08794
G0 F5400 X131.218 Y111.46
G1 F2100 X111.46 Y131.218 E159.92436
G0 F5400 X111.46 Y131.784
G1 F2100 X131.784 Y111.46 E160.78474
G0 F5400 X132.349 Y111.46
G1 F2100 X111.46 Y132.349 E161.66904
G0 F5400 X111.46 Y132.915
G1 F2100 X132.915 Y111.46 E162.5773
G0 F5400 X133.481 Y111.46
G1 F2100 X111.46 Y133.481 E163.50952
G0 F5400 X111.46 Y134.046
G1 F2100 X134.046 Y111.46 E164.46566
G0 F5400 X134.612 Y111.46
G1 F2100 X111.46 Y134.612 E165.44575
G0 F5400 X111.46 Y135.178
G1 F2100 X135.178 Y111.46 E166.44981
G0 F5400 X135.743 Y111.46
G1 F2100 X111.46 Y135.743 E167.47779
G0 F5400 X111.46 Y136.309
G1 F2100 X136.309 Y111.46 E168.52973
G0 F5400 X136.875 Y111.46
G1 F2100 X111.46 Y136.875 E169.60563
G0 F5400 X111.46 Y137.441
G1 F2100 X137.441 Y111.46 E170.70549
G0 F5400 X138.006 Y111.46
G1 F2100 X111.46 Y138.006 E171.82927
G0 F5400 X111.494 Y138.538
G1 F2100 X138.538 Y111.494 E172.97413
G0 F5400 X138.538 Y112.06
G1 F2100 X112.06 Y138.538 E174.09503
G0 F5400 X112.625 Y138.538
G1 F2100 X138.538 Y112.625 E175.19201
G0 F5400 X138.538 Y113.191
G1 F2100 X113.191 Y138.538 E176.26503
G0 F5400 X113.757 Y138.538
G1 F2100 X138.538 Y113.757 E177.31409
G0 F5400 X138.538 Y114.322
G1 F2100 X114.322 Y138.538 E178.33923
G0 F5400 X114.888 Y138.538
G1 F2100 X138.538 Y114.888 E179.34041
G0 F5400 X138.538 Y115.454
G1 F2100 X115.454 Y138.538 E180.31763
G0 F5400 X116.019 Y138.538
