;FLAVOR:Marlin
;TIME:6894
;Filament used: 2.87344m
;Layer height: 0.2
;MINX:68.018
;MINY:88.426
;MINZ:0.3
;MAXX:131.982
;MAXY:112.424
;MAXZ:15.6
;Generated with Cura_SteamEngine 5.0.0
M140 S70
M105
M190 S70
M104 S215
M105
M109 S215
M82 ;absolute extrusion mode
;Sliced at: Tue 07-06-2022 17:34:43
G21 ;metric values
M107
G28
M420 S1
G90 ;absolute positioning
G92 E0; reset extruder distance
G1 X0 Y0 Z5 F5000 ;move nozzle up 5mm for safe homing
G29;ABL
M500
M82 ;set extruder to absolute mode
M107 ;start with the fan off
G1 X0 Y0 Z15.0 F5000 ;move the platform down 15mm
G92 E0 ;zero the extruded length
G1 F200 E3 ;extrude 3mm of feed stock
G1 F200 E0 ;Retract
G4 S2 ;Wait for material to fall
G1 F200 E3
G92 E0 ;zero the extruded length again
M117 Printing...
G92 E0
;WIPE
G91
G1 X -20 F3000
G1 X40
G1 X-20
G90

G92 E0
G1 F2400 E-1
;LAYER_COUNT:75
;LAYER:0
M107
G1 F600 Z0.8
G0 F4800 X69.412 Y89.197 Z0.8
G1 F600 Z0.8
G0 F4800 X68.018 Y92.653
;TYPE:SKIRT
G1 F600 Z0.3
G1 F2400 E0.02495
G1 F1080 X68.027 Y91.986 E0.0549
G1 X68.074 Y91.452 E0.07897
G1 X68.2 Y90.931 E0.10303
G1 X68.403 Y90.434 E0.12714
G1 X68.676 Y89.973 E0.1512
G1 X69.015 Y89.557 E0.17529
G1 X69.412 Y89.197 E0.19936
G1 X69.858 Y88.899 E0.22344
G1 X70.344 Y88.671 E0.24754
G1 X70.858 Y88.518 E0.27162
G1 X71.526 Y88.436 E0.30184
G1 X71.948 Y88.426 E0.3208
G1 X127.728 Y88.427 E2.82539
G1 X128.425 Y88.437 E2.85668
G1 X128.959 Y88.485 E2.88076
G1 X129.48 Y88.611 E2.90483
G1 X129.977 Y88.814 E2.92893
G1 X130.438 Y89.088 E2.95301
G1 X130.853 Y89.427 E2.97707
G1 X131.213 Y89.825 E3.00117
G1 X131.51 Y90.271 E3.02523
G1 X131.738 Y90.757 E3.04933
G1 X131.89 Y91.271 E3.0734
G1 X131.972 Y91.936 E3.10349
G1 X131.982 Y92.357 E3.12239
G1 X131.982 Y108.133 E3.83076
G1 X131.973 Y108.86 E3.8634
G1 X131.926 Y109.394 E3.88747
G1 X131.801 Y109.915 E3.91153
G1 X131.599 Y110.412 E3.93562
G1 X131.326 Y110.874 E3.95971
G1 X130.988 Y111.29 E3.98378
G1 X130.591 Y111.651 E4.00787
G1 X130.145 Y111.949 E4.03196
G1 X129.66 Y112.177 E4.05602
G1 X129.146 Y112.331 E4.08011
G1 X128.474 Y112.414 E4.11052
G1 X128.052 Y112.424 E4.12947
G1 X72.279 Y112.424 E6.63374
G1 X71.581 Y112.415 E6.66509
G1 X71.046 Y112.368 E6.6892
G1 X70.525 Y112.242 E6.71327
G1 X70.028 Y112.04 E6.73736
G1 X69.567 Y111.767 E6.76142
G1 X69.151 Y111.428 E6.78551
G1 X68.79 Y111.032 E6.80957
G1 X68.492 Y110.586 E6.83366
G1 X68.264 Y110.1 E6.85776
G1 X68.111 Y109.586 E6.88184
G1 X68.028 Y108.912 E6.91233
G1 X68.018 Y108.482 E6.93165
G1 X68.018 Y92.653 E7.64239
G0 F4800 X68.418 Y92.659
G1 F1080 X68.427 Y91.992 E7.67234
G1 X68.474 Y91.488 E7.69507
G1 X68.599 Y90.999 E7.71773
G1 X68.8 Y90.535 E7.74043
G1 X69.072 Y90.108 E7.76317
G1 X69.407 Y89.73 E7.78585
G1 X69.798 Y89.409 E7.80856
G1 X70.234 Y89.154 E7.83124
G1 X70.706 Y88.971 E7.85397
G1 X71.2 Y88.864 E7.87667
G1 X71.858 Y88.827 E7.90626
G1 X127.722 Y88.827 E10.41462
G1 X128.419 Y88.837 E10.44592
G1 X128.922 Y88.884 E10.4686
G1 X129.412 Y89.01 E10.49132
G1 X129.876 Y89.212 E10.51404
G1 X130.302 Y89.484 E10.53673
G1 X130.68 Y89.819 E10.55941
G1 X131 Y90.21 E10.5821
G1 X131.255 Y90.647 E10.60482
G1 X131.438 Y91.118 E10.62751
G1 X131.545 Y91.612 E10.6502
G1 X131.581 Y92.267 E10.67966
G1 X131.582 Y108.128 E11.39183
G1 X131.573 Y108.855 E11.42448
G1 X131.527 Y109.358 E11.44716
G1 X131.402 Y109.848 E11.46987
G1 X131.201 Y110.312 E11.49257
G1 X130.93 Y110.739 E11.51528
G1 X130.595 Y111.118 E11.53799
G1 X130.205 Y111.439 E11.56067
G1 X129.769 Y111.695 E11.58337
G1 X129.298 Y111.878 E11.60606
G1 X128.804 Y111.986 E11.62877
G1 X128.142 Y112.023 E11.65854
G1 X72.284 Y112.024 E14.16663
G1 X71.586 Y112.015 E14.19797
G1 X71.082 Y111.968 E14.2207
G1 X70.592 Y111.843 E14.24341
G1 X70.128 Y111.642 E14.26611
G1 X69.702 Y111.371 E14.28878
G1 X69.323 Y111.036 E14.31149
G1 X69.002 Y110.645 E14.33421
G1 X68.747 Y110.209 E14.35689
G1 X68.563 Y109.738 E14.37959
G1 X68.456 Y109.244 E14.40229
G1 X68.419 Y108.568 E14.43269
G1 X68.418 Y92.659 E15.14702
G1 F2400 E14.14702
G1 F600 Z0.8
;MESH:dimension.stl
G0 F4800 X71.818 Y92.226 Z0.8
;TYPE:WALL-OUTER
G1 F600 Z0.3
G1 F2400 E15.17197
G1 F1080 X71.818 Y108.624 E15.90826
G1 X79.652 Y108.624 E16.26001
G1 F1014.1 X80.385 Y108.598 E16.29509
G1 F1004.7 X81.191 Y108.619 E16.334
G1 F1061.4 X81.984 Y108.621 E16.37023
G1 F995.4 X82.779 Y108.592 E16.40899
G1 F1002.3 X83.584 Y108.623 E16.44797
G1 F1080 X89.652 Y108.624 E16.72043
G1 F1014.1 X90.385 Y108.598 E16.7555
G1 F1004.7 X91.191 Y108.619 E16.79442
G1 F1061.4 X91.984 Y108.621 E16.83065
G1 F995.4 X92.779 Y108.592 E16.8694
G1 F1002.3 X93.584 Y108.623 E16.90838
G1 F1080 X99.652 Y108.624 E17.18084
G1 F1014.1 X100.385 Y108.598 E17.21591
G1 F1004.7 X101.191 Y108.619 E17.25483
G1 F1061.4 X101.984 Y108.621 E17.29106
G1 F995.4 X102.779 Y108.592 E17.32982
G1 F1002.3 X103.584 Y108.623 E17.36879
G1 F1080 X109.652 Y108.624 E17.64125
G1 F1014.1 X110.385 Y108.598 E17.67633
G1 F1004.7 X111.191 Y108.619 E17.71525
G1 F1061.4 X111.984 Y108.621 E17.75148
G1 F995.4 X112.779 Y108.592 E17.79023
G1 F1002.3 X113.584 Y108.623 E17.82921
G1 F1080 X119.652 Y108.624 E18.10167
G1 F1014.1 X120.385 Y108.598 E18.13674
G1 F1004.7 X121.191 Y108.619 E18.17566
G1 F1061.4 X121.984 Y108.621 E18.21189
G1 F995.4 X122.779 Y108.592 E18.25065
G1 F1002.3 X123.584 Y108.623 E18.28962
G1 F1080 X128.182 Y108.624 E18.49608
G1 X128.182 Y95.515 E19.08469
G1 X128.182 Y92.227 E19.23232
G1 X71.818 Y92.226 E21.76313
G0 F4800 X71.818 Y92.426
G1 F2400 E20.76313
G1 F600 Z0.8
G0 F4800 X86.618 Y102.428 Z0.8
G1 F600 Z0.3
G1 F2400 E21.78808
G1 F1148.9 X86.618 Y103.167 E21.81927
G1 X86.617 Y103.928 E21.85139
G1 F1064 X86.443 Y104.668 E21.88603
G1 F1080 X86.16 Y105.379 E21.92039
G1 X85.776 Y106.04 E21.95472
G1 X85.295 Y106.635 E21.98907
G1 X84.812 Y107.088 E22.01881
G1 X84.188 Y107.525 E22.05301
G1 X83.497 Y107.863 E22.08755
G1 F1016.5 X82.778 Y108.117 E22.12393
G1 F1007 X82.015 Y108.214 E22.16097
G1 F1061.4 X81.251 Y108.214 E22.19587
G1 F993.1 X80.491 Y108.131 E22.23321
G1 F1000 X79.767 Y107.874 E22.27046
G1 F1080 X79.076 Y107.538 E22.30496
G1 X78.527 Y107.169 E22.33466
G1 X77.959 Y106.658 E22.36897
G1 X77.475 Y106.063 E22.40341
G1 X77.087 Y105.407 E22.43763
G1 X76.801 Y104.697 E22.472
G1 X76.625 Y103.946 E22.50663
G1 X76.569 Y103.193 E22.54054
G1 X76.624 Y102.428 E22.57497
G1 X76.794 Y101.683 E22.60929
G1 X77.075 Y100.974 E22.64353
G1 X77.459 Y100.313 E22.67785
G1 X77.94 Y99.718 E22.71221
G1 X78.423 Y99.265 E22.74194
G1 X79.048 Y98.828 E22.77618
G1 X79.738 Y98.49 E22.81068
G1 X80.465 Y98.26 E22.84492
G1 X81.22 Y98.142 E22.87923
G1 X81.984 Y98.141 E22.91354
G1 X82.74 Y98.254 E22.94786
G1 X83.471 Y98.481 E22.98223
G1 X84.159 Y98.815 E23.01657
G1 X84.708 Y99.184 E23.04627
G1 X85.274 Y99.693 E23.08045
G1 X85.759 Y100.289 E23.11495
G1 X86.148 Y100.947 E23.14927
G1 X86.435 Y101.654 E23.18353
G1 F1066.7 X86.613 Y102.396 E23.21823
G1 F1051.1 X86.618 Y102.428 E23.21972
G1 F1064 X86.793 Y101.683 E23.2546
G1 F1080 X87.075 Y100.974 E23.28886
G1 X87.459 Y100.313 E23.32318
G1 X87.94 Y99.718 E23.35754
G1 X88.423 Y99.265 E23.38727
G1 X89.048 Y98.828 E23.42151
G1 X89.738 Y98.49 E23.45601
G1 X90.465 Y98.26 E23.49025
G1 X91.22 Y98.142 E23.52456
G1 X91.984 Y98.141 E23.55887
G1 X92.74 Y98.254 E23.59319
G1 X93.471 Y98.481 E23.62756
G1 X94.159 Y98.815 E23.6619
G1 X94.708 Y99.184 E23.6916
G1 X95.274 Y99.693 E23.72578
G1 X95.759 Y100.289 E23.76028
G1 X96.148 Y100.947 E23.7946
G1 X96.435 Y101.654 E23.82886
G1 F1066.7 X96.613 Y102.396 E23.86355
G1 F1051.1 X96.618 Y102.428 E23.86505
G1 F1064 X96.793 Y101.683 E23.89992
G1 F1080 X97.075 Y100.974 E23.93418
G1 X97.459 Y100.313 E23.96851
G1 X97.94 Y99.718 E24.00286
G1 X98.423 Y99.265 E24.0326
G1 X99.048 Y98.828 E24.06684
G1 X99.738 Y98.49 E24.10134
G1 X100.465 Y98.26 E24.13558
G1 X101.22 Y98.142 E24.16989
G1 X101.984 Y98.141 E24.20419
G1 X102.74 Y98.254 E24.23852
G1 X103.471 Y98.481 E24.27288
G1 X104.159 Y98.815 E24.30722
G1 X104.708 Y99.184 E24.33693
G1 X105.274 Y99.693 E24.3711
G1 X105.759 Y100.289 E24.40561
G1 X106.148 Y100.947 E24.43993
G1 X106.435 Y101.654 E24.47419
G1 F1066.7 X106.613 Y102.396 E24.50888
G1 F1051.1 X106.618 Y102.428 E24.51037
G1 F1064 X106.793 Y101.683 E24.54525
G1 F1080 X107.075 Y100.974 E24.57951
G1 X107.459 Y100.313 E24.61384
G1 X107.94 Y99.718 E24.64819
G1 X108.423 Y99.265 E24.67792
G1 X109.048 Y98.828 E24.71217
G1 X109.738 Y98.49 E24.74667
G1 X110.465 Y98.26 E24.7809
G1 X111.22 Y98.142 E24.81522
G1 X111.984 Y98.141 E24.84952
G1 X112.74 Y98.254 E24.88384
G1 X113.471 Y98.481 E24.91821
G1 X114.159 Y98.815 E24.95255
G1 X114.708 Y99.184 E24.98225
G1 X115.274 Y99.693 E25.01643
G1 X115.759 Y100.289 E25.05093
G1 X116.148 Y100.947 E25.08526
G1 X116.435 Y101.654 E25.11952
G1 F1066.7 X116.613 Y102.396 E25.15421
G1 F1051.1 X116.618 Y102.428 E25.1557
G1 F1064 X116.793 Y101.683 E25.19058
G1 F1080 X117.075 Y100.974 E25.22484
G1 X117.459 Y100.313 E25.25916
G1 X117.94 Y99.718 E25.29352
G1 X118.423 Y99.265 E25.32325
G1 X119.048 Y98.828 E25.35749
G1 X119.738 Y98.49 E25.39199
G1 X120.465 Y98.26 E25.42623
G1 X121.22 Y98.142 E25.46054
G1 X121.984 Y98.141 E25.49485
G1 X122.74 Y98.254 E25.52917
G1 X123.471 Y98.481 E25.56354
G1 X124.159 Y98.815 E25.59788
G1 X124.708 Y99.184 E25.62758
G1 X125.274 Y99.693 E25.66176
G1 X125.759 Y100.289 E25.69626
G1 X126.148 Y100.946 E25.73054
G1 X126.434 Y101.653 E25.76479
G1 X126.607 Y102.397 E25.79909
G1 X126.667 Y103.158 E25.83336
G1 X126.611 Y103.926 E25.86794
G1 X126.443 Y104.668 E25.9021
G1 X126.16 Y105.379 E25.93646
G1 X125.776 Y106.039 E25.97074
G1 X125.295 Y106.635 E26.00513
G1 X124.812 Y107.088 E26.03487
G1 X124.188 Y107.525 E26.06907
G1 X123.497 Y107.863 E26.10361
G1 F1016.5 X122.778 Y108.117 E26.13999
G1 F1007 X122.015 Y108.214 E26.17703
G1 F1061.4 X121.251 Y108.214 E26.21194
G1 F993.1 X120.491 Y108.131 E26.24927
G1 F1000 X119.767 Y107.874 E26.28652
G1 F1080 X119.076 Y107.538 E26.32102
G1 X118.527 Y107.169 E26.35072
G1 X117.959 Y106.658 E26.38503
G1 X117.475 Y106.063 E26.41947
G1 X117.087 Y105.407 E26.45369
G1 X116.801 Y104.697 E26.48806
G1 F1066.7 X116.622 Y103.958 E26.52263
G1 F1051.1 X116.617 Y103.928 E26.52403
G1 F1064 X116.443 Y104.668 E26.55868
G1 F1080 X116.16 Y105.379 E26.59304
G1 X115.776 Y106.04 E26.62736
G1 X115.295 Y106.635 E26.66172
G1 X114.812 Y107.088 E26.69145
G1 X114.188 Y107.525 E26.72565
G1 X113.497 Y107.863 E26.76019
G1 F1016.5 X112.778 Y108.117 E26.79657
G1 F1007 X112.015 Y108.214 E26.83361
G1 F1061.4 X111.251 Y108.214 E26.86852
G1 F993.1 X110.491 Y108.131 E26.90585
G1 F1000 X109.767 Y107.874 E26.9431
G1 F1080 X109.076 Y107.538 E26.9776
G1 X108.527 Y107.169 E27.00731
G1 X107.959 Y106.658 E27.04161
G1 X107.475 Y106.063 E27.07605
G1 X107.087 Y105.407 E27.11027
G1 X106.801 Y104.697 E27.14464
G1 F1066.7 X106.622 Y103.958 E27.17921
G1 F1051.1 X106.617 Y103.928 E27.18061
G1 F1064 X106.443 Y104.668 E27.21526
G1 F1080 X106.16 Y105.379 E27.24962
G1 X105.776 Y106.04 E27.28394
G1 X105.295 Y106.635 E27.3183
G1 X104.812 Y107.088 E27.34803
G1 X104.188 Y107.525 E27.38224
G1 X103.497 Y107.863 E27.41678
G1 F1016.5 X102.778 Y108.117 E27.45316
G1 F1007 X102.015 Y108.214 E27.49019
G1 F1061.4 X101.251 Y108.214 E27.5251
G1 F993.1 X100.491 Y108.131 E27.56243
G1 F1000 X99.767 Y107.874 E27.59969
G1 F1080 X99.076 Y107.538 E27.63419
G1 X98.527 Y107.169 E27.66389
G1 X97.959 Y106.658 E27.69819
G1 X97.475 Y106.063 E27.73263
G1 X97.087 Y105.407 E27.76685
G1 X96.801 Y104.697 E27.80122
G1 F1066.7 X96.622 Y103.958 E27.83579
G1 F1051.1 X96.617 Y103.928 E27.83719
G1 F1064 X96.443 Y104.668 E27.87184
G1 F1080 X96.16 Y105.379 E27.9062
G1 X95.776 Y106.04 E27.94053
G1 X95.295 Y106.635 E27.97488
G1 X94.812 Y107.088 E28.00461
G1 X94.188 Y107.525 E28.03882
G1 X93.497 Y107.863 E28.07336
G1 F1016.5 X92.778 Y108.117 E28.10974
G1 F1007 X92.015 Y108.214 E28.14678
G1 F1061.4 X91.251 Y108.214 E28.18168
G1 F993.1 X90.491 Y108.131 E28.21901
G1 F1000 X89.767 Y107.874 E28.25627
G1 F1080 X89.076 Y107.538 E28.29077
G1 X88.527 Y107.169 E28.32047
G1 X87.959 Y106.658 E28.35478
G1 X87.475 Y106.063 E28.38921
G1 X87.087 Y105.407 E28.42344
G1 X86.801 Y104.697 E28.45781
G1 F1066.7 X86.622 Y103.958 E28.49237
G1 F1051.1 X86.617 Y103.928 E28.49378
G0 F4800 X86.572 Y104.122
G1 F2400 E27.49378
G1 F600 Z0.8
G0 F4800 X83.672 Y108.223 Z0.8
;TYPE:WALL-INNER
G1 F600 Z0.3
G1 F2400 E28.51872
G1 F1080 X89.563 Y108.222 E28.78323
G1 X88.9 Y107.898 E28.81637
G1 X88.303 Y107.501 E28.84856
G1 X87.69 Y106.954 E28.88545
G1 X87.167 Y106.319 E28.92239
G1 X86.742 Y105.61 E28.9595
G1 X86.617 Y105.315 E28.97389
G1 X86.492 Y105.61 E28.98828
G1 X86.121 Y106.242 E29.02118
G1 X85.605 Y106.887 E29.05827
G1 X85.085 Y107.38 E29.09044
G1 X84.416 Y107.854 E29.12726
G1 X83.672 Y108.223 E29.16455
G1 F2400 E28.16455
G1 F600 Z0.8
G0 F4800 X88.067 Y107.823 Z0.8
G1 F600 Z0.3
G1 F2400 E29.18949
G1 F1080 X87.422 Y107.251 E29.2282
G1 X87.082 Y106.849 E29.25184
G1 X86.768 Y106.444 E29.27485
G1 X86.617 Y106.187 E29.28824
G1 X86.379 Y106.57 E29.30849
G1 X85.915 Y107.14 E29.34149
G1 X85.358 Y107.673 E29.3761
G1 X85.158 Y107.823 E29.38733
G1 X88.067 Y107.823 E29.51795
G1 F2400 E28.51795
G1 F600 Z0.8
G0 F4800 X93.672 Y108.223 Z0.8
G1 F600 Z0.3
G1 F2400 E29.54289
G1 F1080 X99.563 Y108.222 E29.8074
G1 X98.9 Y107.898 E29.84054
G1 X98.303 Y107.501 E29.87273
G1 X97.69 Y106.954 E29.90962
G1 X97.167 Y106.319 E29.94656
G1 X96.742 Y105.61 E29.98367
G1 X96.617 Y105.315 E29.99806
G1 X96.492 Y105.61 E30.01244
G1 X96.121 Y106.242 E30.04535
G1 X95.605 Y106.887 E30.08244
G1 X95.085 Y107.38 E30.11461
G1 X94.416 Y107.854 E30.15143
G1 X93.672 Y108.223 E30.18872
G1 F2400 E29.18872
G1 F600 Z0.8
G0 F4800 X98.067 Y107.823 Z0.8
G1 F600 Z0.3
G1 F2400 E30.21366
G1 F1080 X97.422 Y107.251 E30.25237
G1 X97.082 Y106.849 E30.27601
G1 X96.768 Y106.444 E30.29902
G1 X96.617 Y106.187 E30.31241
G1 X96.379 Y106.57 E30.33265
G1 X95.915 Y107.14 E30.36565
G1 X95.358 Y107.673 E30.40027
G1 X95.158 Y107.823 E30.4115
G1 X98.067 Y107.823 E30.54211
G1 F2400 E29.54211
G1 F600 Z0.8
G0 F4800 X96.617 Y103.928 Z0.8
;TYPE:WALL-OUTER
G1 F600 Z0.3
G1 F2400 E30.56706
G1 F1148.9 X96.618 Y103.189 E30.59825
G1 X96.618 Y102.428 E30.63037
G1 F2400 E29.63037
G1 F600 Z0.8
G0 F4800 X103.672 Y108.223 Z0.8
;TYPE:WALL-INNER
G1 F600 Z0.3
G1 F2400 E30.65531
G1 F1080 X109.563 Y108.222 E30.91983
G1 X108.9 Y107.898 E30.95296
G1 X108.303 Y107.501 E30.98515
G1 X107.69 Y106.954 E31.02204
G1 X107.167 Y106.319 E31.05898
G1 X106.742 Y105.61 E31.0961
G1 X106.617 Y105.315 E31.11048
G1 X106.492 Y105.61 E31.12487
G1 X106.121 Y106.242 E31.15777
G1 X105.605 Y106.887 E31.19486
G1 X105.085 Y107.38 E31.22704
G1 X104.416 Y107.854 E31.26385
G1 X103.672 Y108.223 E31.30114
G1 F2400 E30.30114
G1 F600 Z0.8
G0 F4800 X108.067 Y107.823 Z0.8
G1 F600 Z0.3
G1 F2400 E31.32609
G1 F1080 X107.422 Y107.251 E31.3648
G1 X107.082 Y106.849 E31.38844
G1 X106.768 Y106.444 E31.41145
G1 X106.617 Y106.187 E31.42483
G1 X106.379 Y106.57 E31.44508
G1 X105.915 Y107.14 E31.47808
G1 X105.358 Y107.673 E31.51269
G1 X105.158 Y107.823 E31.52392
G1 X108.067 Y107.823 E31.65454
G1 F2400 E30.65454
G1 F600 Z0.8
G0 F4800 X106.617 Y103.928 Z0.8
;TYPE:WALL-OUTER
G1 F600 Z0.3
G1 F2400 E31.67948
G1 F1148.9 X106.618 Y103.167 E31.7116
G1 X106.618 Y102.428 E31.74279
G1 F2400 E30.74279
G1 F600 Z0.8
G0 F4800 X113.672 Y108.223 Z0.8
;TYPE:WALL-INNER
G1 F600 Z0.3
G1 F2400 E31.76774
G1 F1080 X119.563 Y108.222 E32.03225
G1 X118.9 Y107.898 E32.06539
G1 X118.303 Y107.501 E32.09758
G1 X117.69 Y106.954 E32.13447
G1 X117.167 Y106.319 E32.1714
G1 X116.742 Y105.61 E32.20852
G1 X116.617 Y105.315 E32.22291
G1 X116.492 Y105.61 E32.23729
G1 X116.121 Y106.242 E32.2702
G1 X115.605 Y106.887 E32.30729
G1 X115.085 Y107.38 E32.33946
G1 X114.416 Y107.854 E32.37628
G1 X113.672 Y108.223 E32.41357
G1 F2400 E31.41357
G1 F600 Z0.8
G0 F4800 X118.067 Y107.823 Z0.8
G1 F600 Z0.3
G1 F2400 E32.43851
G1 F1080 X117.422 Y107.251 E32.47722
G1 X117.082 Y106.849 E32.50086
G1 X116.768 Y106.444 E32.52387
G1 X116.617 Y106.187 E32.53725
G1 X116.379 Y106.57 E32.5575
G1 X115.915 Y107.14 E32.5905
G1 X115.358 Y107.673 E32.62512
G1 X115.158 Y107.823 E32.63634
G1 X118.067 Y107.823 E32.76696
G1 F2400 E31.76696
G1 F600 Z0.8
G0 F4800 X116.617 Y103.928 Z0.8
;TYPE:WALL-OUTER
