;FLAVOR:Marlin
;TIME:9668
;Filament used: 4.0087m
;Layer height: 0.2
;MINX:83.201
;MINY:83.201
;MINZ:0.3
;MAXX:116.799
;MAXY:116.799
;MAXZ:53.4
;Generated with Cura_SteamEngine 5.0.0
M140 S70
M105
M190 S70
M104 S215
M105
M109 S215
M82 ;absolute extrusion mode
;Sliced at: Tue 07-06-2022 17:36:09
G21 ;metric values
M107
G28
M420 S1
G90 ;absolute positioning
G92 E0; reset extruder distance
G1 X0 Y0 Z5 F5000 ;move nozzle up 5mm for safe homing
G29;ABL
M500
M82 ;set extruder to absolute mode
M107 ;start with the fan off
G1 X0 Y0 Z15.0 F5000 ;move the platform down 15mm
G92 E0 ;zero the extruded length
G1 F200 E3 ;extrude 3mm of feed stock
G1 F200 E0 ;Retract
G4 S2 ;Wait for material to fall
G1 F200 E3
G92 E0 ;zero the extruded length again
M117 Printing...
G92 E0
;WIPE
G91
G1 X -20 F3000
G1 X40
G1 X-20
G90

G92 E0
G1 F2400 E-1
;LAYER_COUNT:264
;LAYER:0
M107
G1 F600 Z0.8
G0 F4800 X83.804 Y83.656 Z0.8
G1 F600 Z0.8
G0 F4800 X83.201 Y85.001
;TYPE:SKIRT
G1 F600 Z0.3
G1 F2400 E0.02495
G1 F1080 X83.241 Y84.624 E0.04197
G1 X83.359 Y84.264 E0.05898
G1 X83.549 Y83.937 E0.07596
G1 X83.804 Y83.656 E0.093
G1 X84.113 Y83.436 E0.11003
G1 X84.46 Y83.284 E0.12704
G1 X85.001 Y83.201 E0.15162
G1 X114.999 Y83.201 E1.49856
G1 X115.376 Y83.241 E1.51558
G1 X115.736 Y83.359 E1.53259
G1 X116.063 Y83.549 E1.54958
G1 X116.344 Y83.804 E1.56661
G1 X116.564 Y84.113 E1.58365
G1 X116.716 Y84.46 E1.60066
G1 X116.799 Y85.001 E1.62523
G1 X116.799 Y114.999 E2.97218
G1 X116.759 Y115.376 E2.9892
G1 X116.641 Y115.736 E3.00621
G1 X116.451 Y116.063 E3.02319
G1 X116.196 Y116.344 E3.04023
G1 X115.887 Y116.564 E3.05726
G1 X115.54 Y116.716 E3.07427
G1 X114.999 Y116.799 E3.09885
G1 X85.001 Y116.799 E4.44579
G1 X84.624 Y116.759 E4.46282
G1 X84.264 Y116.641 E4.47983
G1 X83.937 Y116.451 E4.49681
G1 X83.656 Y116.196 E4.51384
G1 X83.436 Y115.887 E4.53088
G1 X83.284 Y115.54 E4.54789
G1 X83.201 Y114.999 E4.57246
G1 X83.201 Y85.001 E5.91941
G0 F4800 X83.601 Y85.001
G1 F1080 X83.641 Y84.669 E5.93442
G1 X83.758 Y84.357 E5.94938
G1 X83.946 Y84.08 E5.96442
G1 X84.194 Y83.857 E5.97939
G1 X84.488 Y83.698 E5.9944
G1 X85.001 Y83.601 E6.01784
G1 X114.999 Y83.601 E7.36479
G1 X115.331 Y83.641 E7.3798
G1 X115.643 Y83.758 E7.39476
G1 X115.92 Y83.946 E7.4098
G1 X116.143 Y84.194 E7.42477
G1 X116.302 Y84.488 E7.43978
G1 X116.399 Y85.001 E7.46322
G1 X116.399 Y114.999 E8.81017
G1 X116.359 Y115.331 E8.82518
G1 X116.242 Y115.643 E8.84014
G1 X116.054 Y115.92 E8.85518
G1 X115.806 Y116.143 E8.87015
G1 X115.512 Y116.302 E8.88516
G1 X114.999 Y116.399 E8.9086
G1 X85.001 Y116.399 E10.25555
G1 X84.669 Y116.359 E10.27056
G1 X84.357 Y116.242 E10.28552
G1 X84.08 Y116.054 E10.30056
G1 X83.857 Y115.806 E10.31553
G1 X83.698 Y115.512 E10.33054
G1 X83.601 Y114.999 E10.35398
G1 X83.601 Y85.001 E11.70093
G0 F4800 X84.001 Y85.001
G1 F1080 X84.041 Y84.722 E11.71358
G1 X84.157 Y84.465 E11.72624
G1 X84.34 Y84.25 E11.73892
G1 X84.576 Y84.096 E11.75157
G1 X85.001 Y84.001 E11.77113
G1 X114.999 Y84.001 E13.11807
G1 X115.278 Y84.041 E13.13073
G1 X115.535 Y84.157 E13.14339
G1 X115.75 Y84.34 E13.15607
G1 X115.904 Y84.576 E13.16872
G1 X115.999 Y85.001 E13.18827
G1 X115.999 Y114.999 E14.53522
G1 X115.959 Y115.278 E14.54787
G1 X115.843 Y115.535 E14.56054
G1 X115.66 Y115.75 E14.57321
G1 X115.424 Y115.904 E14.58587
G1 X114.999 Y115.999 E14.60542
G1 X85.001 Y115.999 E15.95237
G1 X84.722 Y115.959 E15.96502
G1 X84.465 Y115.843 E15.97768
G1 X84.25 Y115.66 E15.99036
G1 X84.096 Y115.424 E16.00301
G1 X84.001 Y114.999 E16.02257
G1 X84.001 Y85.001 E17.36951
G0 F4800 X84.401 Y85.001
G1 F1080 X84.441 Y84.786 E17.37933
G1 X84.554 Y84.6 E17.3891
G1 X84.727 Y84.467 E17.3989
G1 X85.001 Y84.401 E17.41156
G1 X114.999 Y84.401 E18.7585
G1 X115.214 Y84.441 E18.76832
G1 X115.4 Y84.554 E18.77809
G1 X115.533 Y84.727 E18.78789
G1 X115.599 Y85.001 E18.80055
G1 X115.599 Y114.999 E20.14749
G1 X115.559 Y115.214 E20.15731
G1 X115.446 Y115.4 E20.16708
G1 X115.273 Y115.533 E20.17688
G1 X114.999 Y115.599 E20.18954
G1 X85.001 Y115.599 E21.53648
G1 X84.786 Y115.559 E21.5463
G1 X84.6 Y115.446 E21.55607
G1 X84.467 Y115.273 E21.56587
G1 X84.401 Y114.999 E21.57853
G1 X84.401 Y85.001 E22.92547
G0 F4800 X84.801 Y85.001
G1 F1080 X84.84 Y84.882 E22.9311
G1 X85.001 Y84.801 E22.93919
G1 X114.999 Y84.801 E24.28613
G1 X115.118 Y84.84 E24.29176
G1 X115.199 Y85.001 E24.29985
G1 X115.199 Y114.999 E25.64679
G1 X115.16 Y115.118 E25.65242
G1 X114.999 Y115.199 E25.66051
G1 X85.001 Y115.199 E27.00746
G1 X84.882 Y115.16 E27.01308
G1 X84.801 Y114.999 E27.02117
G1 X84.801 Y85.001 E28.36812
;MESH:Z_Wobble_Test.stl
G0 F4800 X85.201 Y85.201
;TYPE:WALL-OUTER
G1 F1080 X85.201 Y114.799 E29.6971
G1 X114.799 Y114.799 E31.02609
G1 X114.799 Y100 E31.69058
G1 X114.799 Y85.201 E32.35507
G1 X85.201 Y85.201 E33.68406
G0 F4800 X85.201 Y85.401
G0 X85.601 Y85.601
;TYPE:WALL-INNER
G1 F1080 X85.601 Y114.399 E34.97712
G1 X114.399 Y114.399 E36.27019
G1 X114.399 Y100 E36.91672
G1 X114.399 Y85.601 E37.56325
G1 X85.601 Y85.601 E38.85631
G0 F4800 X86.001 Y86.001
G1 F1080 X86.001 Y113.999 E40.11346
G1 X113.999 Y113.999 E41.3706
G1 X113.999 Y100 E41.99917
G1 X113.999 Y86.001 E42.62774
G1 X86.001 Y86.001 E43.88489
G0 F4800 X86.261 Y86.261
;TYPE:SKIN
G1 F1080 X86.261 Y113.739 E45.11868
G1 X113.739 Y113.739 E46.35248
G1 X113.739 Y100 E46.96937
G1 X113.739 Y86.261 E47.58627
G1 X86.261 Y86.261 E48.82007
G0 F4800 X86.661 Y86.661
G1 F1080 X86.661 Y113.339 E50.01794
G1 X113.339 Y113.339 E51.21581
G1 X113.339 Y100 E51.81475
G1 X113.339 Y86.661 E52.41369
G1 X86.661 Y86.661 E53.61156
G1 F2400 E52.61156
G1 F600 Z0.8
G0 F4800 X112.882 Y86.86 Z0.8
G1 F600 Z0.3
G1 F2400 E53.63651
G1 F1080 X113.138 Y87.116 E53.65276
G0 F4800 X113.138 Y87.682
G1 F1080 X112.316 Y86.86 E53.70496
G0 F4800 X111.751 Y86.86
G1 F1080 X113.138 Y88.248 E53.79306
G0 F4800 X113.138 Y88.814
G1 F1080 X111.185 Y86.86 E53.91711
G0 F4800 X110.619 Y86.86
G1 F1080 X113.138 Y89.379 E54.07707
G0 F4800 X113.138 Y89.945
G1 F1080 X110.054 Y86.86 E54.27293
G0 F4800 X109.488 Y86.86
G1 F1080 X113.138 Y90.511 E54.50474
G0 F4800 X113.138 Y91.076
G1 F1080 X108.922 Y86.86 E54.77245
G0 F4800 X108.357 Y86.86
G1 F1080 X113.138 Y91.642 E55.07608
G0 F4800 X113.138 Y92.208
G1 F1080 X107.791 Y86.86 E55.41564
G0 F4800 X107.225 Y86.86
G1 F1080 X113.138 Y92.773 E55.79112
G0 F4800 X113.138 Y93.339
G1 F1080 X106.659 Y86.86 E56.20254
G0 F4800 X106.094 Y86.86
G1 F1080 X113.138 Y93.905 E56.64986
G0 F4800 X113.138 Y94.47
G1 F1080 X105.528 Y86.86 E57.13309
G0 F4800 X104.962 Y86.86
G1 F1080 X113.138 Y95.036 E57.65227
G0 F4800 X113.138 Y95.602
G1 F1080 X104.397 Y86.86 E58.20735
G0 F4800 X103.831 Y86.86
G1 F1080 X113.138 Y96.167 E58.79835
G0 F4800 X113.138 Y96.733
G1 F1080 X103.265 Y86.86 E59.42528
G0 F4800 X102.7 Y86.86
G1 F1080 X113.138 Y97.299 E60.08812
G0 F4800 X113.138 Y97.864
G1 F1080 X102.134 Y86.86 E60.78688
G0 F4800 X101.568 Y86.86
G1 F1080 X113.138 Y98.43 E61.52157
G0 F4800 X113.138 Y98.996
G1 F1080 X101.003 Y86.86 E62.29217
G0 F4800 X100.437 Y86.86
G1 F1080 X113.138 Y99.562 E63.09872
G0 F4800 X113.138 Y100.127
G1 F1080 X99.871 Y86.86 E63.94117
G0 F4800 X99.306 Y86.86
G1 F1080 X113.138 Y100.693 E64.81953
G0 F4800 X113.138 Y101.259
G1 F1080 X98.74 Y86.86 E65.73383
G0 F4800 X98.174 Y86.86
G1 F1080 X113.138 Y101.824 E66.68404
G0 F4800 X113.138 Y102.39
G1 F1080 X97.609 Y86.86 E67.67017
G0 F4800 X97.043 Y86.86
G1 F1080 X113.138 Y102.956 E68.69223
G0 F4800 X113.138 Y103.521
G1 F1080 X96.477 Y86.86 E69.7502
G0 F4800 X95.911 Y86.86
G1 F1080 X113.138 Y104.087 E70.84411
G0 F4800 X113.138 Y104.653
G1 F1080 X95.346 Y86.86 E71.97393
G0 F4800 X94.78 Y86.86
G1 F1080 X113.138 Y105.218 E73.13966
G0 F4800 X113.138 Y105.784
G1 F1080 X94.214 Y86.86 E74.34133
G0 F4800 X93.649 Y86.86
G1 F1080 X113.138 Y106.35 E75.57891
G0 F4800 X113.138 Y106.915
G1 F1080 X93.083 Y86.86 E76.8524
G0 F4800 X92.517 Y86.86
G1 F1080 X113.138 Y107.481 E78.16183
G0 F4800 X113.138 Y108.047
G1 F1080 X91.952 Y86.86 E79.50717
G0 F4800 X91.386 Y86.86
G1 F1080 X113.138 Y108.613 E80.88846
G0 F4800 X113.138 Y109.178
G1 F1080 X90.82 Y86.86 E82.30565
G0 F4800 X90.255 Y86.86
G1 F1080 X113.138 Y109.744 E83.75874
G0 F4800 X113.138 Y110.31
G1 F1080 X89.689 Y86.86 E85.24778
G0 F4800 X89.123 Y86.86
G1 F1080 X113.138 Y110.875 E86.77273
G0 F4800 X113.138 Y111.441
G1 F1080 X88.558 Y86.86 E88.33359
G0 F4800 X87.992 Y86.86
G1 F1080 X113.138 Y112.007 E89.93039
G0 F4800 X113.138 Y112.572
G1 F1080 X87.426 Y86.86 E91.5631
G0 F4800 X86.86 Y86.86
G1 F1080 X113.138 Y113.138 E93.23175
G0 F4800 X112.572 Y113.138
G1 F1080 X86.86 Y87.426 E94.86446
G0 F4800 X86.86 Y87.992
G1 F1080 X112.007 Y113.138 E96.46126
G0 F4800 X111.441 Y113.138
G1 F1080 X86.86 Y88.558 E98.02211
G0 F4800 X86.86 Y89.123
G1 F1080 X110.875 Y113.138 E99.54706
G0 F4800 X110.31 Y113.138
G1 F1080 X86.86 Y89.689 E101.0361
G0 F4800 X86.86 Y90.255
G1 F1080 X109.744 Y113.138 E102.4892
G0 F4800 X109.178 Y113.138
G1 F1080 X86.86 Y90.82 E103.90639
G0 F4800 X86.86 Y91.386
G1 F1080 X108.613 Y113.138 E105.28767
G0 F4800 X108.047 Y113.138
G1 F1080 X86.86 Y91.952 E106.63301
G0 F4800 X86.86 Y92.517
G1 F1080 X107.481 Y113.138 E107.94244
G0 F4800 X106.915 Y113.138
G1 F1080 X86.86 Y93.083 E109.21593
G0 F4800 X86.86 Y93.649
G1 F1080 X106.35 Y113.138 E110.45351
G0 F4800 X105.784 Y113.138
G1 F1080 X86.86 Y94.214 E111.65519
G0 F4800 X86.86 Y94.78
G1 F1080 X105.218 Y113.138 E112.82092
G0 F4800 X104.653 Y113.138
G1 F1080 X86.86 Y95.346 E113.95074
G0 F4800 X86.86 Y95.911
G1 F1080 X104.087 Y113.138 E115.04465
G0 F4800 X103.521 Y113.138
G1 F1080 X86.86 Y96.477 E116.10262
G0 F4800 X86.86 Y97.043
G1 F1080 X102.956 Y113.138 E117.12468
G0 F4800 X102.39 Y113.138
G1 F1080 X86.86 Y97.609 E118.1108
G0 F4800 X86.86 Y98.174
G1 F1080 X101.824 Y113.138 E119.06102
G0 F4800 X101.259 Y113.138
G1 F1080 X86.86 Y98.74 E119.97532
G0 F4800 X86.86 Y99.306
G1 F1080 X100.693 Y113.138 E120.85368
G0 F4800 X100.127 Y113.138
G1 F1080 X86.86 Y99.871 E121.69613
G0 F4800 X86.86 Y100.437
G1 F1080 X99.562 Y113.138 E122.50268
G0 F4800 X98.996 Y113.138
G1 F1080 X86.86 Y101.003 E123.27328
G0 F4800 X86.86 Y101.568
G1 F1080 X98.43 Y113.138 E124.00797
G0 F4800 X97.864 Y113.138
G1 F1080 X86.86 Y102.134 E124.70673
G0 F4800 X86.86 Y102.7
M104 S205
G1 F1080 X97.299 Y113.138 E125.36957
G0 F4800 X96.733 Y113.138
G1 F1080 X86.86 Y103.265 E125.9965
G0 F4800 X86.86 Y103.831
G1 F1080 X96.167 Y113.138 E126.5875
G0 F4800 X95.602 Y113.138
G1 F1080 X86.86 Y104.397 E127.14258
G0 F4800 X86.86 Y104.962
G1 F1080 X95.036 Y113.138 E127.66175
G0 F4800 X94.47 Y113.138
G1 F1080 X86.86 Y105.528 E128.14499
G0 F4800 X86.86 Y106.094
G1 F1080 X93.905 Y113.138 E128.59231
G0 F4800 X93.339 Y113.138
G1 F1080 X86.86 Y106.659 E129.00373
G0 F4800 X86.86 Y107.225
G1 F1080 X92.773 Y113.138 E129.3792
G0 F4800 X92.208 Y113.138
G1 F1080 X86.86 Y107.791 E129.71877
G0 F4800 X86.86 Y108.357
G1 F1080 X91.642 Y113.138 E130.02239
G0 F4800 X91.076 Y113.138
G1 F1080 X86.86 Y108.922 E130.29011
G0 F4800 X86.86 Y109.488
G1 F1080 X90.511 Y113.138 E130.52192
G0 F4800 X89.945 Y113.138
G1 F1080 X86.86 Y110.054 E130.71778
G0 F4800 X86.86 Y110.619
G1 F1080 X89.379 Y113.138 E130.87774
G0 F4800 X88.814 Y113.138
G1 F1080 X86.86 Y111.185 E131.00178
G0 F4800 X86.86 Y111.751
G1 F1080 X88.248 Y113.138 E131.08989
G0 F4800 X87.682 Y113.138
G1 F1080 X86.86 Y112.316 E131.14209
G0 F4800 X86.86 Y112.882
G1 F1080 X87.116 Y113.138 E131.15834
G1 F2400 E130.15834
G1 F600 Z0.8
;MESH:NONMESH
G0 F4800 X85.201 Y85.201 Z0.8
;TIME_ELAPSED:172.735383
;LAYER:1
M140 S60
M106 S255
;MESH:Z_Wobble_Test.stl
G0 F5400 X85.201 Y85.201 Z1
;TYPE:WALL-OUTER
G1 F600 Z0.5
G1 F2400 E131.18329
G1 F1170 X85.201 Y114.799 E132.06928
G1 X100 Y114.799 E132.51227
G1 X114.799 Y114.799 E132.95527
G1 X114.799 Y85.201 E133.84126
G1 X85.201 Y85.201 E134.72725
G0 F5400 X85.201 Y85.401
G0 X85.601 Y85.601
;TYPE:WALL-INNER
G1 F1470 X85.601 Y114.399 E135.58929
G1 X100 Y114.399 E136.02031
G1 X114.399 Y114.399 E136.45133
G1 X114.399 Y85.601 E137.31338
G1 X85.601 Y85.601 E138.17542
G0 F5400 X86.001 Y86.001
G1 F1470 X86.001 Y113.999 E139.01352
G1 X100 Y113.999 E139.43256
G1 X113.999 Y113.999 E139.85161
G1 X113.999 Y86.001 E140.68971
G1 X86.001 Y86.001 E141.5278
G0 F5400 X86.261 Y86.261
;TYPE:SKIN
G1 F1440 X86.261 Y113.739 E142.35033
G1 X113.739 Y113.739 E143.17286
G1 X113.739 Y100 E143.58413
G1 X113.739 Y86.261 E143.99539
G1 X86.261 Y86.261 E144.81792
G0 F5400 X86.661 Y86.661
G1 F1440 X86.661 Y113.339 E145.6165
G1 X113.339 Y113.339 E146.41509
G1 X113.339 Y100 E146.81438
G1 X113.339 Y86.661 E147.21367
G1 X86.661 Y86.661 E148.01225
G0 F5400 X87.37 Y86.86
G1 F1440 X86.86 Y87.37 E148.03384
G0 F5400 X86.86 Y87.935
G1 F1440 X87.935 Y86.86 E148.07935
G0 F5400 X88.501 Y86.86
G1 F1440 X86.86 Y88.501 E148.14882
G0 F5400 X86.86 Y89.067
G1 F1440 X89.067 Y86.86 E148.24225
G0 F5400 X89.632 Y86.86
G1 F1440 X86.86 Y89.632 E148.3596
G0 F5400 X86.86 Y90.198
G1 F1440 X90.198 Y86.86 E148.5009
G0 F5400 X90.764 Y86.86
G1 F1440 X86.86 Y90.764 E148.66617
G0 F5400 X86.86 Y91.329
G1 F1440 X91.329 Y86.86 E148.85536
G0 F5400 X91.895 Y86.86
G1 F1440 X86.86 Y91.895 E149.06851
G0 F5400 X86.86 Y92.461
G1 F1440 X92.461 Y86.86 E149.30562
G0 F5400 X93.026 Y86.86
G1 F1440 X86.86 Y93.026 E149.56664
G0 F5400 X86.86 Y93.592
G1 F1440 X93.592 Y86.86 E149.85163
G0 F5400 X94.158 Y86.86
G1 F1440 X86.86 Y94.158 E150.16058
G0 F5400 X86.86 Y94.724
G1 F1440 X94.724 Y86.86 E150.49349
G0 F5400 X95.289 Y86.86
G1 F1440 X86.86 Y95.289 E150.85031
G0 F5400 X86.86 Y95.855
G1 F1440 X95.855 Y86.86 E151.2311
G0 F5400 X96.421 Y86.86
G1 F1440 X86.86 Y96.421 E151.63585
G0 F5400 X86.86 Y96.986
G1 F1440 X96.986 Y86.86 E152.06452
G0 F5400 X97.552 Y86.86
G1 F1440 X86.86 Y97.552 E152.51714
G0 F5400 X86.86 Y98.118
G1 F1440 X98.118 Y86.86 E152.99373
G0 F5400 X98.683 Y86.86
G1 F1440 X86.86 Y98.683 E153.49424
G0 F5400 X86.86 Y99.249
G1 F1440 X99.249 Y86.86 E154.0187
G0 F5400 X99.815 Y86.86
G1 F1440 X86.86 Y99.815 E154.56713
G0 F5400 X86.86 Y100.38
G1 F1440 X100.38 Y86.86 E155.13948
G0 F5400 X100.946 Y86.86
G1 F1440 X86.86 Y100.946 E155.73578
G0 F5400 X86.86 Y101.512
G1 F1440 X101.512 Y86.86 E156.35605
G0 F5400 X102.077 Y86.86
G1 F1440 X86.86 Y102.077 E157.00023
G0 F5400 X86.86 Y102.643
G1 F1440 X102.643 Y86.86 E157.66838
G0 F5400 X103.209 Y86.86
G1 F1440 X86.86 Y103.209 E158.36048
G0 F5400 X86.86 Y103.774
G1 F1440 X103.774 Y86.86 E159.07651
G0 F5400 X104.34 Y86.86
G1 F1440 X86.86 Y104.34 E159.81649
G0 F5400 X86.86 Y104.906
G1 F1440 X104.906 Y86.86 E160.58044
G0 F5400 X105.472 Y86.86
G1 F1440 X86.86 Y105.472 E161.36835
G0 F5400 X86.86 Y106.037
G1 F1440 X106.037 Y86.86 E162.18017
G0 F5400 X106.603 Y86.86
G1 F1440 X86.86 Y106.603 E163.01596
G0 F5400 X86.86 Y107.169
G1 F1440 X107.169 Y86.86 E163.8757
G0 F5400 X107.734 Y86.86
G1 F1440 X86.86 Y107.734 E164.75937
G0 F5400 X86.86 Y108.3
G1 F1440 X108.3 Y86.86 E165.66699
G0 F5400 X108.866 Y86.86
G1 F1440 X86.86 Y108.866 E166.59858
G0 F5400 X86.86 Y109.431
G1 F1440 X109.431 Y86.86 E167.55408
G0 F5400 X109.997 Y86.86
G1 F1440 X86.86 Y109.997 E168.53354
G0 F5400 X86.86 Y110.563
G1 F1440 X110.563 Y86.86 E169.53697
G0 F5400 X111.128 Y86.86
G1 F1440 X86.86 Y111.128 E170.56431
G0 F5400 X86.86 Y111.694
G1 F1440 X111.694 Y86.86 E171.61561
G0 F5400 X112.26 Y86.86
G1 F1440 X86.86 Y112.26 E172.69088
G0 F5400 X86.86 Y112.825
G1 F1440 X112.825 Y86.86 E173.79006
G0 F5400 X113.138 Y87.114
G1 F1440 X87.114 Y113.138 E174.89174
G0 F5400 X87.679 Y113.138
G1 F1440 X113.138 Y87.679 E175.9695
G0 F5400 X113.138 Y88.245
G1 F1440 X88.245 Y113.138 E177.02331
G0 F5400 X88.811 Y113.138
G1 F1440 X113.138 Y88.811 E178.05315
G0 F5400 X113.138 Y89.376
G1 F1440 X89.376 Y113.138 E179.05907
G0 F5400 X89.942 Y113.138
G1 F1440 X113.138 Y89.942 E180.04103
G0 F5400 X113.138 Y90.508
G1 F1440 X90.508 Y113.138 E180.99903
G0 F5400 X91.073 Y113.138
G1 F1440 X113.138 Y91.073 E181.93311
G0 F5400 X113.138 Y91.639
G1 F1440 X91.639 Y113.138 E182.84324
G0 F5400 X92.205 Y113.138
G1 F1440 X113.138 Y92.205 E183.7294
G0 F5400 X113.138 Y92.77
G1 F1440 X92.77 Y113.138 E184.59164
G0 F5400 X93.336 Y113.138
G1 F1440 X113.138 Y93.336 E185.42993
G0 F5400 X113.138 Y93.902
G1 F1440 X93.902 Y113.138 E186.24425
G0 F5400 X94.468 Y113.138
