;FLAVOR:Marlin
;TIME:5034
;Filament used: 1.8549m
;Layer height: 0.2
;MINX:73.55
;MINY:73.55
;MINZ:0.3
;MAXX:126.45
;MAXY:126.45
;MAXZ:16.6
;Generated with Cura_SteamEngine 5.0.0
M140 S70
M105
M190 S70
M104 S215
M105
M109 S215
M82 ;absolute extrusion mode
;Sliced at: Tue 07-06-2022 17:35:52
G21 ;metric values
M107
G28
M420 S1
G90 ;absolute positioning
G92 E0; reset extruder distance
G1 X0 Y0 Z5 F5000 ;move nozzle up 5mm for safe homing
G29;ABL
M500
M82 ;set extruder to absolute mode
M107 ;start with the fan off
G1 X0 Y0 Z15.0 F5000 ;move the platform down 15mm
G92 E0 ;zero the extruded length
G1 F200 E3 ;extrude 3mm of feed stock
G1 F200 E0 ;Retract
G4 S2 ;Wait for material to fall
G1 F200 E3
G92 E0 ;zero the extruded length again
M117 Printing...
G92 E0
;WIPE
G91
G1 X -20 F3000
G1 X40
G1 X-20
G90

G92 E0
G1 F2400 E-1
;LAYER_COUNT:80
;LAYER:0
M107
G1 F600 Z0.8
G0 F4800 X74.153 Y74.005 Z0.8
G1 F600 Z0.8
G0 F4800 X73.55 Y75.35
;TYPE:SKIRT
G1 F600 Z0.3
G1 F2400 E0.02495
G1 F1080 X73.59 Y74.973 E0.04197
G1 X73.708 Y74.613 E0.05898
G1 X73.898 Y74.286 E0.07596
G1 X74.153 Y74.005 E0.093
G1 X74.462 Y73.785 E0.11003
G1 X74.809 Y73.633 E0.12704
G1 X75.35 Y73.55 E0.15162
G1 X124.65 Y73.55 E2.36524
G1 X125.027 Y73.59 E2.38227
G1 X125.387 Y73.708 E2.39928
G1 X125.714 Y73.898 E2.41626
G1 X125.995 Y74.153 E2.4333
G1 X126.215 Y74.462 E2.45033
G1 X126.367 Y74.809 E2.46734
G1 X126.45 Y75.35 E2.49191
G1 X126.45 Y124.65 E4.70554
G1 X126.41 Y125.027 E4.72256
G1 X126.292 Y125.387 E4.73958
G1 X126.102 Y125.714 E4.75656
G1 X125.847 Y125.995 E4.77359
G1 X125.538 Y126.215 E4.79063
G1 X125.191 Y126.367 E4.80764
G1 X124.65 Y126.45 E4.83221
G1 X75.35 Y126.45 E7.04584
G1 X74.973 Y126.41 E7.06286
G1 X74.613 Y126.292 E7.07987
G1 X74.286 Y126.102 E7.09685
G1 X74.005 Y125.847 E7.11389
G1 X73.785 Y125.538 E7.13092
G1 X73.633 Y125.191 E7.14793
G1 X73.55 Y124.65 E7.17251
G1 X73.55 Y75.35 E9.38614
G0 F4800 X73.95 Y75.35
G1 F1080 X73.99 Y75.018 E9.40115
G1 X74.107 Y74.706 E9.41612
G1 X74.295 Y74.429 E9.43115
G1 X74.543 Y74.206 E9.44612
G1 X74.837 Y74.047 E9.46113
G1 X75.35 Y73.95 E9.48457
G1 X124.65 Y73.95 E11.6982
G1 X124.982 Y73.99 E11.71322
G1 X125.294 Y74.107 E11.72818
G1 X125.571 Y74.295 E11.74321
G1 X125.794 Y74.543 E11.75818
G1 X125.953 Y74.837 E11.77319
G1 X126.05 Y75.35 E11.79663
G1 X126.05 Y124.65 E14.01026
G1 X126.01 Y124.982 E14.02528
G1 X125.893 Y125.294 E14.04024
G1 X125.705 Y125.571 E14.05527
G1 X125.457 Y125.794 E14.07025
G1 X125.163 Y125.953 E14.08525
G1 X124.65 Y126.05 E14.1087
G1 X75.35 Y126.05 E16.32233
G1 X75.018 Y126.01 E16.33734
G1 X74.706 Y125.893 E16.3523
G1 X74.429 Y125.705 E16.36733
G1 X74.206 Y125.457 E16.38231
G1 X74.047 Y125.163 E16.39732
G1 X73.95 Y124.65 E16.42076
G1 X73.95 Y75.35 E18.63439
G0 F4800 X74.35 Y75.35
G1 F1080 X74.39 Y75.071 E18.64704
G1 X74.506 Y74.814 E18.6597
G1 X74.689 Y74.599 E18.67238
G1 X74.925 Y74.445 E18.68503
G1 X75.35 Y74.35 E18.70459
G1 X124.65 Y74.35 E20.91822
G1 X124.929 Y74.39 E20.93087
G1 X125.186 Y74.506 E20.94353
G1 X125.401 Y74.689 E20.95621
G1 X125.555 Y74.925 E20.96886
G1 X125.65 Y75.35 E20.98842
G1 X125.65 Y124.65 E23.20205
G1 X125.61 Y124.929 E23.2147
G1 X125.494 Y125.186 E23.22736
G1 X125.311 Y125.401 E23.24004
G1 X125.075 Y125.555 E23.25269
G1 X124.65 Y125.65 E23.27225
G1 X75.35 Y125.65 E25.48587
G1 X75.071 Y125.61 E25.49853
G1 X74.814 Y125.494 E25.51119
G1 X74.599 Y125.311 E25.52387
G1 X74.445 Y125.075 E25.53652
G1 X74.35 Y124.65 E25.55607
G1 X74.35 Y75.35 E27.7697
G0 F4800 X74.75 Y75.35
G1 F1080 X74.79 Y75.135 E27.77952
G1 X74.903 Y74.949 E27.78929
G1 X75.076 Y74.816 E27.79909
G1 X75.35 Y74.75 E27.81175
G1 X124.65 Y74.75 E30.02538
G1 X124.865 Y74.79 E30.0352
G1 X125.051 Y74.903 E30.04497
G1 X125.184 Y75.076 E30.05477
G1 X125.25 Y75.35 E30.06742
G1 X125.25 Y124.65 E32.28105
G1 X125.21 Y124.865 E32.29087
G1 X125.097 Y125.051 E32.30064
G1 X124.924 Y125.184 E32.31044
G1 X124.65 Y125.25 E32.32309
G1 X75.35 Y125.25 E34.53672
G1 X75.135 Y125.21 E34.54654
G1 X74.949 Y125.097 E34.55631
G1 X74.816 Y124.924 E34.56611
G1 X74.75 Y124.65 E34.57877
G1 X74.75 Y75.35 E36.79239
G0 F4800 X75.15 Y75.35
G1 F1080 X75.189 Y75.231 E36.79802
G1 X75.35 Y75.15 E36.80611
G1 X124.65 Y75.15 E39.01974
G1 X124.769 Y75.189 E39.02536
G1 X124.85 Y75.35 E39.03345
G1 X124.85 Y124.65 E41.24708
G1 X124.811 Y124.769 E41.2527
G1 X124.65 Y124.85 E41.2608
G1 X75.35 Y124.85 E43.47442
G1 X75.231 Y124.811 E43.48005
G1 X75.15 Y124.65 E43.48814
G1 X75.15 Y75.35 E45.70177
;MESH:XY_resonance_1.0mm_walls.stl
G0 F4800 X75.551 Y75.551
;TYPE:WALL-OUTER
G1 F1080 X75.55 Y118.197 E47.61662
G1 X75.551 Y124.449 E47.89735
G1 X124.45 Y124.45 E50.09297
G1 X124.45 Y81.003 E52.04379
G1 X124.45 Y75.55 E52.28864
G1 X75.551 Y75.551 E54.48426
G0 F4800 X75.551 Y75.751
G0 X75.951 Y75.951
;TYPE:WALL-INNER
G1 F1080 X75.95 Y118.197 E56.38116
G1 X75.951 Y124.049 E56.64392
G1 X124.05 Y124.05 E58.80362
G1 X124.05 Y81.003 E60.73648
G1 X124.05 Y75.95 E60.96337
G1 X75.951 Y75.951 E63.12307
G0 F4800 X76.351 Y76.351
G1 F1080 X76.35 Y118.197 E65.002
G1 X76.351 Y123.649 E65.2468
G1 X123.65 Y123.65 E67.37059
G1 X123.65 Y81.003 E69.28549
G1 X123.65 Y76.35 E69.49441
G1 X76.351 Y76.351 E71.61819
G1 F2400 E70.61819
G1 F600 Z0.8
G0 F4800 X115.033 Y115.198 Z0.8
;TYPE:WALL-OUTER
G1 F600 Z0.3
G1 F2400 E71.64314
G1 F1080 X115 Y115.2 E71.64462
G1 X85 Y115.2 E72.99166
G1 X84.858 Y115.142 E72.99854
G1 X84.8 Y115 E73.00543
G1 X84.8 Y85 E74.35247
G1 X84.858 Y84.858 E74.35935
G1 X85 Y84.8 E74.36624
G1 X115 Y84.8 E75.71328
G1 X115.142 Y84.858 E75.72016
G1 X115.2 Y85 E75.72705
G1 X115.2 Y115 E77.07409
G1 X115.142 Y115.142 E77.08097
G1 X115.033 Y115.198 E77.08648
G0 F4800 X115 Y115.2
G0 X114.833 Y115.2
G1 F2400 E76.08648
G1 F600 Z0.8
G0 F4800 X84.4 Y85 Z0.8
;TYPE:WALL-INNER
G1 F600 Z0.3
G1 F2400 E77.11142
G1 F1080 X84.469 Y84.719 E77.12441
G1 X84.641 Y84.518 E77.13629
G1 X84.901 Y84.408 E77.14897
G1 X85 Y84.4 E77.15343
G1 X115 Y84.4 E78.50046
G1 X115.281 Y84.469 E78.51346
G1 X115.482 Y84.641 E78.52533
G1 X115.592 Y84.901 E78.53801
G1 X115.6 Y85 E78.54247
G1 X115.6 Y115 E79.88951
G1 X115.531 Y115.281 E79.9025
G1 X115.359 Y115.482 E79.91438
G1 X115.099 Y115.592 E79.92705
G1 X115 Y115.6 E79.93151
G1 X85 Y115.6 E81.27855
G1 X84.719 Y115.531 E81.29154
G1 X84.518 Y115.359 E81.30342
G1 X84.408 Y115.099 E81.31609
G1 X84.4 Y115 E81.32055
G1 X84.4 Y85 E82.66759
G1 F2400 E81.66759
G1 F600 Z0.8
G0 F4800 X84.197 Y115.598 Z0.8
G1 F600 Z0.3
G1 F2400 E82.69253
G1 F1080 X84.053 Y115.323 E82.70647
G1 X84 Y115 E82.72117
G1 X84 Y85 E84.06821
G1 X84.053 Y84.677 E84.0829
G1 X84.197 Y84.402 E84.09684
G1 X84.402 Y84.197 E84.10986
G1 X84.677 Y84.053 E84.1238
G1 X85 Y84 E84.13849
G1 X115 Y84 E85.48553
G1 X115.323 Y84.053 E85.50023
G1 X115.598 Y84.197 E85.51416
G1 X115.803 Y84.402 E85.52718
G1 X115.947 Y84.677 E85.54112
G1 X116 Y85 E85.55582
G1 X116 Y115 E86.90285
G1 X115.947 Y115.323 E86.91755
G1 X115.803 Y115.598 E86.93149
G1 X115.598 Y115.803 E86.94451
G1 X115.323 Y115.947 E86.95844
G1 X115.165 Y115.987 E86.96576
G1 X115 Y116 E86.97319
G1 X85 Y116 E88.32023
G1 X84.677 Y115.947 E88.33493
G1 X84.402 Y115.803 E88.34886
G1 X84.197 Y115.598 E88.36188
G1 F2400 E87.36188
G1 F600 Z0.8
G0 F4800 X84.007 Y84.226 Z0.8
;TYPE:SKIN
G1 F600 Z0.3
G1 F2400 E88.38683
G1 F1080 X84.274 Y83.972 E88.40337
G1 X84.623 Y83.799 E88.42086
G1 X85.013 Y83.74 E88.43857
G1 X114.989 Y83.74 E89.78453
G1 X115.44 Y83.82 E89.8051
G1 X115.774 Y84.007 E89.82229
G1 X116.028 Y84.274 E89.83883
G1 X116.201 Y84.622 E89.85628
G1 X116.26 Y85.011 E89.87395
G1 X116.26 Y114.989 E91.22
G1 X116.18 Y115.439 E91.24052
G1 X115.993 Y115.774 E91.25775
G1 X115.726 Y116.028 E91.27429
G1 X115.377 Y116.201 E91.29178
G1 X114.987 Y116.26 E91.30949
G1 X85.011 Y116.26 E92.65545
G1 X84.56 Y116.18 E92.67602
G1 X84.226 Y115.993 E92.69321
G1 X83.972 Y115.726 E92.70975
G1 X83.799 Y115.377 E92.72724
G1 X83.74 Y114.989 E92.74486
G1 X83.74 Y85.011 E94.09091
G1 X83.82 Y84.56 E94.11148
G1 X84.007 Y84.226 E94.12867
G0 F4800 X83.667 Y84.009
G1 F1080 X84.009 Y83.667 E94.15038
G1 X84.463 Y83.428 E94.17342
G1 X85.013 Y83.34 E94.19843
G1 X114.989 Y83.34 E95.54439
G1 X115.538 Y83.428 E95.56935
G1 X115.991 Y83.667 E95.59235
G1 X116.333 Y84.009 E95.61407
G1 X116.572 Y84.461 E95.63703
G1 X116.66 Y85.011 E95.66204
G1 X116.66 Y114.989 E97.00808
G1 X116.573 Y115.537 E97.033
G1 X116.333 Y115.991 E97.05606
G1 X115.991 Y116.333 E97.07777
G1 X115.537 Y116.572 E97.10081
G1 X114.987 Y116.66 E97.12582
G1 X85.011 Y116.66 E98.47178
G1 X84.461 Y116.572 E98.49679
G1 X84.009 Y116.333 E98.51975
G1 X83.667 Y115.991 E98.54146
G1 X83.428 Y115.537 E98.5645
G1 X83.34 Y114.989 E98.58942
G1 X83.34 Y85.011 E99.93547
G1 X83.428 Y84.461 E99.96048
G1 X83.667 Y84.009 E99.98344
G1 F2400 E98.98344
G1 F600 Z0.8
G0 F4800 X76.612 Y76.612 Z0.8
G1 F600 Z0.3
G1 F2400 E100.00838
G1 F1080 X76.612 Y123.388 E102.10868
G1 X123.39 Y123.39 E104.20907
G1 X123.39 Y81.008 E106.11207
G1 X123.39 Y76.61 E106.30954
G1 X81.008 Y76.611 E108.21255
G1 X76.612 Y76.612 E108.40993
G0 F4800 X77.012 Y77.012
G1 F1080 X77.012 Y122.988 E110.47431
G1 X122.99 Y122.99 E112.53877
G1 X122.99 Y81.008 E114.42382
G1 X122.99 Y77.01 E114.60333
G1 X81.008 Y77.011 E116.48837
G1 X77.012 Y77.012 E116.6678
G1 F2400 E115.6678
G1 F600 Z0.8
G0 F4800 X122.465 Y77.211 Z0.8
G1 F600 Z0.3
G1 F2400 E116.69274
G1 F1080 X122.789 Y77.534 E116.71328
G0 F4800 X122.789 Y78.1
G1 F1080 X121.9 Y77.211 E116.76974
G0 F4800 X121.334 Y77.211
G1 F1080 X122.789 Y78.666 E116.86213
G0 F4800 X122.789 Y79.232
G1 F1080 X120.768 Y77.211 E116.99046
G0 F4800 X120.203 Y77.211
G1 F1080 X122.789 Y79.797 E117.15467
G0 F4800 X122.789 Y80.363
G1 F1080 X119.637 Y77.211 E117.35482
G0 F4800 X119.071 Y77.211
G1 F1080 X122.789 Y80.929 E117.59092
G0 F4800 X122.789 Y81.494
G1 F1080 X118.506 Y77.211 E117.86289
G0 F4800 X117.94 Y77.211
G1 F1080 X122.789 Y82.06 E118.1708
G0 F4800 X122.789 Y82.626
G1 F1080 X117.374 Y77.211 E118.51465
G0 F4800 X116.809 Y77.211
G1 F1080 X122.789 Y83.191 E118.89438
G0 F4800 X122.789 Y83.757
G1 F1080 X116.243 Y77.211 E119.31005
G0 F4800 X115.677 Y77.211
G1 F1080 X122.789 Y84.323 E119.76166
G0 F4800 X122.789 Y84.888
G1 F1080 X115.112 Y77.211 E120.24915
G0 F4800 X114.546 Y77.211
G1 F1080 X122.789 Y85.454 E120.77258
G0 F4800 X122.789 Y86.02
G1 F1080 X113.98 Y77.211 E121.33195
G0 F4800 X113.414 Y77.211
G1 F1080 X122.789 Y86.585 E121.92723
G0 F4800 X122.789 Y87.151
G1 F1080 X112.849 Y77.211 E122.55841
G0 F4800 X112.283 Y77.211
G1 F1080 X122.789 Y87.717 E123.22554
G0 F4800 X122.789 Y88.282
G1 F1080 X111.717 Y77.211 E123.92858
G0 F4800 X111.152 Y77.211
G1 F1080 X122.789 Y88.848 E124.66753
G0 F4800 X122.789 Y89.414
G1 F1080 X110.586 Y77.211 E125.44242
G0 F4800 X110.02 Y77.211
G1 F1080 X122.789 Y89.98 E126.25325
G1 X122.859 Y90.05
G1 F2400 E125.25325
G1 F600 Z0.8
G0 F4800 X115.459 Y83.215 Z0.8
G1 F600 Z0.3
G1 F2400 E126.27819
G1 F1080 X109.455 Y77.211 E126.65945
G0 F4800 X108.889 Y77.211
G1 F1080 X114.818 Y83.14 E127.03594
G0 F4800 X114.252 Y83.14
G1 F1080 X108.323 Y77.211 E127.41243
G0 F4800 X107.758 Y77.211
G1 F1080 X113.687 Y83.14 E127.78892
G0 F4800 X113.121 Y83.14
G1 F1080 X107.192 Y77.211 E128.16541
G0 F4800 X106.626 Y77.211
G1 F1080 X112.555 Y83.14 E128.5419
G0 F4800 X111.99 Y83.14
G1 F1080 X106.061 Y77.211 E128.91839
G0 F4800 X105.495 Y77.211
G1 F1080 X111.424 Y83.14 E129.29488
G0 F4800 X110.858 Y83.14
G1 F1080 X104.929 Y77.211 E129.67137
G0 F4800 X104.364 Y77.211
G1 F1080 X110.293 Y83.14 E130.04786
G0 F4800 X109.727 Y83.14
G1 F1080 X103.798 Y77.211 E130.42435
G0 F4800 X103.232 Y77.211
G1 F1080 X109.161 Y83.14 E130.80085
G0 F4800 X108.596 Y83.14
G1 F1080 X102.666 Y77.211 E131.17737
G0 F4800 X102.101 Y77.211
G1 F1080 X108.03 Y83.14 E131.55386
G0 F4800 X107.464 Y83.14
G1 F1080 X101.535 Y77.211 E131.93035
G0 F4800 X100.969 Y77.211
G1 F1080 X106.898 Y83.14 E132.30684
G0 F4800 X106.333 Y83.14
G1 F1080 X100.404 Y77.211 E132.68333
G0 F4800 X99.839 Y77.211
G1 F1080 X105.767 Y83.14 E133.05979
G0 F4800 X105.201 Y83.14
G1 F1080 X99.273 Y77.211 E133.43625
G0 F4800 X98.707 Y77.211
G1 F1080 X104.636 Y83.14 E133.81274
G0 F4800 X104.07 Y83.14
G1 F1080 X98.142 Y77.211 E134.1892
G0 F4800 X97.576 Y77.211
G1 F1080 X103.504 Y83.14 E134.56566
G0 F4800 X102.939 Y83.14
G1 F1080 X97.01 Y77.211 E134.94215
G0 F4800 X96.445 Y77.211
G1 F1080 X102.373 Y83.14 E135.31861
G0 F4800 X101.807 Y83.14
G1 F1080 X95.879 Y77.211 E135.69507
G0 F4800 X95.313 Y77.211
G1 F1080 X101.242 Y83.14 E136.07156
G0 F4800 X100.676 Y83.14
G1 F1080 X94.748 Y77.211 E136.44801
G0 F4800 X94.182 Y77.211
G1 F1080 X100.11 Y83.14 E136.82447
G0 F4800 X99.545 Y83.14
G1 F1080 X93.616 Y77.211 E137.20096
G0 F4800 X93.051 Y77.211
G1 F1080 X98.979 Y83.14 E137.57742
G0 F4800 X98.413 Y83.14
G1 F1080 X92.485 Y77.211 E137.95388
G0 F4800 X91.919 Y77.211
G1 F1080 X97.848 Y83.14 E138.33037
G0 F4800 X97.282 Y83.14
G1 F1080 X91.353 Y77.211 E138.70686
G0 F4800 X90.788 Y77.211
G1 F1080 X96.716 Y83.14 E139.08332
G0 F4800 X96.15 Y83.14
G1 F1080 X90.222 Y77.211 E139.45978
G0 F4800 X89.656 Y77.211
G1 F1080 X95.585 Y83.14 E139.83627
G0 F4800 X95.019 Y83.14
G1 F1080 X89.091 Y77.211 E140.21273
G0 F4800 X88.525 Y77.211
G1 F1080 X94.453 Y83.14 E140.58919
G0 F4800 X93.888 Y83.14
G1 F1080 X87.959 Y77.211 E140.96568
G0 F4800 X87.394 Y77.211
G1 F1080 X93.322 Y83.14 E141.34214
G0 F4800 X92.756 Y83.14
G1 F1080 X86.828 Y77.211 E141.7186
G0 F4800 X86.262 Y77.211
G1 F1080 X92.191 Y83.14 E142.09509
G0 F4800 X91.625 Y83.14
G1 F1080 X85.697 Y77.211 E142.47155
G0 F4800 X85.131 Y77.211
G1 F1080 X91.059 Y83.14 E142.84801
G0 F4800 X90.494 Y83.14
G1 F1080 X84.565 Y77.211 E143.2245
G0 F4800 X84 Y77.211
G1 F1080 X89.928 Y83.14 E143.60096
G0 F4800 X89.362 Y83.14
G1 F1080 X83.434 Y77.211 E143.97742
G0 F4800 X82.868 Y77.211
G1 F1080 X88.797 Y83.14 E144.35391
G0 F4800 X88.231 Y83.14
G1 F1080 X82.302 Y77.211 E144.7304
G0 F4800 X81.737 Y77.211
G1 F1080 X87.665 Y83.14 E145.10686
G0 F4800 X87.099 Y83.14
G1 F1080 X81.171 Y77.211 E145.48331
G0 F4800 X80.605 Y77.211
G1 F1080 X86.534 Y83.14 E145.85981
G0 F4800 X85.968 Y83.14
G1 F1080 X80.04 Y77.211 E146.23626
G0 F4800 X79.474 Y77.211
G1 F1080 X85.402 Y83.14 E146.61272
G0 F4800 X84.857 Y83.16
G1 F1080 X78.908 Y77.211 E146.99048
G0 F4800 X78.343 Y77.211
G1 F1080 X84.384 Y83.252 E147.37409
G0 F4800 X84.016 Y83.45
G1 F1080 X77.777 Y77.211 E147.77026
G0 F4800 X77.211 Y77.211
G1 F1080 X83.699 Y83.699 E148.18225
G0 F4800 X83.436 Y84.002
G1 F1080 X77.211 Y77.777 E148.57754
G0 F4800 X77.211 Y78.343
G1 F1080 X83.246 Y84.378 E148.96076
G0 F4800 X83.164 Y84.861
G1 F1080 X77.211 Y78.908 E149.33877
G0 F4800 X77.211 Y79.474
G1 F1080 X83.14 Y85.402 E149.71523
G0 F4800 X83.14 Y85.968
G1 F1080 X77.211 Y80.04 E150.09169
G0 F4800 X77.211 Y80.605
G1 F1080 X83.14 Y86.534 E150.46818
G0 F4800 X83.14 Y87.099
G1 F1080 X77.211 Y81.171 E150.84464
G0 F4800 X77.211 Y81.737
G1 F1080 X83.14 Y87.665 E151.2211
G0 F4800 X83.14 Y88.231
G1 F1080 X77.211 Y82.302 E151.59759
G0 F4800 X77.211 Y82.868
G1 F1080 X83.14 Y88.797 E151.97408
G0 F4800 X83.14 Y89.362
G1 F1080 X77.211 Y83.434 E152.35054
G0 F4800 X77.211 Y84
G1 F1080 X83.14 Y89.928 E152.727
G0 F4800 X83.14 Y90.494
G1 F1080 X77.211 Y84.565 E153.10349
G0 F4800 X77.211 Y85.131
G1 F1080 X83.14 Y91.059 E153.47995
G0 F4800 X83.14 Y91.625
G1 F1080 X77.211 Y85.697 E153.85641
G0 F4800 X77.211 Y86.262
G1 F1080 X83.14 Y92.191 E154.2329
G0 F4800 X83.14 Y92.756
G1 F1080 X77.211 Y86.828 E154.60936
G0 F4800 X77.211 Y87.394
G1 F1080 X83.14 Y93.322 E154.98582
G0 F4800 X83.14 Y93.888
G1 F1080 X77.211 Y87.959 E155.36231
G0 F4800 X77.211 Y88.525
G1 F1080 X83.14 Y94.453 E155.73876
G0 F4800 X83.14 Y95.019
G1 F1080 X77.211 Y89.091 E156.11522
G0 F4800 X77.211 Y89.656
G1 F1080 X83.14 Y95.585 E156.49171
G0 F4800 X83.14 Y96.15
G1 F1080 X77.211 Y90.222 E156.86817
G0 F4800 X77.211 Y90.788
G1 F1080 X83.14 Y96.716 E157.24463
G0 F4800 X83.14 Y97.282
G1 F1080 X77.211 Y91.353 E157.62112
G0 F4800 X77.211 Y91.919
G1 F1080 X83.14 Y97.848 E157.99761
G0 F4800 X83.14 Y98.413
G1 F1080 X77.211 Y92.485 E158.37407
G0 F4800 X77.211 Y93.051
G1 F1080 X83.14 Y98.979 E158.75053
G0 F4800 X83.14 Y99.545
G1 F1080 X77.211 Y93.616 E159.12702
G0 F4800 X77.211 Y94.182
