;FLAVOR:Marlin
;TIME:979
;Filament used: 0.748079m
;Layer height: 0.2
;MINX:1.8
;MINY:1.8
;MINZ:0.3
;MAXX:198.2
;MAXY:198.2
;MAXZ:0.8
;Generated with Cura_SteamEngine 5.0.0
M140 S70
M105
M190 S70
M104 S215
M105
M109 S215
M82 ;absolute extrusion mode
;Sliced at: Tue 07-06-2022 17:35:02
G21 ;metric values
M107
G28
M420 S1
G90 ;absolute positioning
G92 E0; reset extruder distance
G1 X0 Y0 Z5 F5000 ;move nozzle up 5mm for safe homing
G29;ABL
M500
M82 ;set extruder to absolute mode
M107 ;start with the fan off
G1 X0 Y0 Z15.0 F5000 ;move the platform down 15mm
G92 E0 ;zero the extruded length
G1 F200 E3 ;extrude 3mm of feed stock
G1 F200 E0 ;Retract
G4 S2 ;Wait for material to fall
G1 F200 E3
G92 E0 ;zero the extruded length again
M117 Printing...
G92 E0
;WIPE
G91
G1 X -20 F3000
G1 X40
G1 X-20
G90

G92 E0
G1 F2400 E-1
;LAYER_COUNT:1
;LAYER:0
M107
G1 F600 Z0.8
G0 F4800 X2.789 Y2.704 Z0.8
G1 F600 Z0.8
G0 F4800 X1.8 Y5.631
;TYPE:SKIRT
G1 F600 Z0.3
G1 F2400 E0.02495
G1 F1080 X1.809 Y4.966 E0.05481
G1 X1.856 Y4.462 E0.07754
G1 X1.982 Y3.973 E0.10021
G1 X2.183 Y3.509 E0.12291
G1 X2.454 Y3.082 E0.14562
G1 X2.789 Y2.704 E0.1683
G1 X3.18 Y2.383 E0.19102
G1 X3.617 Y2.128 E0.21373
G1 X4.088 Y1.944 E0.23644
G1 X4.582 Y1.838 E0.25913
G1 X5.24 Y1.801 E0.28872
G1 X28.097 Y1.8 E1.31502
G1 X28.812 Y1.812 E1.34713
G1 X29.315 Y1.861 E1.36982
G1 X30.071 Y2.067 E1.40501
G1 X32.748 Y2.846 E1.53019
G1 X35.392 Y3.533 E1.65285
G1 X38.047 Y4.145 E1.77519
G1 X40.747 Y4.686 E1.89884
G1 X43.43 Y5.145 E2.02106
G1 X46.125 Y5.529 E2.14329
G1 X48.892 Y5.843 E2.26833
G1 X51.571 Y6.071 E2.38905
G1 X54.319 Y6.227 E2.51264
G1 X57.071 Y6.305 E2.63626
G1 X59.788 Y6.305 E2.75825
G1 X62.541 Y6.227 E2.88192
G1 X65.288 Y6.071 E3.00546
G1 X67.967 Y5.843 E3.12618
G1 X70.734 Y5.529 E3.25122
G1 X73.429 Y5.145 E3.37345
G1 X76.108 Y4.687 E3.49549
G1 X78.816 Y4.144 E3.6195
G1 X81.46 Y3.536 E3.74132
G1 X84.129 Y2.841 E3.86516
G1 X87.242 Y1.936 E4.01072
G1 X87.737 Y1.834 E4.03341
G1 X88.365 Y1.801 E4.06165
G1 X111.226 Y1.801 E5.08814
G1 X111.941 Y1.814 E5.12025
G1 X112.444 Y1.863 E5.14294
G1 X112.781 Y1.942 E5.15848
G1 X115.842 Y2.837 E5.30168
G1 X118.526 Y3.536 E5.42621
G1 X121.144 Y4.138 E5.54683
G1 X123.899 Y4.691 E5.673
G1 X126.555 Y5.145 E5.79399
G1 X129.25 Y5.529 E5.91622
G1 X132.017 Y5.843 E6.04126
G1 X134.696 Y6.071 E6.16198
G1 X137.444 Y6.227 E6.28557
G1 X140.196 Y6.305 E6.40919
G1 X142.913 Y6.305 E6.53118
G1 X145.666 Y6.227 E6.65485
G1 X148.413 Y6.071 E6.77839
G1 X151.092 Y5.843 E6.89911
G1 X153.859 Y5.529 E7.02415
G1 X156.554 Y5.145 E7.14638
G1 X159.233 Y4.687 E7.26842
G1 X161.941 Y4.144 E7.39243
G1 X164.585 Y3.536 E7.51425
G1 X167.254 Y2.841 E7.63809
G1 X170.367 Y1.936 E7.78365
G1 X170.862 Y1.834 E7.80634
G1 X171.49 Y1.801 E7.83458
G1 X194.334 Y1.8 E8.8603
G1 X195.032 Y1.809 E8.89165
G1 X195.536 Y1.856 E8.91438
G1 X196.026 Y1.981 E8.93708
G1 X196.49 Y2.182 E8.95979
G1 X196.916 Y2.453 E8.98246
G1 X197.295 Y2.788 E9.00517
G1 X197.616 Y3.179 E9.02788
G1 X197.871 Y3.615 E9.05056
G1 X198.055 Y4.086 E9.07327
G1 X198.162 Y4.58 E9.09596
G1 X198.199 Y5.24 E9.12565
G1 X198.199 Y34.021 E10.41795
G1 X198.185 Y34.765 E10.45136
G1 X198.092 Y35.474 E10.48347
G1 X197.753 Y36.844 E10.54684
G1 X197.123 Y39.581 E10.67294
G1 X196.587 Y42.252 E10.79527
G1 X196.128 Y44.938 E10.91762
G1 X195.744 Y47.633 E11.03985
G1 X195.428 Y50.416 E11.16561
G1 X195.202 Y53.08 E11.28566
G1 X195.046 Y55.827 E11.4092
G1 X194.968 Y58.58 E11.53286
G1 X194.968 Y61.297 E11.65486
G1 X195.046 Y64.049 E11.77848
G1 X195.201 Y66.789 E11.9017
G1 X195.428 Y69.46 E12.02207
G1 X195.743 Y72.238 E12.1476
G1 X196.128 Y74.938 E12.27006
G1 X196.586 Y77.617 E12.3921
G1 X197.129 Y80.324 E12.51607
G1 X197.736 Y82.963 E12.63765
G1 X198.092 Y84.368 E12.70273
G1 X198.189 Y85.058 E12.73402
G1 X198.2 Y85.486 E12.75325
G1 X198.199 Y114.178 E14.04155
G1 X198.185 Y114.922 E14.07496
G1 X198.092 Y115.631 E14.10707
G1 X197.753 Y117.001 E14.17044
G1 X197.123 Y119.738 E14.29655
G1 X196.587 Y122.409 E14.41887
G1 X196.128 Y125.095 E14.54122
G1 X195.744 Y127.79 E14.66345
G1 X195.428 Y130.573 E14.78922
G1 X195.202 Y133.237 E14.90926
G1 X195.046 Y135.984 E15.03281
G1 X194.968 Y138.737 E15.15647
G1 X194.968 Y141.454 E15.27846
G1 X195.046 Y144.206 E15.40208
G1 X195.201 Y146.946 E15.52531
G1 X195.428 Y149.617 E15.64567
G1 X195.743 Y152.395 E15.77121
G1 X196.128 Y155.095 E15.89367
G1 X196.586 Y157.774 E16.0157
G1 X197.129 Y160.481 E16.13967
G1 X197.736 Y163.12 E16.26126
G1 X198.092 Y164.525 E16.32634
G1 X198.189 Y165.215 E16.35762
G1 X198.2 Y165.643 E16.37685
G1 X198.2 Y194.304 E17.66376
G1 X198.191 Y195.031 E17.69641
G1 X198.145 Y195.534 E17.71909
G1 X198.02 Y196.024 E17.74179
G1 X197.819 Y196.488 E17.7645
G1 X197.548 Y196.915 E17.78721
G1 X197.213 Y197.294 E17.80992
G1 X196.823 Y197.615 E17.8326
G1 X196.387 Y197.871 E17.8553
G1 X195.916 Y198.054 E17.87799
G1 X195.422 Y198.162 E17.90069
G1 X194.76 Y198.199 E17.93047
G1 X171.903 Y198.2 E18.95677
G1 X171.188 Y198.188 E18.98888
G1 X170.685 Y198.139 E19.01157
G1 X169.929 Y197.933 E19.04676
G1 X167.252 Y197.154 E19.17194
G1 X164.608 Y196.467 E19.2946
G1 X161.953 Y195.855 E19.41694
G1 X159.253 Y195.314 E19.54058
G1 X156.57 Y194.855 E19.6628
G1 X153.875 Y194.471 E19.78504
G1 X151.108 Y194.157 E19.91007
G1 X148.429 Y193.929 E20.0308
G1 X145.681 Y193.773 E20.15439
G1 X142.929 Y193.695 E20.278
G1 X140.212 Y193.695 E20.4
G1 X137.459 Y193.773 E20.52366
G1 X134.712 Y193.929 E20.64721
G1 X132.033 Y194.157 E20.76793
G1 X129.266 Y194.471 E20.89297
G1 X126.571 Y194.855 E21.0152
G1 X123.892 Y195.313 E21.13724
G1 X121.184 Y195.856 E21.26125
G1 X118.54 Y196.464 E21.38307
G1 X115.871 Y197.159 E21.5069
G1 X112.758 Y198.064 E21.65247
G1 X112.263 Y198.166 E21.67516
G1 X111.635 Y198.199 E21.7034
G1 X88.778 Y198.2 E22.7297
G1 X88.063 Y198.188 E22.76181
G1 X87.56 Y198.139 E22.78451
G1 X86.804 Y197.933 E22.81969
G1 X84.127 Y197.154 E22.94487
G1 X81.483 Y196.467 E23.06754
G1 X78.828 Y195.855 E23.18987
G1 X76.128 Y195.314 E23.31352
G1 X73.445 Y194.855 E23.43574
G1 X70.75 Y194.471 E23.55797
G1 X67.983 Y194.157 E23.68301
G1 X65.304 Y193.929 E23.80373
G1 X62.556 Y193.773 E23.92732
G1 X59.804 Y193.695 E24.05094
G1 X57.087 Y193.695 E24.17293
G1 X54.334 Y193.773 E24.2966
G1 X51.587 Y193.929 E24.42014
G1 X48.908 Y194.157 E24.54086
G1 X46.141 Y194.471 E24.6659
G1 X43.446 Y194.855 E24.78813
G1 X40.767 Y195.313 E24.91017
G1 X38.059 Y195.856 E25.03418
G1 X35.415 Y196.464 E25.156
G1 X32.746 Y197.159 E25.27984
G1 X29.633 Y198.064 E25.4254
G1 X29.138 Y198.166 E25.44809
G1 X28.51 Y198.199 E25.47633
G1 X5.666 Y198.2 E26.50205
G1 X4.968 Y198.191 E26.5334
G1 X4.464 Y198.144 E26.55613
G1 X3.974 Y198.019 E26.57883
G1 X3.51 Y197.818 E26.60154
G1 X3.084 Y197.547 E26.62421
G1 X2.705 Y197.212 E26.64692
G1 X2.384 Y196.821 E26.66963
G1 X2.129 Y196.385 E26.69231
G1 X1.945 Y195.914 E26.71502
G1 X1.838 Y195.42 E26.73771
G1 X1.801 Y194.744 E26.76811
G1 X1.801 Y165.958 E28.06064
G1 X1.815 Y165.233 E28.0932
G1 X1.908 Y164.526 E28.12522
G1 X2.247 Y163.156 E28.18859
G1 X2.879 Y160.409 E28.31515
G1 X3.413 Y157.745 E28.43715
G1 X3.874 Y155.049 E28.55996
G1 X4.256 Y152.367 E28.6816
G1 X4.572 Y149.584 E28.80736
G1 X4.798 Y146.92 E28.92741
G1 X4.955 Y144.156 E29.05172
G1 X5.032 Y141.419 E29.17466
G1 X5.032 Y138.703 E29.29661
G1 X4.954 Y135.945 E29.4205
G1 X4.798 Y133.201 E29.5439
G1 X4.572 Y130.539 E29.66386
G1 X4.256 Y127.757 E29.78958
G1 X3.871 Y125.052 E29.91226
G1 X3.414 Y122.383 E30.03385
G1 X2.868 Y119.659 E30.15859
G1 X2.263 Y117.032 E30.27963
G1 X1.906 Y115.613 E30.34533
G1 X1.81 Y114.923 E30.37661
G1 X1.8 Y114.514 E30.39498
G1 X1.801 Y85.801 E31.68423
G1 X1.815 Y85.076 E31.71679
G1 X1.908 Y84.369 E31.74881
G1 X2.247 Y82.999 E31.81218
G1 X2.879 Y80.252 E31.93875
G1 X3.413 Y77.588 E32.06074
G1 X3.874 Y74.892 E32.18355
G1 X4.256 Y72.21 E32.30519
G1 X4.572 Y69.427 E32.43096
G1 X4.798 Y66.763 E32.551
G1 X4.955 Y63.999 E32.67531
G1 X5.032 Y61.262 E32.79825
G1 X5.032 Y58.546 E32.9202
G1 X4.954 Y55.788 E33.04409
G1 X4.798 Y53.044 E33.1675
G1 X4.572 Y50.382 E33.28746
G1 X4.256 Y47.6 E33.41317
G1 X3.871 Y44.895 E33.53586
G1 X3.414 Y42.226 E33.65744
G1 X2.868 Y39.502 E33.78218
G1 X2.263 Y36.875 E33.90323
G1 X1.906 Y35.456 E33.96893
G1 X1.81 Y34.766 E34.00021
G1 X1.8 Y34.357 E34.01858
G1 X1.8 Y5.631 E35.30841
G1 F2400 E34.30841
G1 F600 Z0.8
;MESH:JA_bed_levelling_test.stl
G0 F4800 X5.2 Y5.2 Z0.8
;TYPE:WALL-OUTER
G1 F600 Z0.3
G1 F2400 E35.33335
G1 F1080 X5.2 Y34.487 E36.64838
G1 X16.875 Y34.487 E37.1726
G1 X28.55 Y34.487 E37.69682
G1 X28.55 Y5.2 E39.01184
G1 X5.2 Y5.2 E40.06028
G0 F4800 X5.2 Y5.4
G0 X5.6 Y5.6
;TYPE:WALL-INNER
G1 F1080 X5.6 Y34.087 E41.33938
G1 X16.875 Y34.087 E41.84564
G1 X28.15 Y34.087 E42.3519
G1 X28.15 Y5.6 E43.631
G1 X5.6 Y5.6 E44.64353
G0 F4800 X6 Y6
G1 F1080 X6 Y33.687 E45.8867
G1 X16.875 Y33.687 E46.375
G1 X27.75 Y33.687 E46.8633
G1 X27.75 Y6 E48.10648
G1 X6 Y6 E49.08308
G0 F4800 X6.4 Y6.4
;TYPE:SKIN
G1 F1080 X6.4 Y33.287 E50.29034
G1 X27.35 Y33.287 E51.23102
G1 X27.35 Y16.875 E51.96794
G1 X27.35 Y6.4 E52.43828
G1 X6.4 Y6.4 E53.37896
G0 F4800 X6.8 Y6.8
G1 F1080 X6.8 Y32.887 E54.5503
G1 X26.95 Y32.887 E55.45506
G1 X26.95 Y16.875 E56.17401
G1 X26.95 Y6.8 E56.62639
G1 X6.8 Y6.8 E57.53115
G1 F2400 E56.53115
G1 F600 Z0.8
G0 F4800 X26.232 Y6.999 Z0.8
;TYPE:SKIN
G1 F600 Z0.3
G1 F2400 E57.5561
G1 F1080 X26.749 Y7.516 E57.58893
G0 F4800 X26.749 Y8.082
G1 F1080 X25.667 Y6.999 E57.65767
G0 F4800 X25.101 Y6.999
G1 F1080 X26.749 Y8.647 E57.76231
G0 F4800 X26.749 Y9.213
G1 F1080 X24.535 Y6.999 E57.9029
G0 F4800 X23.97 Y6.999
G1 F1080 X26.749 Y9.779 E58.0794
G0 F4800 X26.749 Y10.344
G1 F1080 X23.404 Y6.999 E58.29181
G0 F4800 X22.838 Y6.999
G1 F1080 X26.749 Y10.91 E58.54015
G0 F4800 X26.749 Y11.476
G1 F1080 X22.273 Y6.999 E58.82441
G0 F4800 X21.707 Y6.999
G1 F1080 X26.749 Y12.042 E59.14461
G0 F4800 X26.749 Y12.607
G1 F1080 X21.141 Y6.999 E59.50072
G0 F4800 X20.576 Y6.999
G1 F1080 X26.749 Y13.173 E59.89273
G0 F4800 X26.749 Y13.739
G1 F1080 X20.01 Y6.999 E60.32069
G0 F4800 X19.444 Y6.999
G1 F1080 X26.749 Y14.304 E60.78456
G0 F4800 X26.749 Y14.87
G1 F1080 X18.879 Y6.999 E61.28433
G0 F4800 X18.313 Y6.999
G1 F1080 X26.749 Y15.436 E61.82005
G0 F4800 X26.749 Y16.001
G1 F1080 X17.747 Y6.999 E62.39168
G0 F4800 X17.181 Y6.999
G1 F1080 X26.749 Y16.567 E62.99924
G0 F4800 X26.749 Y17.133
G1 F1080 X16.616 Y6.999 E63.64272
G0 F4800 X16.05 Y6.999
G1 F1080 X26.749 Y17.698 E64.3221
G0 F4800 X26.749 Y18.264
G1 F1080 X15.484 Y6.999 E65.03743
G0 F4800 X14.919 Y6.999
G1 F1080 X26.749 Y18.83 E65.78866
G0 F4800 X26.749 Y19.395
G1 F1080 X14.353 Y6.999 E66.57581
G0 F4800 X13.787 Y6.999
G1 F1080 X26.749 Y19.961 E67.39889
G0 F4800 X26.749 Y20.527
G1 F1080 X13.222 Y6.999 E68.25789
G0 F4800 X12.656 Y6.999
G1 F1080 X26.749 Y21.092 E69.15279
G0 F4800 X26.749 Y21.658
G1 F1080 X12.09 Y6.999 E70.08364
G0 F4800 X11.525 Y6.999
G1 F1080 X26.749 Y22.224 E71.05039
G0 F4800 X26.749 Y22.79
G1 F1080 X10.959 Y6.999 E72.05308
G0 F4800 X10.393 Y6.999
G1 F1080 X26.749 Y23.355 E73.09169
G0 F4800 X26.749 Y23.921
G1 F1080 X9.828 Y6.999 E74.1662
G0 F4800 X9.262 Y6.999
G1 F1080 X26.749 Y24.487 E75.27665
G0 F4800 X26.749 Y25.052
G1 F1080 X8.696 Y6.999 E76.42302
G0 F4800 X8.131 Y6.999
G1 F1080 X26.749 Y25.618 E77.60529
G0 F4800 X26.749 Y26.184
G1 F1080 X7.565 Y6.999 E78.8235
G0 F4800 X6.999 Y6.999
G1 F1080 X26.749 Y26.749 E80.07762
G0 F4800 X26.749 Y27.315
G1 F1080 X6.999 Y7.565 E81.33175
G0 F4800 X6.999 Y8.131
G1 F1080 X26.749 Y27.881 E82.58587
G0 F4800 X26.749 Y28.446
G1 F1080 X6.999 Y8.696 E83.83999
G0 F4800 X6.999 Y9.262
G1 F1080 X26.749 Y29.012 E85.09411
G0 F4800 X26.749 Y29.578
G1 F1080 X6.999 Y9.828 E86.34824
G0 F4800 X6.999 Y10.393
G1 F1080 X26.749 Y30.143 E87.60236
G0 F4800 X26.749 Y30.709
G1 F1080 X6.999 Y10.959 E88.85648
G0 F4800 X6.999 Y11.525
G1 F1080 X26.749 Y31.275 E90.1106
G0 F4800 X26.749 Y31.841
G1 F1080 X6.999 Y12.09 E91.36476
G0 F4800 X6.999 Y12.656
G1 F1080 X26.749 Y32.406 E92.61888
G0 F4800 X26.463 Y32.686
G1 F1080 X6.999 Y13.222 E93.85484
G0 F4800 X6.999 Y13.787
G1 F1080 X25.897 Y32.686 E95.05489
G0 F4800 X25.332 Y32.686
G1 F1080 X6.999 Y14.353 E96.21904
G0 F4800 X6.999 Y14.919
G1 F1080 X24.766 Y32.686 E97.34724
G0 F4800 X24.2 Y32.686
G1 F1080 X6.999 Y15.484 E98.43953
G0 F4800 X6.999 Y16.05
G1 F1080 X23.635 Y32.686 E99.49591
G0 F4800 X23.069 Y32.686
G1 F1080 X6.999 Y16.616 E100.51636
G0 F4800 X6.999 Y17.181
G1 F1080 X22.503 Y32.686 E101.50089
G0 F4800 X21.937 Y32.686
G1 F1080 X6.999 Y17.747 E102.44948
G0 F4800 X6.999 Y18.313
G1 F1080 X21.372 Y32.686 E103.36217
G0 F4800 X20.806 Y32.686
G1 F1080 X6.999 Y18.879 E104.23891
G0 F4800 X6.999 Y19.444
G1 F1080 X20.24 Y32.686 E105.07974
G0 F4800 X19.675 Y32.686
G1 F1080 X6.999 Y20.01 E105.88467
G0 F4800 X6.999 Y20.576
G1 F1080 X19.109 Y32.686 E106.65365
G0 F4800 X18.543 Y32.686
G1 F1080 X6.999 Y21.141 E107.38672
G0 F4800 X6.999 Y21.707
G1 F1080 X17.978 Y32.686 E108.08389
G0 F4800 X17.412 Y32.686
G1 F1080 X6.999 Y22.273 E108.74511
G0 F4800 X6.999 Y22.838
G1 F1080 X16.846 Y32.686 E109.37043
G0 F4800 X16.281 Y32.686
G1 F1080 X6.999 Y23.404 E109.95983
G0 F4800 X6.999 Y23.97
G1 F1080 X15.715 Y32.686 E110.5133
G0 F4800 X15.149 Y32.686
G1 F1080 X6.999 Y24.535 E111.03085
G0 F4800 X6.999 Y25.101
G1 F1080 X14.584 Y32.686 E111.5125
G0 F4800 X14.018 Y32.686
G1 F1080 X6.999 Y25.667 E111.95821
G0 F4800 X6.999 Y26.232
G1 F1080 X13.452 Y32.686 E112.368
G0 F4800 X12.887 Y32.686
G1 F1080 X6.999 Y26.798 E112.74189
G0 F4800 X6.999 Y27.364
G1 F1080 X12.321 Y32.686 E113.07984
G0 F4800 X11.755 Y32.686
G1 F1080 X6.999 Y27.93 E113.38184
G0 F4800 X6.999 Y28.495
G1 F1080 X11.189 Y32.686 E113.64794
G0 F4800 X10.624 Y32.686
G1 F1080 X6.999 Y29.061 E113.87812
G0 F4800 X6.999 Y29.627
G1 F1080 X10.058 Y32.686 E114.07237
G0 F4800 X9.492 Y32.686
G1 F1080 X6.999 Y30.192 E114.23071
G0 F4800 X6.999 Y30.758
G1 F1080 X8.927 Y32.686 E114.35314
G0 F4800 X8.361 Y32.686
G1 F1080 X6.999 Y31.324 E114.43962
G0 F4800 X6.999 Y31.889
G1 F1080 X7.795 Y32.686 E114.4902
G0 F4800 X7.23 Y32.686
G1 F1080 X6.999 Y32.455 E114.50487
G1 F2400 E113.50487
G1 F600 Z0.8
G0 F4800 X5.2 Y85.356 Z0.8
;TYPE:WALL-OUTER
G1 F600 Z0.3
G1 F2400 E114.52981
G1 F1080 X5.2 Y114.644 E115.84488
G1 X28.55 Y114.644 E116.89332
G1 X28.55 Y97.031 E117.68417
G1 X28.55 Y85.356 E118.20839
G1 X5.2 Y85.356 E119.25683
G0 F4800 X5.2 Y85.556
G0 X5.6 Y85.756
;TYPE:WALL-INNER
G1 F1080 X5.6 Y114.244 E120.53598
G1 X28.15 Y114.244 E121.5485
G1 X28.15 Y97.031 E122.32138
G1 X28.15 Y85.756 E122.82764
G1 X5.6 Y85.756 E123.84016
G0 F4800 X6 Y86.156
G1 F1080 X6 Y113.844 E125.08339
G1 X27.75 Y113.844 E126.05999
G1 X27.75 Y97.031 E126.81491
G1 X27.75 Y86.156 E127.30321
G1 X6 Y86.156 E128.27981
G0 F4800 X6.4 Y86.556
;TYPE:SKIN
G1 F1080 X6.4 Y113.444 E129.48712
G1 X27.35 Y113.444 E130.4278
G1 X27.35 Y97.031 E131.16476
G1 X27.35 Y86.556 E131.6351
G1 X6.4 Y86.556 E132.57578
G0 F4800 X6.8 Y86.956
G1 F1080 X6.8 Y113.044 E133.74716
G1 X26.95 Y113.044 E134.65192
G1 X26.95 Y97.031 E135.37092
G1 X26.95 Y86.956 E135.8233
G1 X6.8 Y86.956 E136.72806
G1 F2400 E135.72806
G1 F600 Z0.8
G0 F4800 X26.626 Y87.155 Z0.8
;TYPE:SKIN
G1 F600 Z0.3
G1 F2400 E136.75301
G1 F1080 X26.749 Y87.278 E136.76082
G0 F4800 X26.749 Y87.843
G1 F1080 X26.061 Y87.155 E136.8045
G0 F4800 X25.495 Y87.155
G1 F1080 X26.749 Y88.409 E136.88413
G0 F4800 X26.749 Y88.975
G1 F1080 X24.929 Y87.155 E136.9997
G0 F4800 X24.364 Y87.155
G1 F1080 X26.749 Y89.54 E137.15115
G0 F4800 X26.749 Y90.106
G1 F1080 X23.798 Y87.155 E137.33854
G0 F4800 X23.232 Y87.155
G1 F1080 X26.749 Y90.672 E137.56187
G0 F4800 X26.749 Y91.237
G1 F1080 X22.667 Y87.155 E137.82107
G0 F4800 X22.101 Y87.155
G1 F1080 X26.749 Y91.803 E138.11622
G0 F4800 X26.749 Y92.369
G1 F1080 X21.535 Y87.155 E138.44731
G0 F4800 X20.969 Y87.155
G1 F1080 X26.749 Y92.935 E138.81434
G0 F4800 X26.749 Y93.5
G1 F1080 X20.404 Y87.155 E139.21724
G0 F4800 X19.838 Y87.155
G1 F1080 X26.749 Y94.066 E139.65609
G0 F4800 X26.749 Y94.632
G1 F1080 X19.272 Y87.155 E140.13088
G0 F4800 X18.707 Y87.155
G1 F1080 X26.749 Y95.197 E140.64155
G0 F4800 X26.749 Y95.763
G1 F1080 X18.141 Y87.155 E141.18815
G0 F4800 X17.575 Y87.155
