;FLAVOR:Marlin
;TIME:2392
;Filament used: 0.696003m
;Layer height: 0.2
;MINX:88.2
;MINY:87.702
;MINZ:0.3
;MAXX:111.8
;MAXY:111.302
;MAXZ:21.9
;Generated with Cura_SteamEngine 5.0.0
M140 S70
M105
M190 S70
M104 S215
M105
M109 S215
M82 ;absolute extrusion mode
;Sliced at: Tue 07-06-2022 17:35:24
G21 ;metric values
M107
G28
M420 S1
G90 ;absolute positioning
G92 E0; reset extruder distance
G1 X0 Y0 Z5 F5000 ;move nozzle up 5mm for safe homing
G29;ABL
M500
M82 ;set extruder to absolute mode
M107 ;start with the fan off
G1 X0 Y0 Z15.0 F5000 ;move the platform down 15mm
G92 E0 ;zero the extruded length
G1 F200 E3 ;extrude 3mm of feed stock
G1 F200 E0 ;Retract
G4 S2 ;Wait for material to fall
G1 F200 E3
G92 E0 ;zero the extruded length again
M117 Printing...
G92 E0
;WIPE
G91
G1 X -20 F3000
G1 X40
G1 X-20
G90

G92 E0
G1 F2400 E-1
;LAYER_COUNT:110
;LAYER:0
M107
G1 F600 Z0.8
G0 F4800 X88.803 Y88.157 Z0.8
G1 F600 Z0.8
G0 F4800 X88.2 Y89.502
;TYPE:SKIRT
G1 F600 Z0.3
G1 F2400 E0.02495
G1 F1080 X88.24 Y89.125 E0.04197
G1 X88.358 Y88.765 E0.05898
G1 X88.548 Y88.438 E0.07596
G1 X88.803 Y88.157 E0.093
G1 X89.112 Y87.937 E0.11003
G1 X89.459 Y87.785 E0.12704
G1 X90 Y87.702 E0.15162
G1 X110 Y87.702 E1.04964
G1 X110.377 Y87.742 E1.06666
G1 X110.737 Y87.86 E1.08367
G1 X111.064 Y88.05 E1.10065
G1 X111.345 Y88.305 E1.11769
G1 X111.565 Y88.614 E1.13472
G1 X111.717 Y88.961 E1.15173
G1 X111.8 Y89.502 E1.17631
G1 X111.8 Y109.502 E2.07433
G1 X111.76 Y109.879 E2.09136
G1 X111.642 Y110.239 E2.10837
G1 X111.452 Y110.566 E2.12535
G1 X111.197 Y110.847 E2.14239
G1 X110.888 Y111.067 E2.15942
G1 X110.541 Y111.219 E2.17643
G1 X110 Y111.302 E2.201
G1 X90 Y111.302 E3.09903
G1 X89.623 Y111.262 E3.11605
G1 X89.263 Y111.144 E3.13306
G1 X88.936 Y110.954 E3.15004
G1 X88.655 Y110.699 E3.16708
G1 X88.435 Y110.39 E3.18411
G1 X88.283 Y110.043 E3.20112
G1 X88.2 Y109.502 E3.2257
G1 X88.2 Y89.502 E4.12372
G0 F4800 X88.6 Y89.502
G1 F1080 X88.64 Y89.17 E4.13874
G1 X88.757 Y88.858 E4.1537
G1 X88.945 Y88.581 E4.16873
G1 X89.193 Y88.358 E4.1837
G1 X89.487 Y88.199 E4.19871
G1 X90 Y88.102 E4.22215
G1 X110 Y88.102 E5.12018
G1 X110.332 Y88.142 E5.13519
G1 X110.644 Y88.259 E5.15015
G1 X110.921 Y88.447 E5.16519
G1 X111.144 Y88.695 E5.18016
G1 X111.303 Y88.989 E5.19517
G1 X111.4 Y89.502 E5.21861
G1 X111.4 Y109.502 E6.11664
G1 X111.36 Y109.834 E6.13165
G1 X111.243 Y110.146 E6.14661
G1 X111.055 Y110.423 E6.16164
G1 X110.807 Y110.646 E6.17662
G1 X110.513 Y110.805 E6.19163
G1 X110 Y110.902 E6.21507
G1 X90 Y110.902 E7.11309
G1 X89.668 Y110.862 E7.12811
G1 X89.356 Y110.745 E7.14307
G1 X89.079 Y110.557 E7.1581
G1 X88.856 Y110.309 E7.17308
G1 X88.697 Y110.015 E7.18808
G1 X88.6 Y109.502 E7.21153
G1 X88.6 Y89.502 E8.10955
G0 F4800 X89 Y89.502
G1 F1080 X89.04 Y89.223 E8.12221
G1 X89.156 Y88.966 E8.13487
G1 X89.339 Y88.751 E8.14754
G1 X89.575 Y88.597 E8.1602
G1 X90 Y88.502 E8.17975
G1 X110 Y88.502 E9.07777
G1 X110.279 Y88.542 E9.09043
G1 X110.536 Y88.658 E9.10309
G1 X110.751 Y88.841 E9.11577
G1 X110.905 Y89.077 E9.12842
G1 X111 Y89.502 E9.14798
G1 X111 Y109.502 E10.046
G1 X110.96 Y109.781 E10.05865
G1 X110.844 Y110.038 E10.07132
G1 X110.661 Y110.253 E10.08399
G1 X110.425 Y110.407 E10.09665
G1 X110 Y110.502 E10.1162
G1 X90 Y110.502 E11.01422
G1 X89.721 Y110.462 E11.02688
G1 X89.464 Y110.346 E11.03954
G1 X89.249 Y110.163 E11.05222
G1 X89.095 Y109.927 E11.06487
G1 X89 Y109.502 E11.08442
G1 X89 Y89.502 E11.98245
G0 F4800 X89.4 Y89.502
G1 F1080 X89.44 Y89.287 E11.99227
G1 X89.553 Y89.101 E12.00204
G1 X89.726 Y88.968 E12.01184
G1 X90 Y88.902 E12.02449
G1 X110 Y88.902 E12.92252
G1 X110.215 Y88.942 E12.93234
G1 X110.401 Y89.055 E12.94211
G1 X110.534 Y89.228 E12.95191
G1 X110.6 Y89.502 E12.96456
G1 X110.6 Y109.502 E13.86258
G1 X110.56 Y109.717 E13.8724
G1 X110.447 Y109.903 E13.88218
G1 X110.274 Y110.036 E13.89197
G1 X110 Y110.102 E13.90463
G1 X90 Y110.102 E14.80265
G1 X89.785 Y110.062 E14.81247
G1 X89.599 Y109.949 E14.82224
G1 X89.466 Y109.776 E14.83204
G1 X89.4 Y109.502 E14.8447
G1 X89.4 Y89.502 E15.74272
G0 F4800 X89.8 Y89.502
G1 F1080 X89.839 Y89.383 E15.74834
G1 X90 Y89.302 E15.75644
G1 X110 Y89.302 E16.65446
G1 X110.119 Y89.341 E16.66008
G1 X110.2 Y89.502 E16.66817
G1 X110.2 Y109.502 E17.5662
G1 X110.161 Y109.621 E17.57182
G1 X110 Y109.702 E17.57991
G1 X90 Y109.702 E18.47794
G1 X89.881 Y109.663 E18.48356
G1 X89.8 Y109.502 E18.49165
G1 X89.8 Y89.502 E19.38968
;MESH:overhang_retraction_test.stl
G0 F4800 X90.2 Y89.702
;TYPE:WALL-OUTER
G1 F1080 X90.2 Y109.302 E20.26974
G1 X109.8 Y109.302 E21.1498
G1 X109.8 Y99.502 E21.58983
G1 X109.8 Y89.702 E22.02987
G1 X90.2 Y89.702 E22.90993
G0 F4800 X90.2 Y89.902
G0 X90.6 Y90.102
;TYPE:WALL-INNER
G1 F1080 X90.6 Y108.902 E23.75407
G1 X109.4 Y108.902 E24.59821
G1 X109.4 Y99.502 E25.02028
G1 X109.4 Y90.102 E25.44236
G1 X90.6 Y90.102 E26.2865
G0 F4800 X91 Y90.502
G1 F1080 X91 Y108.502 E27.09472
G1 X109 Y108.502 E27.90294
G1 X109 Y99.502 E28.30705
G1 X109 Y90.502 E28.71116
G1 X91 Y90.502 E29.51938
G0 F4800 X91.26 Y90.762
;TYPE:SKIN
G1 F1080 X91.26 Y108.242 E30.30426
G1 X108.74 Y108.242 E31.08913
G1 X108.74 Y90.762 E31.874
G1 X91.26 Y90.762 E32.65887
G0 F4800 X91.66 Y91.162
G1 F1080 X91.66 Y107.842 E33.40782
G1 X108.34 Y107.842 E34.15678
G1 X108.34 Y91.162 E34.90573
G1 X91.66 Y91.162 E35.65468
G1 F2400 E34.65468
G1 F600 Z0.8
G0 F4800 X107.767 Y91.362 Z0.8
G1 F600 Z0.3
G1 F2400 E35.67963
G1 F1080 X108.139 Y91.734 E35.70325
G0 F4800 X108.139 Y92.3
G1 F1080 X107.201 Y91.362 E35.76281
G0 F4800 X106.635 Y91.362
G1 F1080 X108.139 Y92.865 E35.85828
G0 F4800 X108.139 Y93.431
G1 F1080 X106.07 Y91.362 E35.98966
G0 F4800 X105.504 Y91.362
G1 F1080 X108.139 Y93.997 E36.15699
G0 F4800 X108.139 Y94.562
G1 F1080 X104.938 Y91.362 E36.36022
G0 F4800 X104.373 Y91.362
G1 F1080 X108.139 Y95.128 E36.59936
G0 F4800 X108.139 Y95.694
G1 F1080 X103.807 Y91.362 E36.87444
G0 F4800 X103.241 Y91.362
G1 F1080 X108.139 Y96.259 E37.18543
G0 F4800 X108.139 Y96.825
G1 F1080 X102.676 Y91.362 E37.53233
G0 F4800 X102.11 Y91.362
G1 F1080 X108.139 Y97.391 E37.91517
G0 F4800 X108.139 Y97.956
G1 F1080 X101.544 Y91.362 E38.33392
G0 F4800 X100.979 Y91.362
G1 F1080 X108.139 Y98.522 E38.78858
G0 F4800 X108.139 Y99.088
G1 F1080 X100.413 Y91.362 E39.27918
G0 F4800 X99.847 Y91.362
G1 F1080 X108.139 Y99.653 E39.80569
G0 F4800 X108.139 Y100.219
G1 F1080 X99.282 Y91.362 E40.36811
G0 F4800 X98.716 Y91.362
G1 F1080 X108.139 Y100.785 E40.96646
G0 F4800 X108.139 Y101.351
G1 F1080 X98.15 Y91.362 E41.60076
G0 F4800 X97.584 Y91.362
G1 F1080 X108.139 Y101.916 E42.27097
G0 F4800 X108.139 Y102.482
G1 F1080 X97.019 Y91.362 E42.97709
G0 F4800 X96.453 Y91.362
G1 F1080 X108.139 Y103.048 E43.71915
G0 F4800 X108.139 Y103.613
G1 F1080 X95.887 Y91.362 E44.49712
G0 F4800 X95.322 Y91.362
G1 F1080 X108.139 Y104.179 E45.311
G0 F4800 X108.139 Y104.745
G1 F1080 X94.756 Y91.362 E46.16082
G0 F4800 X94.19 Y91.362
G1 F1080 X108.139 Y105.31 E47.04654
G0 F4800 X108.139 Y105.876
G1 F1080 X93.625 Y91.362 E47.96818
G0 F4800 X93.059 Y91.362
G1 F1080 X108.139 Y106.442 E48.92576
G0 F4800 X108.139 Y107.007
G1 F1080 X92.493 Y91.362 E49.91925
G0 F4800 X91.928 Y91.362
G1 F1080 X108.139 Y107.573 E50.94864
G0 F4800 X107.641 Y107.641
G1 F1080 X91.859 Y91.859 E51.9508
G0 F4800 X91.859 Y92.425
G1 F1080 X107.075 Y107.641 E52.91701
G0 F4800 X106.51 Y107.641
G1 F1080 X91.859 Y92.99 E53.84735
G0 F4800 X91.859 Y93.556
G1 F1080 X105.944 Y107.641 E54.74174
G0 F4800 X105.378 Y107.641
G1 F1080 X91.859 Y94.122 E55.6002
G0 F4800 X91.859 Y94.687
G1 F1080 X104.813 Y107.641 E56.42278
G0 F4800 X104.247 Y107.641
G1 F1080 X91.859 Y95.253 E57.20941
G0 F4800 X91.859 Y95.819
G1 F1080 X103.681 Y107.641 E57.96011
G0 F4800 X103.115 Y107.641
G1 F1080 X91.859 Y96.385 E58.67486
G0 F4800 X91.859 Y96.95
M104 S205
G1 F1080 X102.55 Y107.641 E59.35374
G0 F4800 X101.984 Y107.641
G1 F1080 X91.859 Y97.516 E59.99667
G0 F4800 X91.859 Y98.082
G1 F1080 X101.418 Y107.641 E60.60367
G0 F4800 X100.853 Y107.641
G1 F1080 X91.859 Y98.647 E61.17479
G0 F4800 X91.859 Y99.213
G1 F1080 X100.287 Y107.641 E61.70996
G0 F4800 X99.721 Y107.641
G1 F1080 X91.859 Y99.779 E62.2092
G0 F4800 X91.859 Y100.344
G1 F1080 X99.156 Y107.641 E62.67256
G0 F4800 X98.59 Y107.641
G1 F1080 X91.859 Y100.91 E63.09998
G0 F4800 X91.859 Y101.476
G1 F1080 X98.024 Y107.641 E63.49145
G0 F4800 X97.459 Y107.641
G1 F1080 X91.859 Y102.041 E63.84705
G0 F4800 X91.859 Y102.607
G1 F1080 X96.893 Y107.641 E64.16671
G0 F4800 X96.327 Y107.641
G1 F1080 X91.859 Y103.173 E64.45043
G0 F4800 X91.859 Y103.738
G1 F1080 X95.762 Y107.641 E64.69827
G0 F4800 X95.196 Y107.641
G1 F1080 X91.859 Y104.304 E64.91017
G0 F4800 X91.859 Y104.87
G1 F1080 X94.63 Y107.641 E65.08612
G0 F4800 X94.065 Y107.641
G1 F1080 X91.859 Y105.435 E65.22621
G0 F4800 X91.859 Y106.001
G1 F1080 X93.499 Y107.641 E65.33035
G0 F4800 X92.933 Y107.641
G1 F1080 X91.859 Y106.567 E65.39854
G0 F4800 X91.859 Y107.133
G1 F1080 X92.367 Y107.641 E65.4308
G1 F2400 E64.4308
G1 F600 Z0.8
;MESH:NONMESH
G0 F4800 X90.2 Y89.702 Z0.8
;TIME_ELAPSED:89.580155
;LAYER:1
M140 S60
M106 S255
;MESH:overhang_retraction_test.stl
G0 F5400 X90.2 Y89.702 Z1
;TYPE:WALL-OUTER
G1 F600 Z0.5
G1 F2400 E65.45575
G1 F681.2 X90.2 Y109.302 E66.04246
G1 X109.8 Y109.302 E66.62916
G1 X109.8 Y99.502 E66.92252
G1 X109.8 Y89.702 E67.21587
G1 X90.2 Y89.702 E67.80258
G0 F5400 X90.2 Y89.902
G0 X90.6 Y90.102
;TYPE:WALL-INNER
G1 F855.9 X90.6 Y108.902 E68.36534
G1 X109.4 Y108.902 E68.92811
G1 X109.4 Y99.502 E69.20949
G1 X109.4 Y90.102 E69.49087
G1 X90.6 Y90.102 E70.05363
G0 F5400 X91 Y90.502
G1 F855.9 X91 Y108.502 E70.59244
G1 X109 Y108.502 E71.13126
G1 X109 Y99.502 E71.40066
G1 X109 Y90.502 E71.67007
G1 X91 Y90.502 E72.20889
G0 F5400 X91.26 Y90.762
;TYPE:SKIN
G1 F838.4 X91.26 Y108.242 E72.73213
G1 X108.74 Y108.242 E73.25538
G1 X108.74 Y99.502 E73.51701
G1 X108.74 Y90.762 E73.77863
G1 X91.26 Y90.762 E74.30188
G0 F5400 X91.66 Y91.162
G1 F838.4 X91.66 Y107.842 E74.80118
G1 X108.34 Y107.842 E75.30048
G1 X108.34 Y99.502 E75.55013
G1 X108.34 Y91.162 E75.79978
G1 X91.66 Y91.162 E76.29908
G0 F5400 X91.86 Y91.421
G1 F838.4 X91.92 Y91.361 E76.30162
G0 F5400 X92.486 Y91.361
G1 F838.4 X91.86 Y91.987 E76.32812
G0 F5400 X91.86 Y92.553
G1 F838.4 X93.051 Y91.361 E76.37856
G0 F5400 X93.617 Y91.361
G1 F838.4 X91.86 Y93.118 E76.45294
G0 F5400 X91.86 Y93.684
G1 F838.4 X94.183 Y91.361 E76.55128
G0 F5400 X94.748 Y91.361
G1 F838.4 X91.86 Y94.25 E76.67356
G0 F5400 X91.86 Y94.815
G1 F838.4 X95.314 Y91.361 E76.81978
G0 F5400 X95.88 Y91.361
G1 F838.4 X91.86 Y95.381 E76.98996
G0 F5400 X91.86 Y95.947
G1 F838.4 X96.445 Y91.361 E77.18408
G0 F5400 X97.011 Y91.361
G1 F838.4 X91.86 Y96.513 E77.40216
G0 F5400 X91.86 Y97.078
G1 F838.4 X97.577 Y91.361 E77.64418
G0 F5400 X98.142 Y91.361
G1 F838.4 X91.86 Y97.644 E77.91014
G0 F5400 X91.86 Y98.21
G1 F838.4 X98.708 Y91.361 E78.20006
G0 F5400 X99.274 Y91.361
G1 F838.4 X91.86 Y98.775 E78.51392
G0 F5400 X91.86 Y99.341
G1 F838.4 X99.839 Y91.361 E78.85171
G0 F5400 X100.405 Y91.361
G1 F838.4 X91.86 Y99.907 E79.21347
G0 F5400 X91.86 Y100.472
G1 F838.4 X100.971 Y91.361 E79.59917
G0 F5400 X101.536 Y91.361
G1 F838.4 X91.86 Y101.038 E80.00881
G0 F5400 X91.86 Y101.604
G1 F838.4 X102.102 Y91.361 E80.44241
G0 F5400 X102.668 Y91.361
G1 F838.4 X91.86 Y102.169 E80.89994
G0 F5400 X91.86 Y102.735
G1 F838.4 X103.234 Y91.361 E81.38144
G0 F5400 X103.799 Y91.361
G1 F838.4 X91.86 Y103.301 E81.88688
G0 F5400 X91.86 Y103.866
G1 F838.4 X104.365 Y91.361 E82.41626
G0 F5400 X104.931 Y91.361
G1 F838.4 X91.86 Y104.432 E82.9696
G0 F5400 X91.86 Y104.998
G1 F838.4 X105.496 Y91.361 E83.54687
G0 F5400 X106.062 Y91.361
G1 F838.4 X91.86 Y105.563 E84.14809
G0 F5400 X91.86 Y106.129
G1 F838.4 X106.628 Y91.361 E84.77327
G0 F5400 X107.193 Y91.361
G1 F838.4 X91.86 Y106.695 E85.42238
G0 F5400 X91.86 Y107.261
G1 F838.4 X107.759 Y91.361 E86.09546
G0 F5400 X108.139 Y91.547
G1 F838.4 X92.045 Y107.641 E86.77677
G0 F5400 X92.611 Y107.641
G1 F838.4 X108.139 Y92.113 E87.43412
G0 F5400 X108.139 Y92.679
G1 F838.4 X93.176 Y107.641 E88.06753
G0 F5400 X93.742 Y107.641
G1 F838.4 X108.139 Y93.244 E88.67701
G0 F5400 X108.139 Y93.81
G1 F838.4 X94.308 Y107.641 E89.26252
G0 F5400 X94.873 Y107.641
G1 F838.4 X108.139 Y94.376 E89.82409
G0 F5400 X108.139 Y94.941
G1 F838.4 X95.439 Y107.641 E90.36172
G0 F5400 X96.005 Y107.641
G1 F838.4 X108.139 Y95.507 E90.87539
G0 F5400 X108.139 Y96.073
G1 F838.4 X96.57 Y107.641 E91.36512
G0 F5400 X97.136 Y107.641
G1 F838.4 X108.139 Y96.638 E91.83092
G0 F5400 X108.139 Y97.204
G1 F838.4 X97.702 Y107.641 E92.27275
G0 F5400 X98.268 Y107.641
G1 F838.4 X108.139 Y97.77 E92.69062
G0 F5400 X108.139 Y98.335
G1 F838.4 X98.833 Y107.641 E93.08457
G0 F5400 X99.399 Y107.641
G1 F838.4 X108.139 Y98.901 E93.45457
G0 F5400 X108.139 Y99.467
G1 F838.4 X99.965 Y107.641 E93.8006
G0 F5400 X100.53 Y107.641
G1 F838.4 X108.139 Y100.032 E94.12271
G0 F5400 X108.139 Y100.598
G1 F838.4 X101.096 Y107.641 E94.42086
G0 F5400 X101.662 Y107.641
G1 F838.4 X108.139 Y101.164 E94.69506
G0 F5400 X108.139 Y101.73
G1 F838.4 X102.227 Y107.641 E94.94531
G0 F5400 X102.793 Y107.641
G1 F838.4 X108.139 Y102.295 E95.17162
G0 F5400 X108.139 Y102.861
G1 F838.4 X103.359 Y107.641 E95.37398
G0 F5400 X103.924 Y107.641
G1 F838.4 X108.139 Y103.427 E95.55239
G0 F5400 X108.139 Y103.992
G1 F838.4 X104.49 Y107.641 E95.70686
G0 F5400 X105.056 Y107.641
G1 F838.4 X108.139 Y104.558 E95.83738
G0 F5400 X108.139 Y105.124
G1 F838.4 X105.621 Y107.641 E95.94395
G0 F5400 X106.187 Y107.641
G1 F838.4 X108.139 Y105.689 E96.02659
G0 F5400 X108.139 Y106.255
G1 F838.4 X106.753 Y107.641 E96.08526
G0 F5400 X107.319 Y107.641
G1 F838.4 X108.139 Y106.821 E96.11997
G0 F5400 X108.139 Y107.386
G1 F838.4 X107.884 Y107.641 E96.13077
G1 F2400 E95.13077
G1 F600 Z1
;MESH:NONMESH
G0 F5400 X90.2 Y89.702 Z1
;TIME_ELAPSED:167.492938
;LAYER:2
;MESH:overhang_retraction_test.stl
G0 F6000 X90.2 Y89.702 Z1.2
;TYPE:WALL-OUTER
G1 F600 Z0.7
G1 F2400 E96.15571
G1 F600 X90.2 Y109.302 E96.74242
G1 X109.8 Y109.302 E97.32913
G1 X109.8 Y99.502 E97.62248
G1 X109.8 Y89.702 E97.91584
G1 X90.2 Y89.702 E98.50255
G0 F6000 X90.2 Y89.902
G0 X90.6 Y90.102
;TYPE:WALL-INNER
G1 F885.7 X90.6 Y108.902 E99.06531
G1 X109.4 Y108.902 E99.62807
G1 X109.4 Y99.502 E99.90945
G1 X109.4 Y90.102 E100.19083
G1 X90.6 Y90.102 E100.75359
G0 F6000 X91 Y90.502
G1 F885.7 X91 Y108.502 E101.29241
G1 X109 Y108.502 E101.83122
G1 X109 Y99.502 E102.10063
G1 X109 Y90.502 E102.37004
G1 X91 Y90.502 E102.90885
G0 F6000 X91.26 Y90.762
;TYPE:SKIN
G1 F857.1 X91.26 Y108.242 E103.4321
G1 X108.74 Y108.242 E103.95535
G1 X108.74 Y99.502 E104.21697
G1 X108.74 Y90.762 E104.4786
G1 X91.26 Y90.762 E105.00184
G0 F6000 X91.66 Y91.162
G1 F857.1 X91.66 Y107.842 E105.50115
G1 X108.34 Y107.842 E106.00045
G1 X108.34 Y99.502 E106.2501
G1 X108.34 Y91.162 E106.49975
G1 X91.66 Y91.162 E106.99905
G1 F2400 E105.99905
G1 F600 Z1.2
G0 F6000 X107.767 Y91.362 Z1.2
G1 F600 Z0.7
G1 F2400 E107.02399
G1 F857.1 X108.139 Y91.734 E107.03974
G0 F6000 X108.139 Y92.3
G1 F857.1 X107.201 Y91.362 E107.07945
G0 F6000 X106.635 Y91.362
G1 F857.1 X108.139 Y92.865 E107.1431
G0 F6000 X108.139 Y93.431
G1 F857.1 X106.07 Y91.362 E107.23069
G0 F6000 X105.504 Y91.362
G1 F857.1 X108.139 Y93.997 E107.34223
G0 F6000 X108.139 Y94.562
G1 F857.1 X104.938 Y91.362 E107.47772
G0 F6000 X104.373 Y91.362
G1 F857.1 X108.139 Y95.128 E107.63715
G0 F6000 X108.139 Y95.694
G1 F857.1 X103.807 Y91.362 E107.82054
G0 F6000 X103.241 Y91.362
G1 F857.1 X108.139 Y96.259 E108.02786
G0 F6000 X108.139 Y96.825
G1 F857.1 X102.676 Y91.362 E108.25913
G0 F6000 X102.11 Y91.362
G1 F857.1 X108.139 Y97.391 E108.51436
G0 F6000 X108.139 Y97.956
G1 F857.1 X101.544 Y91.362 E108.79352
G0 F6000 X100.979 Y91.362
G1 F857.1 X108.139 Y98.522 E109.09663
G0 F6000 X108.139 Y99.088
G1 F857.1 X100.413 Y91.362 E109.4237
G0 F6000 X99.847 Y91.362
G1 F857.1 X108.139 Y99.653 E109.7747
G0 F6000 X108.139 Y100.219
G1 F857.1 X99.282 Y91.362 E110.14965
G0 F6000 X98.716 Y91.362
G1 F857.1 X108.139 Y100.785 E110.54855
G0 F6000 X108.139 Y101.351
G1 F857.1 X98.15 Y91.362 E110.97142
G0 F6000 X97.584 Y91.362
G1 F857.1 X108.139 Y101.916 E111.41823
G0 F6000 X108.139 Y102.482
G1 F857.1 X97.019 Y91.362 E111.88897
