;FLAVOR:Marlin
;TIME:4419
;Filament used: 3.45797m, 0m
;Layer height: 0.2
;MINX:4.2
;MINY:3.2
;MINZ:0.3
;MAXX:397.8
;MAXY:396.8
;MAXZ:0.8
;Generated with Cura_SteamEngine 5.0.0
T0
M140 S70
M105
M190 S70
M104 S215
M105
M109 S215
M82 ;absolute extrusion mode
;Sliced at: Tue 07-06-2022 17:26:56
G21 ;metric values
M107
G28
M420 S1
G90 ;absolute positioning
G92 E0; reset extruder distance
G1 X0 Y0 Z5 F5000 ;move nozzle up 5mm for safe homing
G29;ABL
M500
M82 ;set extruder to absolute mode
M107 ;start with the fan off
G1 X0 Y0 Z15.0 F5000 ;move the platform down 15mm
G92 E0 ;zero the extruded length
G1 F200 E3 ;extrude 3mm of feed stock
G1 F200 E0 ;Retract
G4 S2 ;Wait for material to fall
G1 F200 E3
G92 E0 ;zero the extruded length again
M117 Printing...
G92 E0
T0;WIPE
G91
G1 Z-0.5
G1 X -20 F3000
G1 X40
G1 X-20
G1 Z0.5
G90

G92 E0
G1 F2400 E-1
;LAYER_COUNT:1
;LAYER:0
M107
G1 F600 Z0.8
G0 F4800 X4.548 Y3.936 Z0.8
G1 F600 Z0.8
G0 F4800 X4.2 Y5
;TYPE:SKIRT
G1 F600 Z0.3
G1 F2400 E0.02495
G1 F1080 X4.24 Y4.623 E0.04197
G1 X4.358 Y4.263 E0.05898
G1 X4.548 Y3.936 E0.07596
G1 X4.803 Y3.655 E0.093
G1 X5.112 Y3.435 E0.11003
G1 X5.459 Y3.283 E0.12704
G1 X6 Y3.2 E0.15162
G1 X54.75 Y3.2 E2.34055
G1 X55.127 Y3.24 E2.35757
G1 X55.487 Y3.358 E2.37458
G1 X55.814 Y3.548 E2.39156
G1 X56.095 Y3.803 E2.4086
G1 X56.315 Y4.112 E2.42563
G1 X56.467 Y4.459 E2.44264
G1 X56.55 Y5 E2.46722
G1 X56.55 Y65.937 E5.20336
G1 X56.51 Y66.314 E5.22038
G1 X56.392 Y66.674 E5.23739
G1 X56.202 Y67.001 E5.25438
G1 X55.947 Y67.282 E5.27141
G1 X55.638 Y67.502 E5.28845
G1 X55.291 Y67.654 E5.30546
G1 X54.75 Y67.737 E5.33003
G1 X6 Y67.737 E7.51896
G1 X5.623 Y67.697 E7.53599
G1 X5.263 Y67.579 E7.553
G1 X4.936 Y67.389 E7.56998
G1 X4.655 Y67.134 E7.58702
G1 X4.435 Y66.825 E7.60405
G1 X4.283 Y66.478 E7.62106
G1 X4.2 Y65.937 E7.64563
G1 X4.2 Y5 E10.38178
G0 F4800 X4.6 Y5
G1 F1080 X4.64 Y4.668 E10.39679
G1 X4.757 Y4.356 E10.41175
G1 X4.945 Y4.079 E10.42679
G1 X5.193 Y3.856 E10.44176
G1 X5.487 Y3.697 E10.45677
G1 X6 Y3.6 E10.48021
G1 X54.75 Y3.6 E12.66914
G1 X55.082 Y3.64 E12.68416
G1 X55.394 Y3.757 E12.69912
G1 X55.671 Y3.945 E12.71415
G1 X55.894 Y4.193 E12.72913
G1 X56.053 Y4.487 E12.74414
G1 X56.15 Y5 E12.76758
G1 X56.15 Y65.937 E15.50372
G1 X56.11 Y66.269 E15.51874
G1 X55.993 Y66.581 E15.5337
G1 X55.805 Y66.858 E15.54873
G1 X55.557 Y67.081 E15.56371
G1 X55.263 Y67.24 E15.57871
G1 X54.75 Y67.337 E15.60216
G1 X6 Y67.337 E17.79109
G1 X5.668 Y67.297 E17.8061
G1 X5.356 Y67.18 E17.82106
G1 X5.079 Y66.992 E17.8361
G1 X4.856 Y66.744 E17.85107
G1 X4.697 Y66.45 E17.86608
G1 X4.6 Y65.937 E17.88952
G1 X4.6 Y5 E20.62567
G0 F4800 X5 Y5
G1 F1080 X5.04 Y4.721 E20.63832
G1 X5.156 Y4.464 E20.65098
G1 X5.339 Y4.249 E20.66366
G1 X5.575 Y4.095 E20.67631
G1 X6 Y4 E20.69587
G1 X54.75 Y4 E22.8848
G1 X55.029 Y4.04 E22.89745
G1 X55.286 Y4.156 E22.91011
G1 X55.501 Y4.339 E22.92279
G1 X55.655 Y4.575 E22.93545
G1 X55.75 Y5 E22.955
G1 X55.75 Y65.937 E25.69114
G1 X55.71 Y66.216 E25.7038
G1 X55.594 Y66.473 E25.71646
G1 X55.411 Y66.688 E25.72914
G1 X55.175 Y66.842 E25.74179
G1 X54.75 Y66.937 E25.76134
G1 X6 Y66.937 E27.95028
G1 X5.721 Y66.897 E27.96293
G1 X5.464 Y66.781 E27.97559
G1 X5.249 Y66.598 E27.98827
G1 X5.095 Y66.362 E28.00092
G1 X5 Y65.937 E28.02048
G1 X5 Y5 E30.75662
G0 F4800 X5.4 Y5
G1 F1080 X5.44 Y4.785 E30.76644
G1 X5.553 Y4.599 E30.77621
G1 X5.726 Y4.466 E30.78601
G1 X6 Y4.4 E30.79866
G1 X54.75 Y4.4 E32.9876
G1 X54.965 Y4.44 E32.99742
G1 X55.151 Y4.553 E33.00719
G1 X55.284 Y4.726 E33.01699
G1 X55.35 Y5 E33.02964
G1 X55.35 Y65.937 E35.76578
G1 X55.31 Y66.152 E35.7756
G1 X55.197 Y66.338 E35.78538
G1 X55.024 Y66.471 E35.79517
G1 X54.75 Y66.537 E35.80783
G1 X6 Y66.537 E37.99676
G1 X5.785 Y66.497 E38.00658
G1 X5.599 Y66.384 E38.01635
G1 X5.466 Y66.211 E38.02615
G1 X5.4 Y65.937 E38.03881
G1 X5.4 Y5 E40.77495
G0 F4800 X5.8 Y5
G1 F1080 X5.839 Y4.881 E40.78057
G1 X6 Y4.8 E40.78866
G1 X54.75 Y4.8 E42.9776
G1 X54.869 Y4.839 E42.98322
G1 X54.95 Y5 E42.99131
G1 X54.95 Y65.937 E45.72746
G1 X54.911 Y66.056 E45.73308
G1 X54.75 Y66.137 E45.74117
G1 X6 Y66.137 E47.9301
G1 X5.881 Y66.098 E47.93573
G1 X5.8 Y65.937 E47.94382
G1 X5.8 Y5 E50.67996
G1 F2400 E49.67996
G1 F600 Z0.8
G0 F4800 X6 Y167.731 Z0.8
G1 F600 Z0.3
G1 F2400 E50.70491
G1 F1080 X54.75 Y167.731 E52.89384
G1 X55.127 Y167.771 E52.91086
G1 X55.487 Y167.889 E52.92787
G1 X55.814 Y168.079 E52.94485
G1 X56.095 Y168.334 E52.96189
G1 X56.315 Y168.643 E52.97892
G1 X56.467 Y168.99 E52.99593
G1 X56.55 Y169.531 E53.02051
G1 X56.55 Y230.469 E55.7567
G1 X56.51 Y230.846 E55.77372
G1 X56.392 Y231.206 E55.79073
G1 X56.202 Y231.533 E55.80771
G1 X55.947 Y231.814 E55.82475
G1 X55.638 Y232.034 E55.84178
G1 X55.291 Y232.186 E55.85879
G1 X54.75 Y232.269 E55.88337
G1 X6 Y232.269 E58.0723
G1 X5.623 Y232.229 E58.08932
G1 X5.263 Y232.111 E58.10633
G1 X4.936 Y231.921 E58.12332
G1 X4.655 Y231.666 E58.14035
G1 X4.435 Y231.357 E58.15739
G1 X4.283 Y231.01 E58.1744
G1 X4.2 Y230.469 E58.19897
G1 X4.2 Y169.531 E60.93516
G1 X4.24 Y169.154 E60.95218
G1 X4.358 Y168.794 E60.96919
G1 X4.548 Y168.467 E60.98617
G1 X4.803 Y168.186 E61.00321
G1 X5.112 Y167.966 E61.02024
G1 X5.459 Y167.814 E61.03725
G1 X6 Y167.731 E61.06183
G1 F2400 E60.06183
G1 F600 Z0.8
G0 F4800 X5.8 Y169.531 Z0.8
G1 F600 Z0.3
G1 F2400 E61.08677
G1 F1080 X5.839 Y169.412 E61.0924
G1 X6 Y169.331 E61.10049
G1 X54.75 Y169.331 E63.28942
G1 X54.869 Y169.37 E63.29505
G1 X54.95 Y169.531 E63.30314
G1 X54.95 Y230.469 E66.03933
G1 X54.911 Y230.588 E66.04495
G1 X54.75 Y230.669 E66.05304
G1 X6 Y230.669 E68.24197
G1 X5.881 Y230.63 E68.2476
G1 X5.8 Y230.469 E68.25569
G1 X5.8 Y169.531 E70.99188
G0 F4800 X5.4 Y169.531
G1 F1080 X5.44 Y169.316 E71.0017
G1 X5.553 Y169.13 E71.01147
G1 X5.726 Y168.997 E71.02127
G1 X6 Y168.931 E71.03392
G1 X54.75 Y168.931 E73.22285
G1 X54.965 Y168.971 E73.23267
G1 X55.151 Y169.084 E73.24245
G1 X55.284 Y169.257 E73.25224
G1 X55.35 Y169.531 E73.2649
G1 X55.35 Y230.469 E76.00109
G1 X55.31 Y230.684 E76.01091
G1 X55.197 Y230.87 E76.02068
G1 X55.024 Y231.003 E76.03048
G1 X54.75 Y231.069 E76.04313
G1 X6 Y231.069 E78.23206
G1 X5.785 Y231.029 E78.24188
G1 X5.599 Y230.916 E78.25166
G1 X5.466 Y230.743 E78.26145
G1 X5.4 Y230.469 E78.27411
G1 X5.4 Y169.531 E81.0103
G0 F4800 X5 Y169.531
G1 F1080 X5.04 Y169.252 E81.02295
G1 X5.156 Y168.995 E81.03561
G1 X5.339 Y168.78 E81.04829
G1 X5.575 Y168.626 E81.06094
G1 X6 Y168.531 E81.0805
G1 X54.75 Y168.531 E83.26943
G1 X55.029 Y168.571 E83.28209
G1 X55.286 Y168.687 E83.29475
G1 X55.501 Y168.87 E83.30742
G1 X55.655 Y169.106 E83.32008
G1 X55.75 Y169.531 E83.33963
G1 X55.75 Y230.469 E86.07582
G1 X55.71 Y230.748 E86.08847
G1 X55.594 Y231.005 E86.10114
G1 X55.411 Y231.22 E86.11381
G1 X55.175 Y231.374 E86.12647
G1 X54.75 Y231.469 E86.14602
G1 X6 Y231.469 E88.33495
G1 X5.721 Y231.429 E88.34761
G1 X5.464 Y231.313 E88.36027
G1 X5.249 Y231.13 E88.37295
G1 X5.095 Y230.894 E88.3856
G1 X5 Y230.469 E88.40515
G1 X5 Y169.531 E91.14134
G0 F4800 X4.6 Y169.531
G1 F1080 X4.64 Y169.199 E91.15636
G1 X4.757 Y168.887 E91.17132
G1 X4.945 Y168.61 E91.18635
G1 X5.193 Y168.387 E91.20133
G1 X5.487 Y168.228 E91.21633
G1 X6 Y168.131 E91.23978
G1 X54.75 Y168.131 E93.42871
G1 X55.082 Y168.171 E93.44372
G1 X55.394 Y168.288 E93.45868
G1 X55.671 Y168.476 E93.47372
G1 X55.894 Y168.724 E93.48869
G1 X56.053 Y169.018 E93.5037
G1 X56.15 Y169.531 E93.52714
G1 X56.15 Y230.469 E96.26333
G1 X56.11 Y230.801 E96.27835
G1 X55.993 Y231.113 E96.29331
G1 X55.805 Y231.39 E96.30834
G1 X55.557 Y231.613 E96.32331
G1 X55.263 Y231.772 E96.33832
G1 X54.75 Y231.869 E96.36176
G1 X6 Y231.869 E98.5507
G1 X5.668 Y231.829 E98.56571
G1 X5.356 Y231.712 E98.58067
G1 X5.079 Y231.524 E98.59571
G1 X4.856 Y231.276 E98.61068
G1 X4.697 Y230.982 E98.62569
G1 X4.6 Y230.469 E98.64913
G1 X4.6 Y169.531 E101.38532
G1 F2400 E100.38532
G1 F600 Z0.8
G0 F4800 X6 Y332.263 Z0.8
G1 F600 Z0.3
G1 F2400 E101.41026
G1 F1080 X54.75 Y332.263 E103.5992
G1 X55.127 Y332.303 E103.61622
G1 X55.487 Y332.421 E103.63323
G1 X55.814 Y332.611 E103.65021
G1 X56.095 Y332.866 E103.66725
G1 X56.315 Y333.175 E103.68428
G1 X56.467 Y333.522 E103.70129
G1 X56.55 Y334.063 E103.72587
G1 X56.55 Y395 E106.46201
G1 X56.51 Y395.377 E106.47903
G1 X56.392 Y395.737 E106.49604
G1 X56.202 Y396.064 E106.51303
G1 X55.947 Y396.345 E106.53006
G1 X55.638 Y396.565 E106.54709
G1 X55.291 Y396.717 E106.5641
G1 X54.75 Y396.8 E106.58868
G1 X6 Y396.8 E108.77761
G1 X5.623 Y396.76 E108.79464
G1 X5.263 Y396.642 E108.81165
G1 X4.936 Y396.452 E108.82863
G1 X4.655 Y396.197 E108.84567
G1 X4.435 Y395.888 E108.8627
G1 X4.283 Y395.541 E108.87971
G1 X4.2 Y395 E108.90428
G1 X4.2 Y334.063 E111.64043
G1 X4.24 Y333.686 E111.65745
G1 X4.358 Y333.326 E111.67446
G1 X4.548 Y332.999 E111.69144
G1 X4.803 Y332.718 E111.70848
G1 X5.112 Y332.498 E111.72551
G1 X5.459 Y332.346 E111.74252
G1 X6 Y332.263 E111.7671
G1 F2400 E110.7671
G1 F600 Z0.8
G0 F4800 X5.8 Y334.063 Z0.8
G1 F600 Z0.3
G1 F2400 E111.79204
G1 F1080 X5.839 Y333.944 E111.79766
G1 X6 Y333.863 E111.80576
G1 X54.75 Y333.863 E113.99469
G1 X54.869 Y333.902 E114.00031
G1 X54.95 Y334.063 E114.00841
G1 X54.95 Y395 E116.74455
G1 X54.911 Y395.119 E116.75017
G1 X54.75 Y395.2 E116.75826
G1 X6 Y395.2 E118.9472
G1 X5.881 Y395.161 E118.95282
G1 X5.8 Y395 E118.96091
G1 X5.8 Y334.063 E121.69705
G0 F4800 X5.4 Y334.063
G1 F1080 X5.44 Y333.848 E121.70687
G1 X5.553 Y333.662 E121.71665
G1 X5.726 Y333.529 E121.72644
G1 X6 Y333.463 E121.7391
G1 X54.75 Y333.463 E123.92803
G1 X54.965 Y333.503 E123.93785
G1 X55.151 Y333.616 E123.94762
G1 X55.284 Y333.789 E123.95742
G1 X55.35 Y334.063 E123.97008
G1 X55.35 Y395 E126.70622
G1 X55.31 Y395.215 E126.71604
G1 X55.197 Y395.401 E126.72581
G1 X55.024 Y395.534 E126.73561
G1 X54.75 Y395.6 E126.74826
G1 X6 Y395.6 E128.9372
G1 X5.785 Y395.56 E128.94702
G1 X5.599 Y395.447 E128.95679
G1 X5.466 Y395.274 E128.96659
G1 X5.4 Y395 E128.97924
G1 X5.4 Y334.063 E131.71538
G0 F4800 X5 Y334.063
G1 F1080 X5.04 Y333.784 E131.72804
G1 X5.156 Y333.527 E131.7407
G1 X5.339 Y333.312 E131.75338
G1 X5.575 Y333.158 E131.76603
G1 X6 Y333.063 E131.78559
G1 X54.75 Y333.063 E133.97452
G1 X55.029 Y333.103 E133.98717
G1 X55.286 Y333.219 E133.99983
G1 X55.501 Y333.402 E134.01251
G1 X55.655 Y333.638 E134.02516
G1 X55.75 Y334.063 E134.04472
G1 X55.75 Y395 E136.78086
G1 X55.71 Y395.279 E136.79352
G1 X55.594 Y395.536 E136.80618
G1 X55.411 Y395.751 E136.81886
G1 X55.175 Y395.905 E136.83151
G1 X54.75 Y396 E136.85106
G1 X6 Y396 E139.03999
G1 X5.721 Y395.96 E139.05265
G1 X5.464 Y395.844 E139.06531
G1 X5.249 Y395.661 E139.07799
G1 X5.095 Y395.425 E139.09064
G1 X5 Y395 E139.1102
G1 X5 Y334.063 E141.84634
G0 F4800 X4.6 Y334.063
G1 F1080 X4.64 Y333.731 E141.86135
G1 X4.757 Y333.419 E141.87632
G1 X4.945 Y333.142 E141.89135
G1 X5.193 Y332.919 E141.90632
G1 X5.487 Y332.76 E141.92133
G1 X6 Y332.663 E141.94477
G1 X54.75 Y332.663 E144.13371
G1 X55.082 Y332.703 E144.14872
G1 X55.394 Y332.82 E144.16368
G1 X55.671 Y333.008 E144.17871
G1 X55.894 Y333.256 E144.19369
G1 X56.053 Y333.55 E144.2087
G1 X56.15 Y334.063 E144.23214
G1 X56.15 Y395 E146.96828
G1 X56.11 Y395.332 E146.9833
G1 X55.993 Y395.644 E146.99826
G1 X55.805 Y395.921 E147.01329
G1 X55.557 Y396.144 E147.02827
G1 X55.263 Y396.303 E147.04327
G1 X54.75 Y396.4 E147.06672
G1 X6 Y396.4 E149.25565
G1 X5.668 Y396.36 E149.27066
G1 X5.356 Y396.243 E149.28563
G1 X5.079 Y396.055 E149.30066
G1 X4.856 Y395.807 E149.31563
G1 X4.697 Y395.513 E149.33064
G1 X4.6 Y395 E149.35408
G1 X4.6 Y334.063 E152.09023
G1 F2400 E151.09023
G1 F600 Z0.8
G0 F4800 X174.825 Y334.063 Z0.8
G1 F600 Z0.3
G1 F2400 E152.11517
G1 F1080 X174.865 Y333.686 E152.13219
G1 X174.983 Y333.326 E152.14921
G1 X175.173 Y332.999 E152.16619
G1 X175.428 Y332.718 E152.18322
G1 X175.737 Y332.498 E152.20026
G1 X176.084 Y332.346 E152.21727
G1 X176.625 Y332.263 E152.24184
G1 X225.375 Y332.263 E154.43077
G1 X225.752 Y332.303 E154.4478
G1 X226.112 Y332.421 E154.46481
G1 X226.439 Y332.611 E154.48179
G1 X226.72 Y332.866 E154.49883
G1 X226.94 Y333.175 E154.51586
G1 X227.092 Y333.522 E154.53287
G1 X227.175 Y334.063 E154.55744
G1 X227.175 Y395 E157.29359
G1 X227.135 Y395.377 E157.31061
G1 X227.017 Y395.737 E157.32762
G1 X226.827 Y396.064 E157.3446
G1 X226.572 Y396.345 E157.36164
G1 X226.263 Y396.565 E157.37867
G1 X225.916 Y396.717 E157.39568
G1 X225.375 Y396.8 E157.42026
G1 X176.625 Y396.8 E159.60919
G1 X176.248 Y396.76 E159.62621
G1 X175.888 Y396.642 E159.64322
G1 X175.561 Y396.452 E159.66021
G1 X175.28 Y396.197 E159.67724
G1 X175.06 Y395.888 E159.69428
G1 X174.908 Y395.541 E159.71129
G1 X174.825 Y395 E159.73586
G1 X174.825 Y334.063 E162.472
G0 F4800 X175.225 Y334.063
G1 F1080 X175.265 Y333.731 E162.48702
G1 X175.382 Y333.419 E162.50198
G1 X175.57 Y333.142 E162.51701
G1 X175.818 Y332.919 E162.53199
G1 X176.112 Y332.76 E162.547
G1 X176.625 Y332.663 E162.57044
G1 X225.375 Y332.663 E164.75937
G1 X225.707 Y332.703 E164.77439
G1 X226.019 Y332.82 E164.78935
G1 X226.296 Y333.008 E164.80438
G1 X226.519 Y333.256 E164.81935
G1 X226.678 Y333.55 E164.83436
G1 X226.775 Y334.063 E164.85781
G1 X226.775 Y395 E167.59395
G1 X226.735 Y395.332 E167.60896
G1 X226.618 Y395.644 E167.62393
G1 X226.43 Y395.921 E167.63896
G1 X226.182 Y396.144 E167.65393
G1 X225.888 Y396.303 E167.66894
G1 X225.375 Y396.4 E167.69238
G1 X176.625 Y396.4 E169.88132
G1 X176.293 Y396.36 E169.89633
G1 X175.981 Y396.243 E169.91129
G1 X175.704 Y396.055 E169.92632
G1 X175.481 Y395.807 E169.9413
G1 X175.322 Y395.513 E169.95631
G1 X175.225 Y395 E169.97975
G1 X175.225 Y334.063 E172.71589
G0 F4800 X175.625 Y334.063
G1 F1080 X175.665 Y333.784 E172.72855
G1 X175.781 Y333.527 E172.74121
G1 X175.964 Y333.312 E172.75389
G1 X176.2 Y333.158 E172.76654
G1 X176.625 Y333.063 E172.78609
G1 X225.375 Y333.063 E174.97503
G1 X225.654 Y333.103 E174.98768
G1 X225.911 Y333.219 E175.00034
G1 X226.126 Y333.402 E175.01302
G1 X226.28 Y333.638 E175.02567
G1 X226.375 Y334.063 E175.04523
G1 X226.375 Y395 E177.78137
G1 X226.335 Y395.279 E177.79403
G1 X226.219 Y395.536 E177.80669
G1 X226.036 Y395.751 E177.81936
G1 X225.8 Y395.905 E177.83202
G1 X225.375 Y396 E177.85157
G1 X176.625 Y396 E180.0405
G1 X176.346 Y395.96 E180.05316
G1 X176.089 Y395.844 E180.06582
G1 X175.874 Y395.661 E180.0785
G1 X175.72 Y395.425 E180.09115
G1 X175.625 Y395 E180.1107
G1 X175.625 Y334.063 E182.84685
G0 F4800 X176.025 Y334.063
G1 F1080 X176.065 Y333.848 E182.85667
G1 X176.178 Y333.662 E182.86644
G1 X176.351 Y333.529 E182.87624
G1 X176.625 Y333.463 E182.88889
G1 X225.375 Y333.463 E185.07782
G1 X225.59 Y333.503 E185.08764
G1 X225.776 Y333.616 E185.09742
G1 X225.909 Y333.789 E185.10721
G1 X225.975 Y334.063 E185.11987
G1 X225.975 Y395 E187.85601
G1 X225.935 Y395.215 E187.86583
G1 X225.822 Y395.401 E187.8756
G1 X225.649 Y395.534 E187.8854
G1 X225.375 Y395.6 E187.89806
G1 X176.625 Y395.6 E190.08699
G1 X176.41 Y395.56 E190.09681
G1 X176.224 Y395.447 E190.10658
G1 X176.091 Y395.274 E190.11638
G1 X176.025 Y395 E190.12903
G1 X176.025 Y334.063 E192.86518
G0 F4800 X176.425 Y334.063
G1 F1080 X176.464 Y333.944 E192.8708
G1 X176.625 Y333.863 E192.87889
G1 X225.375 Y333.863 E195.06782
G1 X225.494 Y333.902 E195.07345
G1 X225.575 Y334.063 E195.08154
G1 X225.575 Y395 E197.81768
G1 X225.536 Y395.119 E197.82331
G1 X225.375 Y395.2 E197.8314
G1 X176.625 Y395.2 E200.02033
G1 X176.506 Y395.161 E200.02595
G1 X176.425 Y395 E200.03405
G1 X176.425 Y334.063 E202.77019
G1 F2400 E201.77019
G1 F600 Z0.8
G0 F4800 X176.248 Y232.229 Z0.8
G1 F600 Z0.3
G1 F2400 E202.79513
G1 F1080 X175.888 Y232.111 E202.81215
G1 X175.561 Y231.921 E202.82913
G1 X175.28 Y231.666 E202.84616
G1 X175.06 Y231.357 E202.8632
G1 X174.908 Y231.01 E202.88021
G1 X174.825 Y230.469 E202.90478
G1 X174.825 Y169.531 E205.64097
G1 X174.865 Y169.154 E205.65799
G1 X174.983 Y168.794 E205.675
G1 X175.173 Y168.467 E205.69198
G1 X175.428 Y168.186 E205.70902
G1 X175.737 Y167.966 E205.72605
G1 X176.084 Y167.814 E205.74306
G1 X176.625 Y167.731 E205.76764
G1 X225.375 Y167.731 E207.95657
G1 X225.752 Y167.771 E207.9736
G1 X226.112 Y167.889 E207.99061
G1 X226.439 Y168.079 E208.00759
G1 X226.72 Y168.334 E208.02463
G1 X226.94 Y168.643 E208.04166
G1 X227.092 Y168.99 E208.05867
