;FLAVOR:Marlin
;TIME:2300
;Filament used: 0.695564m, 0m
;Layer height: 0.2
;MINX:189.2
;MINY:187.702
;MINZ:0.3
;MAXX:212.8
;MAXY:211.302
;MAXZ:22
;Generated with Cura_SteamEngine 5.0.0
T0
M140 S70
M105
M190 S70
M104 S215
M105
M109 S215
M82 ;absolute extrusion mode
;Sliced at: Tue 07-06-2022 17:26:11
G21 ;metric values
M107
G28
M420 S1
G90 ;absolute positioning
G92 E0; reset extruder distance
G1 X0 Y0 Z5 F5000 ;move nozzle up 5mm for safe homing
G29;ABL
M500
M82 ;set extruder to absolute mode
M107 ;start with the fan off
G1 X0 Y0 Z15.0 F5000 ;move the platform down 15mm
G92 E0 ;zero the extruded length
G1 F200 E3 ;extrude 3mm of feed stock
G1 F200 E0 ;Retract
G4 S2 ;Wait for material to fall
G1 F200 E3
G92 E0 ;zero the extruded length again
M117 Printing...
G92 E0
T0;WIPE
G91
G1 Z-0.5
G1 X -20 F3000
G1 X40
G1 X-20
G1 Z0.5
G90

G92 E0
G1 F2400 E-1
;LAYER_COUNT:110
;LAYER:0
M107
G1 F600 Z0.8
G0 F4800 X189.803 Y188.157 Z0.8
G1 F600 Z0.8
G0 F4800 X189.2 Y189.502
;TYPE:SKIRT
G1 F600 Z0.3
G1 F2400 E0.02495
G1 F1080 X189.24 Y189.125 E0.04197
G1 X189.358 Y188.765 E0.05898
G1 X189.548 Y188.438 E0.07596
G1 X189.803 Y188.157 E0.093
G1 X190.112 Y187.937 E0.11003
G1 X190.459 Y187.785 E0.12704
G1 X191 Y187.702 E0.15162
G1 X211 Y187.702 E1.04964
G1 X211.377 Y187.742 E1.06666
G1 X211.737 Y187.86 E1.08367
G1 X212.064 Y188.05 E1.10065
G1 X212.345 Y188.305 E1.11769
G1 X212.565 Y188.614 E1.13472
G1 X212.717 Y188.961 E1.15173
G1 X212.8 Y189.502 E1.17631
G1 X212.8 Y209.502 E2.07433
G1 X212.76 Y209.879 E2.09136
G1 X212.642 Y210.239 E2.10837
G1 X212.452 Y210.566 E2.12535
G1 X212.197 Y210.847 E2.14239
G1 X211.888 Y211.067 E2.15942
G1 X211.541 Y211.219 E2.17643
G1 X211 Y211.302 E2.201
G1 X191 Y211.302 E3.09903
G1 X190.623 Y211.262 E3.11605
G1 X190.263 Y211.144 E3.13306
G1 X189.936 Y210.954 E3.15004
G1 X189.655 Y210.699 E3.16708
G1 X189.435 Y210.39 E3.18411
G1 X189.283 Y210.043 E3.20112
G1 X189.2 Y209.502 E3.2257
G1 X189.2 Y189.502 E4.12372
G0 F4800 X189.6 Y189.502
G1 F1080 X189.64 Y189.17 E4.13874
G1 X189.757 Y188.858 E4.1537
G1 X189.945 Y188.581 E4.16873
G1 X190.193 Y188.358 E4.1837
G1 X190.487 Y188.199 E4.19871
G1 X191 Y188.102 E4.22215
G1 X211 Y188.102 E5.12018
G1 X211.332 Y188.142 E5.13519
G1 X211.644 Y188.259 E5.15015
G1 X211.921 Y188.447 E5.16519
G1 X212.144 Y188.695 E5.18016
G1 X212.303 Y188.989 E5.19517
G1 X212.4 Y189.502 E5.21861
G1 X212.4 Y209.502 E6.11664
G1 X212.36 Y209.834 E6.13165
G1 X212.243 Y210.146 E6.14661
G1 X212.055 Y210.423 E6.16164
G1 X211.807 Y210.646 E6.17662
G1 X211.513 Y210.805 E6.19163
G1 X211 Y210.902 E6.21507
G1 X191 Y210.902 E7.11309
G1 X190.668 Y210.862 E7.12811
G1 X190.356 Y210.745 E7.14307
G1 X190.079 Y210.557 E7.1581
G1 X189.856 Y210.309 E7.17308
G1 X189.697 Y210.015 E7.18808
G1 X189.6 Y209.502 E7.21153
G1 X189.6 Y189.502 E8.10955
G0 F4800 X190 Y189.502
G1 F1080 X190.04 Y189.223 E8.12221
G1 X190.156 Y188.966 E8.13487
G1 X190.339 Y188.751 E8.14754
G1 X190.575 Y188.597 E8.1602
G1 X191 Y188.502 E8.17975
G1 X211 Y188.502 E9.07777
G1 X211.279 Y188.542 E9.09043
G1 X211.536 Y188.658 E9.10309
G1 X211.751 Y188.841 E9.11577
G1 X211.905 Y189.077 E9.12842
G1 X212 Y189.502 E9.14798
G1 X212 Y209.502 E10.046
G1 X211.96 Y209.781 E10.05865
G1 X211.844 Y210.038 E10.07132
G1 X211.661 Y210.253 E10.08399
G1 X211.425 Y210.407 E10.09665
G1 X211 Y210.502 E10.1162
G1 X191 Y210.502 E11.01422
G1 X190.721 Y210.462 E11.02688
G1 X190.464 Y210.346 E11.03954
G1 X190.249 Y210.163 E11.05222
G1 X190.095 Y209.927 E11.06487
G1 X190 Y209.502 E11.08442
G1 X190 Y189.502 E11.98245
G0 F4800 X190.4 Y189.502
G1 F1080 X190.44 Y189.287 E11.99227
G1 X190.553 Y189.101 E12.00204
G1 X190.726 Y188.968 E12.01184
G1 X191 Y188.902 E12.02449
G1 X211 Y188.902 E12.92252
G1 X211.215 Y188.942 E12.93234
G1 X211.401 Y189.055 E12.94211
G1 X211.534 Y189.228 E12.95191
G1 X211.6 Y189.502 E12.96456
G1 X211.6 Y209.502 E13.86258
G1 X211.56 Y209.717 E13.8724
G1 X211.447 Y209.903 E13.88218
G1 X211.274 Y210.036 E13.89197
G1 X211 Y210.102 E13.90463
G1 X191 Y210.102 E14.80265
G1 X190.785 Y210.062 E14.81247
G1 X190.599 Y209.949 E14.82224
G1 X190.466 Y209.776 E14.83204
G1 X190.4 Y209.502 E14.8447
G1 X190.4 Y189.502 E15.74272
G0 F4800 X190.8 Y189.502
G1 F1080 X190.839 Y189.383 E15.74834
G1 X191 Y189.302 E15.75644
G1 X211 Y189.302 E16.65446
G1 X211.119 Y189.341 E16.66008
G1 X211.2 Y189.502 E16.66817
G1 X211.2 Y209.502 E17.5662
G1 X211.161 Y209.621 E17.57182
G1 X211 Y209.702 E17.57991
G1 X191 Y209.702 E18.47794
G1 X190.881 Y209.663 E18.48356
G1 X190.8 Y209.502 E18.49165
G1 X190.8 Y189.502 E19.38968
;MESH:overhang_retraction_test.stl
G0 F4800 X191.2 Y189.702
;TYPE:WALL-OUTER
G1 F1080 X191.2 Y209.302 E20.26974
G1 X210.8 Y209.302 E21.1498
G1 X210.8 Y199.502 E21.58983
G1 X210.8 Y189.702 E22.02987
G1 X191.2 Y189.702 E22.90993
G0 F4800 X191.2 Y189.902
G0 X191.6 Y190.102
;TYPE:WALL-INNER
G1 F1080 X191.6 Y208.902 E23.75407
G1 X210.4 Y208.902 E24.59821
G1 X210.4 Y199.502 E25.02028
G1 X210.4 Y190.102 E25.44236
G1 X191.6 Y190.102 E26.2865
G0 F4800 X192 Y190.502
G1 F1080 X192 Y208.502 E27.09472
G1 X210 Y208.502 E27.90294
G1 X210 Y199.502 E28.30705
G1 X210 Y190.502 E28.71116
G1 X192 Y190.502 E29.51938
G0 F4800 X192.26 Y190.762
;TYPE:SKIN
G1 F1080 X192.26 Y208.242 E30.30426
G1 X209.74 Y208.242 E31.08913
G1 X209.74 Y199.502 E31.48156
G1 X209.74 Y190.762 E31.874
G1 X192.26 Y190.762 E32.65887
G0 F4800 X192.66 Y191.162
G1 F1080 X192.66 Y207.842 E33.40782
G1 X209.34 Y207.842 E34.15678
G1 X209.34 Y199.502 E34.53125
G1 X209.34 Y191.162 E34.90573
G1 X192.66 Y191.162 E35.65468
G1 F2400 E34.65468
G1 F600 Z0.8
G0 F4800 X208.898 Y191.362 Z0.8
G1 F600 Z0.3
G1 F2400 E35.67963
G1 F1080 X209.139 Y191.603 E35.69493
G0 F4800 X209.139 Y192.168
G1 F1080 X208.332 Y191.362 E35.74614
G0 F4800 X207.767 Y191.362
G1 F1080 X209.139 Y192.734 E35.83326
G0 F4800 X209.139 Y193.3
G1 F1080 X207.201 Y191.362 E35.95633
G0 F4800 X206.635 Y191.362
G1 F1080 X209.139 Y193.866 E36.11533
G0 F4800 X209.139 Y194.431
G1 F1080 X206.07 Y191.362 E36.31021
G0 F4800 X205.504 Y191.362
G1 F1080 X209.139 Y194.997 E36.54103
G0 F4800 X209.139 Y195.563
G1 F1080 X204.938 Y191.362 E36.8078
G0 F4800 X204.372 Y191.362
G1 F1080 X209.139 Y196.128 E37.11047
G0 F4800 X209.139 Y196.694
G1 F1080 X203.807 Y191.362 E37.44905
G0 F4800 X203.241 Y191.362
G1 F1080 X209.139 Y197.26 E37.82357
G0 F4800 X209.139 Y197.825
G1 F1080 X202.675 Y191.362 E38.234
G0 F4800 X202.11 Y191.362
G1 F1080 X209.139 Y198.391 E38.68034
G0 F4800 X209.139 Y198.957
G1 F1080 X201.544 Y191.362 E39.16262
G0 F4800 X200.978 Y191.362
G1 F1080 X209.139 Y199.522 E39.68081
G0 F4800 X209.139 Y200.088
G1 F1080 X200.413 Y191.362 E40.23491
G0 F4800 X199.847 Y191.362
G1 F1080 X209.139 Y200.654 E40.82496
G0 F4800 X209.139 Y201.219
G1 F1080 X199.281 Y191.362 E41.45091
G0 F4800 X198.716 Y191.362
G1 F1080 X209.139 Y201.785 E42.11276
G0 F4800 X209.139 Y202.351
G1 F1080 X198.15 Y191.362 E42.81056
G0 F4800 X197.584 Y191.362
G1 F1080 X209.139 Y202.917 E43.54431
G0 F4800 X209.139 Y203.482
G1 F1080 X197.019 Y191.362 E44.31392
G0 F4800 X196.453 Y191.362
G1 F1080 X209.139 Y204.048 E45.11948
G0 F4800 X209.139 Y204.614
G1 F1080 X195.887 Y191.362 E45.96098
G0 F4800 X195.321 Y191.362
G1 F1080 X209.139 Y205.179 E46.83839
G0 F4800 X209.139 Y205.745
G1 F1080 X194.756 Y191.362 E47.75171
G0 F4800 X194.19 Y191.362
G1 F1080 X209.139 Y206.311 E48.70097
G0 F4800 X209.139 Y206.876
G1 F1080 X193.624 Y191.362 E49.68614
G0 F4800 X193.059 Y191.362
G1 F1080 X209.139 Y207.442 E50.70722
G0 F4800 X208.772 Y207.641
G1 F1080 X192.859 Y191.727 E51.71772
G0 F4800 X192.859 Y192.293
G1 F1080 X208.206 Y207.641 E52.69229
G0 F4800 X207.641 Y207.641
G1 F1080 X192.859 Y192.859 E53.63094
G0 F4800 X192.859 Y193.424
G1 F1080 X207.075 Y207.641 E54.53369
G0 F4800 X206.509 Y207.641
G1 F1080 X192.859 Y193.99 E55.40049
G0 F4800 X192.859 Y194.556
G1 F1080 X205.944 Y207.641 E56.23139
G0 F4800 X205.378 Y207.641
G1 F1080 X192.859 Y195.121 E57.02637
G0 F4800 X192.859 Y195.687
G1 F1080 X204.812 Y207.641 E57.78542
G0 F4800 X204.247 Y207.641
G1 F1080 X192.859 Y196.253 E58.50856
G0 F4800 X192.859 Y196.818
G1 F1080 X203.681 Y207.641 E59.19578
G0 F4800 X203.115 Y207.641
M104 S205
G1 F1080 X192.859 Y197.384 E59.84707
G0 F4800 X192.859 Y197.95
G1 F1080 X202.55 Y207.641 E60.46245
G0 F4800 X201.984 Y207.641
G1 F1080 X192.859 Y198.515 E61.04191
G0 F4800 X192.859 Y199.081
G1 F1080 X201.418 Y207.641 E61.58544
G0 F4800 X200.852 Y207.641
G1 F1080 X192.859 Y199.647 E62.09303
G0 F4800 X192.859 Y200.213
G1 F1080 X200.287 Y207.641 E62.5647
G0 F4800 X199.721 Y207.641
G1 F1080 X192.859 Y200.778 E63.00047
G0 F4800 X192.859 Y201.344
G1 F1080 X199.155 Y207.641 E63.4003
G0 F4800 X198.59 Y207.641
G1 F1080 X192.859 Y201.91 E63.76422
G0 F4800 X192.859 Y202.475
G1 F1080 X198.024 Y207.641 E64.09223
G0 F4800 X197.458 Y207.641
G1 F1080 X192.859 Y203.041 E64.38429
G0 F4800 X192.859 Y203.607
G1 F1080 X196.893 Y207.641 E64.64045
G0 F4800 X196.327 Y207.641
G1 F1080 X192.859 Y204.172 E64.8607
G0 F4800 X192.859 Y204.738
G1 F1080 X195.761 Y207.641 E65.04501
G0 F4800 X195.196 Y207.641
G1 F1080 X192.859 Y205.304 E65.19341
G0 F4800 X192.859 Y205.869
G1 F1080 X194.63 Y207.641 E65.3059
G0 F4800 X194.064 Y207.641
G1 F1080 X192.859 Y206.435 E65.38245
G0 F4800 X192.859 Y207.001
G1 F1080 X193.499 Y207.641 E65.42309
G0 F4800 X192.933 Y207.641
G1 F1080 X192.859 Y207.566 E65.42782
G1 F2400 E64.42782
G1 F600 Z0.8
;MESH:NONMESH
G0 F4800 X191.2 Y189.702 Z0.8
;TIME_ELAPSED:91.759802
;LAYER:1
M140 S60
M106 S255
;MESH:overhang_retraction_test.stl
G0 F5400 X191.2 Y189.702 Z1
;TYPE:WALL-OUTER
G1 F600 Z0.5
G1 F2400 E65.45276
G1 F681.3 X191.2 Y209.302 E66.03947
G1 X210.8 Y209.302 E66.62618
G1 X210.8 Y199.502 E66.91953
G1 X210.8 Y189.702 E67.21289
G1 X191.2 Y189.702 E67.7996
G0 F5400 X191.2 Y189.902
G0 X191.6 Y190.102
;TYPE:WALL-INNER
G1 F856 X191.6 Y208.902 E68.36236
G1 X210.4 Y208.902 E68.92512
G1 X210.4 Y199.502 E69.2065
G1 X210.4 Y190.102 E69.48788
G1 X191.6 Y190.102 E70.05064
G0 F5400 X192 Y190.502
G1 F856 X192 Y208.502 E70.58946
G1 X210 Y208.502 E71.12827
G1 X210 Y199.502 E71.39768
G1 X210 Y190.502 E71.66709
G1 X192 Y190.502 E72.2059
G0 F5400 X192.26 Y190.762
;TYPE:SKIN
G1 F838.5 X192.26 Y208.242 E72.72915
G1 X209.74 Y208.242 E73.2524
G1 X209.74 Y199.502 E73.51402
G1 X209.74 Y190.762 E73.77565
G1 X192.26 Y190.762 E74.29889
G0 F5400 X192.66 Y191.162
G1 F838.5 X192.66 Y207.842 E74.7982
G1 X209.34 Y207.842 E75.2975
G1 X209.34 Y199.502 E75.54715
G1 X209.34 Y191.162 E75.7968
G1 X192.66 Y191.162 E76.2961
G0 F5400 X193.304 Y191.361
G1 F838.5 X192.859 Y191.806 E76.31494
G0 F5400 X192.859 Y192.371
G1 F838.5 X193.87 Y191.361 E76.35772
G0 F5400 X194.435 Y191.361
G1 F838.5 X192.859 Y192.937 E76.42443
G0 F5400 X192.859 Y193.503
G1 F838.5 X195.001 Y191.361 E76.51511
G0 F5400 X195.567 Y191.361
G1 F838.5 X192.859 Y194.068 E76.62973
G0 F5400 X192.859 Y194.634
G1 F838.5 X196.133 Y191.361 E76.76831
G0 F5400 X196.698 Y191.361
G1 F838.5 X192.859 Y195.2 E76.93082
G0 F5400 X192.859 Y195.766
G1 F838.5 X197.264 Y191.361 E77.1173
G0 F5400 X197.83 Y191.361
G1 F838.5 X192.859 Y196.331 E77.32772
G0 F5400 X192.859 Y196.897
G1 F838.5 X198.395 Y191.361 E77.56207
G0 F5400 X198.961 Y191.361
G1 F838.5 X192.859 Y197.463 E77.82039
G0 F5400 X192.859 Y198.028
G1 F838.5 X199.527 Y191.361 E78.10265
G0 F5400 X200.092 Y191.361
G1 F838.5 X192.859 Y198.594 E78.40885
G0 F5400 X192.859 Y199.16
G1 F838.5 X200.658 Y191.361 E78.739
G0 F5400 X201.224 Y191.361
G1 F838.5 X192.859 Y199.725 E79.0931
G0 F5400 X192.859 Y200.291
G1 F838.5 X201.789 Y191.361 E79.47113
G0 F5400 X202.355 Y191.361
G1 F838.5 X192.859 Y200.857 E79.87313
G0 F5400 X192.859 Y201.422
G1 F838.5 X202.921 Y191.361 E80.29907
G0 F5400 X203.486 Y191.361
G1 F838.5 X192.859 Y201.988 E80.74894
G0 F5400 X192.859 Y202.554
G1 F838.5 X204.052 Y191.361 E81.22278
G0 F5400 X204.618 Y191.361
G1 F838.5 X192.859 Y203.119 E81.72055
G0 F5400 X192.859 Y203.685
G1 F838.5 X205.184 Y191.361 E82.24229
G0 F5400 X205.749 Y191.361
G1 F838.5 X192.859 Y204.251 E82.78797
G0 F5400 X192.859 Y204.817
G1 F838.5 X206.315 Y191.361 E83.3576
G0 F5400 X206.881 Y191.361
G1 F838.5 X192.859 Y205.382 E83.95118
G0 F5400 X192.859 Y205.948
G1 F838.5 X207.446 Y191.361 E84.56869
G0 F5400 X208.012 Y191.361
G1 F838.5 X192.859 Y206.514 E85.21017
G0 F5400 X192.859 Y207.079
G1 F838.5 X208.578 Y191.361 E85.87558
G0 F5400 X209.138 Y191.366
G1 F838.5 X192.863 Y207.641 E86.56456
G0 F5400 X193.429 Y207.641
G1 F838.5 X209.138 Y191.932 E87.22957
G0 F5400 X209.138 Y192.497
G1 F838.5 X193.994 Y207.641 E87.87066
G0 F5400 X194.56 Y207.641
G1 F838.5 X209.138 Y193.063 E88.4878
G0 F5400 X209.138 Y193.629
G1 F838.5 X195.126 Y207.641 E89.08097
G0 F5400 X195.691 Y207.641
G1 F838.5 X209.138 Y194.194 E89.65023
G0 F5400 X209.138 Y194.76
G1 F838.5 X196.257 Y207.641 E90.19552
G0 F5400 X196.823 Y207.641
G1 F838.5 X209.138 Y195.326 E90.71685
G0 F5400 X209.138 Y195.891
G1 F838.5 X197.388 Y207.641 E91.21427
G0 F5400 X197.954 Y207.641
G1 F838.5 X209.138 Y196.457 E91.68772
G0 F5400 X209.138 Y197.023
G1 F838.5 X198.52 Y207.641 E92.13722
G0 F5400 X199.085 Y207.641
G1 F838.5 X209.138 Y197.588 E92.56279
G0 F5400 X209.138 Y198.154
G1 F838.5 X199.651 Y207.641 E92.96441
G0 F5400 X200.217 Y207.641
G1 F838.5 X209.138 Y198.72 E93.34207
G0 F5400 X209.138 Y199.286
G1 F838.5 X200.782 Y207.641 E93.69578
G0 F5400 X201.348 Y207.641
G1 F838.5 X209.138 Y199.851 E94.02556
G0 F5400 X209.138 Y200.417
G1 F838.5 X201.914 Y207.641 E94.33137
G0 F5400 X202.48 Y207.641
G1 F838.5 X209.138 Y200.983 E94.61323
G0 F5400 X209.138 Y201.548
G1 F838.5 X203.045 Y207.641 E94.87116
G0 F5400 X203.611 Y207.641
G1 F838.5 X209.138 Y202.114 E95.10514
G0 F5400 X209.138 Y202.68
G1 F838.5 X204.177 Y207.641 E95.31515
G0 F5400 X204.742 Y207.641
G1 F838.5 X209.138 Y203.245 E95.50125
G0 F5400 X209.138 Y203.811
G1 F838.5 X205.308 Y207.641 E95.66339
G0 F5400 X205.874 Y207.641
G1 F838.5 X209.138 Y204.377 E95.80156
G0 F5400 X209.138 Y204.942
G1 F838.5 X206.439 Y207.641 E95.91582
G0 F5400 X207.005 Y207.641
G1 F838.5 X209.138 Y205.508 E96.00612
G0 F5400 X209.138 Y206.074
G1 F838.5 X207.571 Y207.641 E96.07245
G0 F5400 X208.136 Y207.641
G1 F838.5 X209.138 Y206.639 E96.11487
G0 F5400 X209.138 Y207.205
G1 F838.5 X208.702 Y207.641 E96.13333
G1 F2400 E95.13333
G1 F600 Z1
;MESH:NONMESH
G0 F5400 X191.2 Y189.702 Z1
;TIME_ELAPSED:169.998176
;LAYER:2
;MESH:overhang_retraction_test.stl
G0 F6000 X191.2 Y189.702 Z1.2
;TYPE:WALL-OUTER
G1 F600 Z0.7
G1 F2400 E96.15827
G1 F600 X191.2 Y209.302 E96.74498
G1 X210.8 Y209.302 E97.33169
G1 X210.8 Y199.502 E97.62505
G1 X210.8 Y189.702 E97.9184
G1 X191.2 Y189.702 E98.50511
G0 F6000 X191.2 Y189.902
G0 X191.6 Y190.102
;TYPE:WALL-INNER
G1 F885.7 X191.6 Y208.902 E99.06787
G1 X210.4 Y208.902 E99.63063
G1 X210.4 Y199.502 E99.91201
G1 X210.4 Y190.102 E100.19339
G1 X191.6 Y190.102 E100.75615
G0 F6000 X192 Y190.502
G1 F885.7 X192 Y208.502 E101.29497
G1 X210 Y208.502 E101.83378
G1 X210 Y199.502 E102.10319
G1 X210 Y190.502 E102.3726
G1 X192 Y190.502 E102.91141
G0 F6000 X192.26 Y190.762
;TYPE:SKIN
G1 F857.1 X192.26 Y208.242 E103.43466
G1 X209.74 Y208.242 E103.95791
G1 X209.74 Y199.502 E104.21953
G1 X209.74 Y190.762 E104.48116
G1 X192.26 Y190.762 E105.00441
G0 F6000 X192.66 Y191.162
G1 F857.1 X192.66 Y207.842 E105.50371
G1 X209.34 Y207.842 E106.00301
G1 X209.34 Y199.502 E106.25266
G1 X209.34 Y191.162 E106.50231
G1 X192.66 Y191.162 E107.00161
G1 F2400 E106.00161
G1 F600 Z1.2
G0 F6000 X208.898 Y191.362 Z1.2
G1 F600 Z0.7
G1 F2400 E107.02656
G1 F857.1 X209.139 Y191.603 E107.03676
G0 F6000 X209.139 Y192.168
G1 F857.1 X208.332 Y191.362 E107.0709
G0 F6000 X207.767 Y191.362
G1 F857.1 X209.139 Y192.734 E107.12898
G0 F6000 X209.139 Y193.3
G1 F857.1 X207.201 Y191.362 E107.21102
G0 F6000 X206.635 Y191.362
G1 F857.1 X209.139 Y193.866 E107.31702
G0 F6000 X209.139 Y194.431
G1 F857.1 X206.07 Y191.362 E107.44695
G0 F6000 X205.504 Y191.362
G1 F857.1 X209.139 Y194.997 E107.60083
G0 F6000 X209.139 Y195.563
G1 F857.1 X204.938 Y191.362 E107.77867
G0 F6000 X204.372 Y191.362
G1 F857.1 X209.139 Y196.128 E107.98045
G0 F6000 X209.139 Y196.694
G1 F857.1 X203.807 Y191.362 E108.20617
G0 F6000 X203.241 Y191.362
