;FLAVOR:Marlin
;TIME:5054
;Filament used: 1.85493m, 0m
;Layer height: 0.2
;MINX:174.55
;MINY:173.55
;MINZ:0.3
;MAXX:227.45
;MAXY:226.45
;MAXZ:16.6
;Generated with Cura_SteamEngine 5.0.0
T0
M140 S70
M105
M190 S70
M104 S215
M105
M109 S215
M82 ;absolute extrusion mode
;Sliced at: Tue 07-06-2022 17:27:41
G21 ;metric values
M107
G28
M420 S1
G90 ;absolute positioning
G92 E0; reset extruder distance
G1 X0 Y0 Z5 F5000 ;move nozzle up 5mm for safe homing
G29;ABL
M500
M82 ;set extruder to absolute mode
M107 ;start with the fan off
G1 X0 Y0 Z15.0 F5000 ;move the platform down 15mm
G92 E0 ;zero the extruded length
G1 F200 E3 ;extrude 3mm of feed stock
G1 F200 E0 ;Retract
G4 S2 ;Wait for material to fall
G1 F200 E3
G92 E0 ;zero the extruded length again
M117 Printing...
G92 E0
T0;WIPE
G91
G1 Z-0.5
G1 X -20 F3000
G1 X40
G1 X-20
G1 Z0.5
G90

G92 E0
G1 F2400 E-1
;LAYER_COUNT:80
;LAYER:0
M107
G1 F600 Z0.8
G0 F4800 X175.153 Y174.005 Z0.8
G1 F600 Z0.8
G0 F4800 X174.55 Y175.35
;TYPE:SKIRT
G1 F600 Z0.3
G1 F2400 E0.02495
G1 F1080 X174.59 Y174.973 E0.04197
G1 X174.708 Y174.613 E0.05898
G1 X174.898 Y174.286 E0.07596
G1 X175.153 Y174.005 E0.093
G1 X175.462 Y173.785 E0.11003
G1 X175.809 Y173.633 E0.12704
G1 X176.35 Y173.55 E0.15162
G1 X225.65 Y173.55 E2.36524
G1 X226.027 Y173.59 E2.38227
G1 X226.387 Y173.708 E2.39928
G1 X226.714 Y173.898 E2.41626
G1 X226.995 Y174.153 E2.4333
G1 X227.215 Y174.462 E2.45033
G1 X227.367 Y174.809 E2.46734
G1 X227.45 Y175.35 E2.49191
G1 X227.45 Y224.65 E4.70554
G1 X227.41 Y225.027 E4.72256
G1 X227.292 Y225.387 E4.73958
G1 X227.102 Y225.714 E4.75656
G1 X226.847 Y225.995 E4.77359
G1 X226.538 Y226.215 E4.79063
G1 X226.191 Y226.367 E4.80764
G1 X225.65 Y226.45 E4.83221
G1 X176.35 Y226.45 E7.04584
G1 X175.973 Y226.41 E7.06286
G1 X175.613 Y226.292 E7.07987
G1 X175.286 Y226.102 E7.09685
G1 X175.005 Y225.847 E7.11389
G1 X174.785 Y225.538 E7.13092
G1 X174.633 Y225.191 E7.14793
G1 X174.55 Y224.65 E7.17251
G1 X174.55 Y175.35 E9.38614
G0 F4800 X174.95 Y175.35
G1 F1080 X174.99 Y175.018 E9.40115
G1 X175.107 Y174.706 E9.41612
G1 X175.295 Y174.429 E9.43115
G1 X175.543 Y174.206 E9.44612
G1 X175.837 Y174.047 E9.46113
G1 X176.35 Y173.95 E9.48457
G1 X225.65 Y173.95 E11.6982
G1 X225.982 Y173.99 E11.71322
G1 X226.294 Y174.107 E11.72818
G1 X226.571 Y174.295 E11.74321
G1 X226.794 Y174.543 E11.75818
G1 X226.953 Y174.837 E11.77319
G1 X227.05 Y175.35 E11.79663
G1 X227.05 Y224.65 E14.01026
G1 X227.01 Y224.982 E14.02528
G1 X226.893 Y225.294 E14.04024
G1 X226.705 Y225.571 E14.05527
G1 X226.457 Y225.794 E14.07025
G1 X226.163 Y225.953 E14.08525
G1 X225.65 Y226.05 E14.1087
G1 X176.35 Y226.05 E16.32233
G1 X176.018 Y226.01 E16.33734
G1 X175.706 Y225.893 E16.3523
G1 X175.429 Y225.705 E16.36733
G1 X175.206 Y225.457 E16.38231
G1 X175.047 Y225.163 E16.39732
G1 X174.95 Y224.65 E16.42076
G1 X174.95 Y175.35 E18.63439
G0 F4800 X175.35 Y175.35
G1 F1080 X175.39 Y175.071 E18.64704
G1 X175.506 Y174.814 E18.6597
G1 X175.689 Y174.599 E18.67238
G1 X175.925 Y174.445 E18.68503
G1 X176.35 Y174.35 E18.70459
G1 X225.65 Y174.35 E20.91822
G1 X225.929 Y174.39 E20.93087
G1 X226.186 Y174.506 E20.94353
G1 X226.401 Y174.689 E20.95621
G1 X226.555 Y174.925 E20.96886
G1 X226.65 Y175.35 E20.98842
G1 X226.65 Y224.65 E23.20205
G1 X226.61 Y224.929 E23.2147
G1 X226.494 Y225.186 E23.22736
G1 X226.311 Y225.401 E23.24004
G1 X226.075 Y225.555 E23.25269
G1 X225.65 Y225.65 E23.27225
G1 X176.35 Y225.65 E25.48587
G1 X176.071 Y225.61 E25.49853
G1 X175.814 Y225.494 E25.51119
G1 X175.599 Y225.311 E25.52387
G1 X175.445 Y225.075 E25.53652
G1 X175.35 Y224.65 E25.55607
G1 X175.35 Y175.35 E27.7697
G0 F4800 X175.75 Y175.35
G1 F1080 X175.79 Y175.135 E27.77952
G1 X175.903 Y174.949 E27.78929
G1 X176.076 Y174.816 E27.79909
G1 X176.35 Y174.75 E27.81175
G1 X225.65 Y174.75 E30.02538
G1 X225.865 Y174.79 E30.0352
G1 X226.051 Y174.903 E30.04497
G1 X226.184 Y175.076 E30.05477
G1 X226.25 Y175.35 E30.06742
G1 X226.25 Y224.65 E32.28105
G1 X226.21 Y224.865 E32.29087
G1 X226.097 Y225.051 E32.30064
G1 X225.924 Y225.184 E32.31044
G1 X225.65 Y225.25 E32.32309
G1 X176.35 Y225.25 E34.53672
G1 X176.135 Y225.21 E34.54654
G1 X175.949 Y225.097 E34.55631
G1 X175.816 Y224.924 E34.56611
G1 X175.75 Y224.65 E34.57877
G1 X175.75 Y175.35 E36.79239
G0 F4800 X176.15 Y175.35
G1 F1080 X176.189 Y175.231 E36.79802
G1 X176.35 Y175.15 E36.80611
G1 X225.65 Y175.15 E39.01974
G1 X225.769 Y175.189 E39.02536
G1 X225.85 Y175.35 E39.03345
G1 X225.85 Y224.65 E41.24708
G1 X225.811 Y224.769 E41.2527
G1 X225.65 Y224.85 E41.2608
G1 X176.35 Y224.85 E43.47442
G1 X176.231 Y224.811 E43.48005
G1 X176.15 Y224.65 E43.48814
G1 X176.15 Y175.35 E45.70177
;MESH:XY_resonance_1.0mm_walls.stl
G0 F4800 X176.551 Y175.551
;TYPE:WALL-OUTER
G1 F1080 X176.55 Y218.197 E47.61662
G1 X176.551 Y224.449 E47.89735
G1 X225.45 Y224.45 E50.09297
G1 X225.45 Y181.003 E52.04379
G1 X225.45 Y175.55 E52.28864
G1 X176.551 Y175.551 E54.48426
G0 F4800 X176.551 Y175.751
G0 X176.951 Y175.951
;TYPE:WALL-INNER
G1 F1080 X176.95 Y218.197 E56.38116
G1 X176.951 Y224.049 E56.64392
G1 X225.05 Y224.05 E58.80362
G1 X225.05 Y181.003 E60.73648
G1 X225.05 Y175.95 E60.96337
G1 X176.951 Y175.951 E63.12307
G0 F4800 X177.351 Y176.351
G1 F1080 X177.35 Y218.197 E65.002
G1 X177.351 Y223.649 E65.2468
G1 X224.65 Y223.65 E67.37059
G1 X224.65 Y181.003 E69.28549
G1 X224.65 Y176.35 E69.49441
G1 X177.351 Y176.351 E71.61819
G1 F2400 E70.61819
G1 F600 Z0.8
G0 F4800 X216.033 Y215.198 Z0.8
;TYPE:WALL-OUTER
G1 F600 Z0.3
G1 F2400 E71.64314
G1 F1080 X216 Y215.2 E71.64462
G1 X186 Y215.2 E72.99166
G1 X185.858 Y215.142 E72.99854
G1 X185.8 Y215 E73.00543
G1 X185.8 Y185 E74.35247
G1 X185.858 Y184.858 E74.35935
G1 X186 Y184.8 E74.36624
G1 X216 Y184.8 E75.71328
G1 X216.142 Y184.858 E75.72016
G1 X216.2 Y185 E75.72705
G1 X216.2 Y215 E77.07409
G1 X216.142 Y215.142 E77.08097
G1 X216.033 Y215.198 E77.08648
G0 F4800 X216 Y215.2
G0 X215.833 Y215.2
G1 F2400 E76.08648
G1 F600 Z0.8
G0 F4800 X185.4 Y185 Z0.8
;TYPE:WALL-INNER
G1 F600 Z0.3
G1 F2400 E77.11142
G1 F1080 X185.469 Y184.719 E77.12441
G1 X185.641 Y184.518 E77.13629
G1 X185.901 Y184.408 E77.14897
G1 X186 Y184.4 E77.15343
G1 X216 Y184.4 E78.50046
G1 X216.281 Y184.469 E78.51346
G1 X216.482 Y184.641 E78.52533
G1 X216.592 Y184.901 E78.53801
G1 X216.6 Y185 E78.54247
G1 X216.6 Y215 E79.88951
G1 X216.531 Y215.281 E79.9025
G1 X216.359 Y215.482 E79.91438
G1 X216.099 Y215.592 E79.92705
G1 X216 Y215.6 E79.93151
G1 X186 Y215.6 E81.27855
G1 X185.719 Y215.531 E81.29154
G1 X185.518 Y215.359 E81.30342
G1 X185.408 Y215.099 E81.31609
G1 X185.4 Y215 E81.32055
G1 X185.4 Y185 E82.66759
G1 F2400 E81.66759
G1 F600 Z0.8
G0 F4800 X185.197 Y215.598 Z0.8
G1 F600 Z0.3
G1 F2400 E82.69253
G1 F1080 X185.053 Y215.323 E82.70647
G1 X185 Y215 E82.72117
G1 X185 Y185 E84.06821
G1 X185.053 Y184.677 E84.0829
G1 X185.197 Y184.402 E84.09684
G1 X185.402 Y184.197 E84.10986
G1 X185.677 Y184.053 E84.1238
G1 X186 Y184 E84.13849
G1 X216 Y184 E85.48553
G1 X216.323 Y184.053 E85.50023
G1 X216.598 Y184.197 E85.51416
G1 X216.803 Y184.402 E85.52718
G1 X216.947 Y184.677 E85.54112
G1 X217 Y185 E85.55582
G1 X217 Y215 E86.90285
G1 X216.947 Y215.323 E86.91755
G1 X216.803 Y215.598 E86.93149
G1 X216.598 Y215.803 E86.94451
G1 X216.323 Y215.947 E86.95844
G1 X216.165 Y215.987 E86.96576
G1 X216 Y216 E86.97319
G1 X186 Y216 E88.32023
G1 X185.677 Y215.947 E88.33493
G1 X185.402 Y215.803 E88.34886
G1 X185.197 Y215.598 E88.36188
G1 F2400 E87.36188
G1 F600 Z0.8
G0 F4800 X185.007 Y184.226 Z0.8
;TYPE:SKIN
G1 F600 Z0.3
G1 F2400 E88.38683
G1 F1080 X185.274 Y183.972 E88.40337
G1 X185.623 Y183.799 E88.42086
G1 X186.013 Y183.74 E88.43857
G1 X215.989 Y183.74 E89.78453
G1 X216.44 Y183.82 E89.8051
G1 X216.774 Y184.007 E89.82229
G1 X216.993 Y184.226 E89.83619
G1 X217.201 Y184.622 E89.85628
G1 X217.26 Y185.011 E89.87394
G1 X217.26 Y214.989 E91.21999
G1 X217.18 Y215.439 E91.24051
G1 X216.993 Y215.774 E91.25774
G1 X216.726 Y216.028 E91.27429
G1 X216.377 Y216.201 E91.29178
G1 X215.987 Y216.26 E91.30949
G1 X186.011 Y216.26 E92.65545
G1 X185.56 Y216.18 E92.67601
G1 X185.226 Y215.993 E92.6932
G1 X184.972 Y215.726 E92.70975
G1 X184.799 Y215.377 E92.72724
G1 X184.74 Y214.989 E92.74486
G1 X184.74 Y185.011 E94.09091
G1 X184.82 Y184.56 E94.11147
G1 X185.007 Y184.226 E94.12866
G1 F2400 E93.12866
G1 F600 Z0.8
G0 F4800 X177.612 Y176.612 Z0.8
G1 F600 Z0.3
G1 F2400 E94.15361
G1 F1080 X177.612 Y223.388 E96.2539
G1 X224.39 Y223.39 E98.35429
G1 X224.39 Y181.008 E100.25729
G1 X224.39 Y176.61 E100.45477
G1 X182.008 Y176.611 E102.35777
G1 X177.612 Y176.612 E102.55516
G0 F4800 X178.012 Y177.012
G1 F1080 X178.012 Y222.988 E104.61953
G1 X223.99 Y222.99 E106.684
G1 X223.99 Y181.008 E108.56904
G1 X223.99 Y177.01 E108.74856
G1 X182.008 Y177.011 E110.6336
G1 X178.012 Y177.012 E110.81302
G1 F2400 E109.81302
G1 F600 Z0.8
G0 F4800 X216.991 Y183.667 Z0.8
G1 F600 Z0.3
G1 F2400 E110.83797
G1 F1080 X217.276 Y183.943 E110.85578
G1 X217.533 Y184.372 E110.87824
G1 X217.653 Y184.916 E110.90325
G1 X217.66 Y185.011 E110.90753
G1 X217.66 Y214.989 E112.25357
G1 X217.573 Y215.537 E112.27849
G1 X217.333 Y215.991 E112.30155
G1 X216.991 Y216.333 E112.32326
G1 X216.537 Y216.572 E112.3463
G1 X215.987 Y216.66 E112.37131
G1 X186.011 Y216.66 E113.71727
G1 X185.461 Y216.572 E113.74228
G1 X185.009 Y216.333 E113.76524
G1 X184.667 Y215.991 E113.78695
G1 X184.428 Y215.537 E113.80999
G1 X184.34 Y214.989 E113.83491
G1 X184.34 Y185.011 E115.18096
G1 X184.428 Y184.461 E115.20597
G1 X184.667 Y184.009 E115.22893
G1 X185.009 Y183.667 E115.25064
G1 X185.463 Y183.428 E115.27368
G1 X186.013 Y183.34 E115.29869
G1 X215.989 Y183.34 E116.64465
G1 X216.538 Y183.428 E116.66961
G1 X216.991 Y183.667 E116.69261
G1 F2400 E115.69261
G1 F600 Z0.8
G0 F4800 X223.596 Y177.21 Z0.8
G1 F600 Z0.3
G1 F2400 E116.71756
G1 F1080 X223.789 Y177.403 E116.72981
G0 F4800 X223.789 Y177.968
G1 F1080 X223.03 Y177.21 E116.77798
G0 F4800 X222.464 Y177.21
G1 F1080 X223.789 Y178.534 E116.86208
G0 F4800 X223.789 Y179.1
G1 F1080 X221.899 Y177.21 E116.9821
G0 F4800 X221.333 Y177.21
G1 F1080 X223.789 Y179.665 E117.13802
G0 F4800 X223.789 Y180.231
G1 F1080 X220.767 Y177.21 E117.32989
G0 F4800 X220.202 Y177.21
G1 F1080 X223.789 Y180.797 E117.55766
G0 F4800 X223.789 Y181.362
G1 F1080 X219.636 Y177.21 E117.82134
G0 F4800 X219.07 Y177.21
G1 F1080 X223.789 Y181.928 E118.12097
G0 F4800 X223.789 Y182.494
G1 F1080 X218.505 Y177.21 E118.4565
G0 F4800 X217.939 Y177.21
G1 F1080 X223.789 Y183.06 E118.82797
G0 F4800 X223.789 Y183.625
G1 F1080 X217.373 Y177.21 E119.23536
G0 F4800 X216.808 Y177.21
G1 F1080 X223.789 Y184.191 E119.67865
G0 F4800 X223.789 Y184.757
G1 F1080 X216.242 Y177.21 E120.15788
G0 F4800 X215.676 Y177.21
G1 F1080 X223.789 Y185.322 E120.67303
G0 F4800 X223.789 Y185.888
G1 F1080 X215.111 Y177.21 E121.22408
G0 F4800 X214.545 Y177.21
G1 F1080 X223.789 Y186.454 E121.81107
G0 F4800 X223.789 Y187.019
G1 F1080 X213.979 Y177.21 E122.43397
G0 F4800 X213.414 Y177.21
G1 F1080 X223.789 Y187.585 E123.09278
G0 F4800 X223.789 Y188.151
G1 F1080 X212.848 Y177.21 E123.78754
G0 F4800 X212.282 Y177.21
G1 F1080 X223.789 Y188.716 E124.5182
G0 F4800 X223.789 Y189.282
G1 F1080 X211.716 Y177.21 E125.2848
G0 F4800 X211.151 Y177.21
G1 F1080 X223.789 Y189.848 E126.08731
G0 F4800 X223.789 Y190.413
G1 F1080 X217.747 Y184.372 E126.47094
G0 F4800 X217.858 Y185.049
G1 F1080 X223.789 Y190.979 E126.84753
G0 F4800 X223.789 Y191.545
G1 F1080 X217.858 Y185.614 E127.22415
G0 F4800 X217.858 Y186.18
G1 F1080 X223.789 Y192.111 E127.60077
G0 F4800 X223.789 Y192.676
G1 F1080 X217.858 Y186.746 E127.97735
G0 F4800 X217.858 Y187.311
G1 F1080 X223.789 Y193.242 E128.35397
G0 F4800 X223.789 Y193.808
G1 F1080 X217.858 Y187.877 E128.73059
G0 F4800 X217.858 Y188.443
G1 F1080 X223.789 Y194.373 E129.10717
G0 F4800 X223.789 Y194.939
G1 F1080 X217.858 Y189.008 E129.48379
G0 F4800 X217.858 Y189.574
G1 F1080 X223.789 Y195.505 E129.86041
G0 F4800 X223.789 Y196.07
G1 F1080 X217.858 Y190.14 E130.23699
G0 F4800 X217.858 Y190.705
G1 F1080 X223.789 Y196.636 E130.61361
G0 F4800 X223.789 Y197.202
G1 F1080 X217.858 Y191.271 E130.99023
G0 F4800 X217.858 Y191.837
G1 F1080 X223.789 Y197.767 E131.36682
G0 F4800 X223.789 Y198.333
G1 F1080 X217.858 Y192.403 E131.7434
G0 F4800 X217.858 Y192.968
G1 F1080 X223.789 Y198.899 E132.12002
G0 F4800 X223.789 Y199.464
G1 F1080 X217.858 Y193.534 E132.4966
G0 F4800 X217.858 Y194.1
G1 F1080 X223.789 Y200.03 E132.87319
G0 F4800 X223.789 Y200.596
G1 F1080 X217.858 Y194.665 E133.24981
G0 F4800 X217.858 Y195.231
G1 F1080 X223.789 Y201.161 E133.62639
G0 F4800 X223.789 Y201.727
G1 F1080 X217.858 Y195.797 E134.00298
G0 F4800 X217.858 Y196.362
G1 F1080 X223.789 Y202.293 E134.3796
G0 F4800 X223.789 Y202.859
G1 F1080 X217.858 Y196.928 E134.75622
G0 F4800 X217.858 Y197.494
G1 F1080 X223.789 Y203.424 E135.1328
G0 F4800 X223.789 Y203.99
G1 F1080 X217.858 Y198.059 E135.50942
G0 F4800 X217.858 Y198.625
G1 F1080 X223.789 Y204.556 E135.88604
G0 F4800 X223.789 Y205.121
G1 F1080 X217.858 Y199.191 E136.26262
G0 F4800 X217.858 Y199.756
G1 F1080 X223.789 Y205.687 E136.63924
G0 F4800 X223.789 Y206.253
G1 F1080 X217.858 Y200.322 E137.01586
G0 F4800 X217.858 Y200.888
G1 F1080 X223.789 Y206.818 E137.39244
G0 F4800 X223.789 Y207.384
G1 F1080 X217.858 Y201.454 E137.76903
G0 F4800 X217.858 Y202.019
G1 F1080 X223.789 Y207.95 E138.14565
G0 F4800 X223.789 Y208.515
G1 F1080 X217.858 Y202.585 E138.52223
G0 F4800 X217.858 Y203.151
G1 F1080 X223.789 Y209.081 E138.89882
G0 F4800 X223.789 Y209.647
G1 F1080 X217.858 Y203.716 E139.27544
G0 F4800 X217.858 Y204.282
G1 F1080 X223.789 Y210.212 E139.65202
G0 F4800 X223.789 Y210.778
G1 F1080 X217.858 Y204.848 E140.02861
G0 F4800 X217.858 Y205.413
G1 F1080 X223.789 Y211.344 E140.40523
G0 F4800 X223.789 Y211.91
G1 F1080 X217.858 Y205.979 E140.78184
G0 F4800 X217.858 Y206.545
G1 F1080 X223.789 Y212.475 E141.15843
G0 F4800 X223.789 Y213.041
G1 F1080 X217.858 Y207.11 E141.53505
G0 F4800 X217.858 Y207.676
G1 F1080 X223.789 Y213.607 E141.91167
G0 F4800 X223.789 Y214.172
G1 F1080 X217.858 Y208.242 E142.28825
G0 F4800 X217.858 Y208.807
G1 F1080 X223.789 Y214.738 E142.66487
G0 F4800 X223.789 Y215.304
G1 F1080 X217.858 Y209.373 E143.04149
G0 F4800 X217.858 Y209.939
G1 F1080 X223.789 Y215.869 E143.41807
G0 F4800 X223.789 Y216.435
G1 F1080 X217.858 Y210.504 E143.79469
G0 F4800 X217.858 Y211.07
G1 F1080 X223.789 Y217.001 E144.17131
G0 F4800 X223.789 Y217.566
G1 F1080 X217.858 Y211.636 E144.54789
G0 F4800 X217.858 Y212.202
G1 F1080 X223.789 Y218.132 E144.92448
G0 F4800 X223.789 Y218.698
G1 F1080 X217.858 Y212.767 E145.3011
G0 F4800 X217.858 Y213.333
G1 F1080 X223.789 Y219.263 E145.67768
G0 F4800 X223.789 Y219.829
G1 F1080 X217.858 Y213.899 E146.05427
G0 F4800 X217.858 Y214.464
G1 F1080 X223.789 Y220.395 E146.43089
G0 F4800 X223.789 Y220.96
G1 F1080 X217.853 Y215.024 E146.80782
G0 F4800 X217.774 Y215.512
G1 F1080 X223.789 Y221.526 E147.18974
G0 F4800 X223.789 Y222.092
G1 F1080 X217.606 Y215.909 E147.58236
G0 F4800 X217.361 Y216.23
G1 F1080 X223.789 Y222.658 E147.99054
G0 F4800 X223.354 Y222.788
G1 F1080 X217.064 Y216.499 E148.38992
G0 F4800 X216.713 Y216.713
G1 F1080 X222.788 Y222.788 E148.77568
G0 F4800 X222.223 Y222.788
G1 F1080 X216.257 Y216.822 E149.15452
G0 F4800 X215.728 Y216.859
G1 F1080 X221.657 Y222.788 E149.53101
G0 F4800 X221.091 Y222.788
G1 F1080 X215.162 Y216.859 E149.9075
G0 F4800 X214.597 Y216.859
G1 F1080 X220.526 Y222.788 E150.284
G0 F4800 X219.96 Y222.788
G1 F1080 X214.031 Y216.859 E150.66049
G0 F4800 X213.465 Y216.859
G1 F1080 X219.394 Y222.788 E151.03698
G0 F4800 X218.829 Y222.788
G1 F1080 X212.899 Y216.859 E151.4135
G0 F4800 X212.334 Y216.859
G1 F1080 X218.263 Y222.788 E151.78999
G0 F4800 X217.697 Y222.788
G1 F1080 X211.768 Y216.859 E152.16648
G0 F4800 X211.202 Y216.859
G1 F1080 X217.131 Y222.788 E152.54297
G0 F4800 X216.566 Y222.788
G1 F1080 X210.637 Y216.859 E152.91946
G0 F4800 X210.071 Y216.859
G1 F1080 X216 Y222.788 E153.29595
G0 F4800 X215.434 Y222.788
G1 F1080 X209.505 Y216.859 E153.67244
G0 F4800 X208.94 Y216.859
G1 F1080 X214.869 Y222.788 E154.04893
G0 F4800 X214.303 Y222.788
G1 F1080 X208.374 Y216.859 E154.42542
G0 F4800 X207.808 Y216.859
