;FLAVOR:Marlin
;TIME:6783
;Filament used: 2.87338m, 0m
;Layer height: 0.2
;MINX:169.018
;MINY:188.426
;MINZ:0.3
;MAXX:232.982
;MAXY:212.424
;MAXZ:15.6
;Generated with Cura_SteamEngine 5.0.0
T0
M140 S70
M105
M190 S70
M104 S215
M105
M109 S215
M82 ;absolute extrusion mode
;Sliced at: Tue 07-06-2022 17:24:31
G21 ;metric values
M107
G28
M420 S1
G90 ;absolute positioning
G92 E0; reset extruder distance
G1 X0 Y0 Z5 F5000 ;move nozzle up 5mm for safe homing
G29;ABL
M500
M82 ;set extruder to absolute mode
M107 ;start with the fan off
G1 X0 Y0 Z15.0 F5000 ;move the platform down 15mm
G92 E0 ;zero the extruded length
G1 F200 E3 ;extrude 3mm of feed stock
G1 F200 E0 ;Retract
G4 S2 ;Wait for material to fall
G1 F200 E3
G92 E0 ;zero the extruded length again
M117 Printing...
G92 E0
T0;WIPE
G91
G1 Z-0.5
G1 X -20 F3000
G1 X40
G1 X-20
G1 Z0.5
G90

G92 E0
G1 F2400 E-1
;LAYER_COUNT:75
;LAYER:0
M107
G1 F600 Z0.8
G0 F4800 X170.412 Y189.197 Z0.8
G1 F600 Z0.8
G0 F4800 X169.018 Y192.653
;TYPE:SKIRT
G1 F600 Z0.3
G1 F2400 E0.02495
G1 F1080 X169.027 Y191.986 E0.0549
G1 X169.074 Y191.452 E0.07897
G1 X169.2 Y190.931 E0.10303
G1 X169.403 Y190.434 E0.12714
G1 X169.676 Y189.973 E0.1512
G1 X170.015 Y189.557 E0.17529
G1 X170.412 Y189.197 E0.19936
G1 X170.858 Y188.899 E0.22344
G1 X171.344 Y188.671 E0.24754
G1 X171.858 Y188.518 E0.27162
G1 X172.526 Y188.436 E0.30184
G1 X172.948 Y188.426 E0.3208
G1 X228.728 Y188.427 E2.82539
G1 X229.425 Y188.437 E2.85668
G1 X229.959 Y188.485 E2.88076
G1 X230.48 Y188.611 E2.90483
G1 X230.977 Y188.814 E2.92893
G1 X231.438 Y189.088 E2.95301
G1 X231.853 Y189.427 E2.97707
G1 X232.213 Y189.825 E3.00117
G1 X232.51 Y190.271 E3.02523
G1 X232.738 Y190.757 E3.04933
G1 X232.89 Y191.271 E3.0734
G1 X232.972 Y191.936 E3.10349
G1 X232.982 Y192.357 E3.12239
G1 X232.982 Y208.133 E3.83076
G1 X232.973 Y208.86 E3.8634
G1 X232.926 Y209.394 E3.88747
G1 X232.801 Y209.915 E3.91153
G1 X232.599 Y210.412 E3.93562
G1 X232.326 Y210.874 E3.95971
G1 X231.988 Y211.29 E3.98378
G1 X231.591 Y211.651 E4.00787
G1 X231.145 Y211.949 E4.03196
G1 X230.66 Y212.177 E4.05602
G1 X230.146 Y212.331 E4.08011
G1 X229.474 Y212.414 E4.11052
G1 X229.052 Y212.424 E4.12947
G1 X173.279 Y212.424 E6.63374
G1 X172.581 Y212.415 E6.66509
G1 X172.046 Y212.368 E6.6892
G1 X171.525 Y212.242 E6.71327
G1 X171.028 Y212.04 E6.73736
G1 X170.567 Y211.767 E6.76142
G1 X170.151 Y211.428 E6.78551
G1 X169.79 Y211.032 E6.80957
G1 X169.492 Y210.586 E6.83366
G1 X169.264 Y210.1 E6.85776
G1 X169.111 Y209.586 E6.88184
G1 X169.028 Y208.912 E6.91233
G1 X169.018 Y208.482 E6.93165
G1 X169.018 Y192.653 E7.64239
G0 F4800 X169.418 Y192.659
G1 F1080 X169.427 Y191.992 E7.67234
G1 X169.474 Y191.488 E7.69507
G1 X169.599 Y190.999 E7.71773
G1 X169.8 Y190.535 E7.74043
G1 X170.072 Y190.108 E7.76317
G1 X170.407 Y189.73 E7.78585
G1 X170.798 Y189.409 E7.80856
G1 X171.234 Y189.154 E7.83124
G1 X171.706 Y188.971 E7.85397
G1 X172.2 Y188.864 E7.87667
G1 X172.858 Y188.827 E7.90626
G1 X228.722 Y188.827 E10.41462
G1 X229.419 Y188.837 E10.44592
G1 X229.922 Y188.884 E10.4686
G1 X230.412 Y189.01 E10.49132
G1 X230.876 Y189.212 E10.51404
G1 X231.302 Y189.484 E10.53673
G1 X231.68 Y189.819 E10.55941
G1 X232 Y190.21 E10.5821
G1 X232.255 Y190.647 E10.60482
G1 X232.438 Y191.118 E10.62751
G1 X232.545 Y191.612 E10.6502
G1 X232.581 Y192.267 E10.67966
G1 X232.582 Y208.128 E11.39183
G1 X232.573 Y208.855 E11.42448
G1 X232.527 Y209.358 E11.44716
G1 X232.402 Y209.848 E11.46987
G1 X232.201 Y210.312 E11.49257
G1 X231.93 Y210.739 E11.51528
G1 X231.595 Y211.118 E11.53799
G1 X231.205 Y211.439 E11.56067
G1 X230.769 Y211.695 E11.58337
G1 X230.298 Y211.878 E11.60606
G1 X229.804 Y211.986 E11.62877
G1 X229.142 Y212.023 E11.65854
G1 X173.284 Y212.024 E14.16663
G1 X172.586 Y212.015 E14.19797
G1 X172.082 Y211.968 E14.2207
G1 X171.592 Y211.843 E14.24341
G1 X171.128 Y211.642 E14.26611
G1 X170.702 Y211.371 E14.28878
G1 X170.323 Y211.036 E14.31149
G1 X170.002 Y210.645 E14.33421
G1 X169.747 Y210.209 E14.35689
G1 X169.563 Y209.738 E14.37959
G1 X169.456 Y209.244 E14.40229
G1 X169.419 Y208.568 E14.43269
G1 X169.418 Y192.659 E15.14702
G1 F2400 E14.14702
G1 F600 Z0.8
;MESH:dimension.stl
G0 F4800 X172.818 Y192.226 Z0.8
;TYPE:WALL-OUTER
G1 F600 Z0.3
G1 F2400 E15.17197
G1 F1080 X172.818 Y208.624 E15.90826
G1 X180.652 Y208.624 E16.26001
G1 F1014.1 X181.385 Y208.598 E16.29509
G1 F1004.7 X182.191 Y208.619 E16.334
G1 F1061.4 X182.984 Y208.621 E16.37023
G1 F995.4 X183.779 Y208.592 E16.40899
G1 F1002.3 X184.584 Y208.623 E16.44797
G1 F1080 X190.652 Y208.624 E16.72043
G1 F1014.1 X191.385 Y208.598 E16.7555
G1 F1004.7 X192.191 Y208.619 E16.79442
G1 F1061.4 X192.984 Y208.621 E16.83065
G1 F995.4 X193.779 Y208.592 E16.8694
G1 F1002.3 X194.584 Y208.623 E16.90838
G1 F1080 X200.652 Y208.624 E17.18084
G1 F1014.1 X201.385 Y208.598 E17.21591
G1 F1004.7 X202.191 Y208.619 E17.25483
G1 F1061.4 X202.984 Y208.621 E17.29106
G1 F995.4 X203.779 Y208.592 E17.32982
G1 F1002.3 X204.584 Y208.623 E17.36879
G1 F1080 X210.652 Y208.624 E17.64125
G1 F1014.1 X211.385 Y208.598 E17.67633
G1 F1004.7 X212.191 Y208.619 E17.71525
G1 F1061.4 X212.984 Y208.621 E17.75148
G1 F995.4 X213.779 Y208.592 E17.79023
G1 F1002.3 X214.584 Y208.623 E17.82921
G1 F1080 X220.652 Y208.624 E18.10167
G1 F1014.1 X221.385 Y208.598 E18.13674
G1 F1004.7 X222.191 Y208.619 E18.17566
G1 F1061.4 X222.984 Y208.621 E18.21189
G1 F995.4 X223.779 Y208.592 E18.25065
G1 F1002.3 X224.584 Y208.623 E18.28962
G1 F1080 X229.182 Y208.624 E18.49608
G1 X229.182 Y195.515 E19.08469
G1 X229.182 Y192.227 E19.23232
G1 X172.818 Y192.226 E21.76313
G0 F4800 X172.818 Y192.426
G1 F2400 E20.76313
G1 F600 Z0.8
G0 F4800 X187.618 Y202.428 Z0.8
G1 F600 Z0.3
G1 F2400 E21.78808
G1 F1148.9 X187.618 Y203.167 E21.81927
G1 X187.617 Y203.928 E21.85139
G1 F1064 X187.443 Y204.668 E21.88603
G1 F1080 X187.16 Y205.379 E21.92039
G1 X186.776 Y206.04 E21.95472
G1 X186.295 Y206.635 E21.98907
G1 X185.812 Y207.088 E22.01881
G1 X185.188 Y207.525 E22.05301
G1 X184.497 Y207.863 E22.08755
G1 F1016.5 X183.778 Y208.117 E22.12393
G1 F1007 X183.015 Y208.214 E22.16097
G1 F1061.4 X182.251 Y208.214 E22.19587
G1 F993.1 X181.491 Y208.131 E22.23321
G1 F1000 X180.767 Y207.874 E22.27046
G1 F1080 X180.076 Y207.538 E22.30496
G1 X179.527 Y207.169 E22.33466
G1 X178.959 Y206.658 E22.36897
G1 X178.475 Y206.063 E22.40341
G1 X178.087 Y205.407 E22.43763
G1 X177.801 Y204.697 E22.472
G1 X177.625 Y203.946 E22.50663
G1 X177.569 Y203.193 E22.54054
G1 X177.624 Y202.428 E22.57497
G1 X177.794 Y201.683 E22.60929
G1 X178.075 Y200.974 E22.64353
G1 X178.459 Y200.313 E22.67785
G1 X178.94 Y199.718 E22.71221
G1 X179.423 Y199.265 E22.74194
G1 X180.048 Y198.828 E22.77618
G1 X180.738 Y198.49 E22.81068
G1 X181.465 Y198.26 E22.84492
G1 X182.22 Y198.142 E22.87923
G1 X182.984 Y198.141 E22.91354
G1 X183.74 Y198.254 E22.94786
G1 X184.471 Y198.481 E22.98223
G1 X185.159 Y198.815 E23.01657
G1 X185.708 Y199.184 E23.04627
G1 X186.274 Y199.693 E23.08045
G1 X186.759 Y200.289 E23.11495
G1 X187.148 Y200.947 E23.14927
G1 X187.435 Y201.654 E23.18353
G1 F1066.7 X187.613 Y202.396 E23.21823
G1 F1051.1 X187.618 Y202.428 E23.21972
G1 F1064 X187.793 Y201.683 E23.2546
G1 F1080 X188.075 Y200.974 E23.28886
G1 X188.459 Y200.313 E23.32318
G1 X188.94 Y199.718 E23.35754
G1 X189.423 Y199.265 E23.38727
G1 X190.048 Y198.828 E23.42151
G1 X190.738 Y198.49 E23.45601
G1 X191.465 Y198.26 E23.49025
G1 X192.22 Y198.142 E23.52456
G1 X192.984 Y198.141 E23.55887
G1 X193.74 Y198.254 E23.59319
G1 X194.471 Y198.481 E23.62756
G1 X195.159 Y198.815 E23.6619
G1 X195.708 Y199.184 E23.6916
G1 X196.274 Y199.693 E23.72578
G1 X196.759 Y200.289 E23.76028
G1 X197.148 Y200.947 E23.7946
G1 X197.435 Y201.654 E23.82886
G1 F1066.7 X197.613 Y202.396 E23.86355
G1 F1051.1 X197.618 Y202.428 E23.86505
G1 F1064 X197.793 Y201.683 E23.89992
G1 F1080 X198.075 Y200.974 E23.93418
G1 X198.459 Y200.313 E23.96851
G1 X198.94 Y199.718 E24.00286
G1 X199.423 Y199.265 E24.0326
G1 X200.048 Y198.828 E24.06684
G1 X200.738 Y198.49 E24.10134
G1 X201.465 Y198.26 E24.13558
G1 X202.22 Y198.142 E24.16989
G1 X202.984 Y198.141 E24.20419
G1 X203.74 Y198.254 E24.23852
G1 X204.471 Y198.481 E24.27288
G1 X205.159 Y198.815 E24.30722
G1 X205.708 Y199.184 E24.33693
G1 X206.274 Y199.693 E24.3711
G1 X206.759 Y200.289 E24.40561
G1 X207.148 Y200.947 E24.43993
G1 X207.435 Y201.654 E24.47419
G1 F1066.7 X207.613 Y202.396 E24.50888
G1 F1051.1 X207.618 Y202.428 E24.51037
G1 F1064 X207.793 Y201.683 E24.54525
G1 F1080 X208.075 Y200.974 E24.57951
G1 X208.459 Y200.313 E24.61384
G1 X208.94 Y199.718 E24.64819
G1 X209.423 Y199.265 E24.67792
G1 X210.048 Y198.828 E24.71217
G1 X210.738 Y198.49 E24.74667
G1 X211.465 Y198.26 E24.7809
G1 X212.22 Y198.142 E24.81522
G1 X212.984 Y198.141 E24.84952
G1 X213.74 Y198.254 E24.88384
G1 X214.471 Y198.481 E24.91821
G1 X215.159 Y198.815 E24.95255
G1 X215.708 Y199.184 E24.98225
G1 X216.274 Y199.693 E25.01643
G1 X216.759 Y200.289 E25.05093
G1 X217.148 Y200.947 E25.08526
G1 X217.435 Y201.654 E25.11952
G1 F1066.7 X217.613 Y202.396 E25.15421
G1 F1051.1 X217.618 Y202.428 E25.1557
G1 F1064 X217.793 Y201.683 E25.19058
G1 F1080 X218.075 Y200.974 E25.22484
G1 X218.459 Y200.313 E25.25916
G1 X218.94 Y199.718 E25.29352
G1 X219.423 Y199.265 E25.32325
G1 X220.048 Y198.828 E25.35749
G1 X220.738 Y198.49 E25.39199
G1 X221.465 Y198.26 E25.42623
G1 X222.22 Y198.142 E25.46054
G1 X222.984 Y198.141 E25.49485
G1 X223.74 Y198.254 E25.52917
G1 X224.471 Y198.481 E25.56354
G1 X225.159 Y198.815 E25.59788
G1 X225.708 Y199.184 E25.62758
G1 X226.274 Y199.693 E25.66176
G1 X226.759 Y200.289 E25.69626
G1 X227.148 Y200.946 E25.73054
G1 X227.434 Y201.653 E25.76479
G1 X227.607 Y202.397 E25.79909
G1 X227.667 Y203.158 E25.83336
G1 X227.611 Y203.926 E25.86794
G1 X227.443 Y204.668 E25.9021
G1 X227.16 Y205.379 E25.93646
G1 X226.776 Y206.039 E25.97074
G1 X226.295 Y206.635 E26.00513
G1 X225.812 Y207.088 E26.03487
G1 X225.188 Y207.525 E26.06907
G1 X224.497 Y207.863 E26.10361
G1 F1016.5 X223.778 Y208.117 E26.13999
G1 F1007 X223.015 Y208.214 E26.17703
G1 F1061.4 X222.251 Y208.214 E26.21194
G1 F993.1 X221.491 Y208.131 E26.24927
G1 F1000 X220.767 Y207.874 E26.28652
G1 F1080 X220.076 Y207.538 E26.32102
G1 X219.527 Y207.169 E26.35072
G1 X218.959 Y206.658 E26.38503
G1 X218.475 Y206.063 E26.41947
G1 X218.087 Y205.407 E26.45369
G1 X217.801 Y204.697 E26.48806
G1 F1066.7 X217.622 Y203.958 E26.52263
G1 F1051.1 X217.617 Y203.928 E26.52403
G1 F1064 X217.443 Y204.668 E26.55868
G1 F1080 X217.16 Y205.379 E26.59304
G1 X216.776 Y206.04 E26.62736
G1 X216.295 Y206.635 E26.66172
G1 X215.812 Y207.088 E26.69145
G1 X215.188 Y207.525 E26.72565
G1 X214.497 Y207.863 E26.76019
G1 F1016.5 X213.778 Y208.117 E26.79657
G1 F1007 X213.015 Y208.214 E26.83361
G1 F1061.4 X212.251 Y208.214 E26.86852
G1 F993.1 X211.491 Y208.131 E26.90585
G1 F1000 X210.767 Y207.874 E26.9431
G1 F1080 X210.076 Y207.538 E26.9776
G1 X209.527 Y207.169 E27.00731
G1 X208.959 Y206.658 E27.04161
G1 X208.475 Y206.063 E27.07605
G1 X208.087 Y205.407 E27.11027
G1 X207.801 Y204.697 E27.14464
G1 F1066.7 X207.622 Y203.958 E27.17921
G1 F1051.1 X207.617 Y203.928 E27.18061
G1 F1064 X207.443 Y204.668 E27.21526
G1 F1080 X207.16 Y205.379 E27.24962
G1 X206.776 Y206.04 E27.28394
G1 X206.295 Y206.635 E27.3183
G1 X205.812 Y207.088 E27.34803
G1 X205.188 Y207.525 E27.38224
G1 X204.497 Y207.863 E27.41678
G1 F1016.5 X203.778 Y208.117 E27.45316
G1 F1007 X203.015 Y208.214 E27.49019
G1 F1061.4 X202.251 Y208.214 E27.5251
G1 F993.1 X201.491 Y208.131 E27.56243
G1 F1000 X200.767 Y207.874 E27.59969
G1 F1080 X200.076 Y207.538 E27.63419
G1 X199.527 Y207.169 E27.66389
G1 X198.959 Y206.658 E27.69819
G1 X198.475 Y206.063 E27.73263
G1 X198.087 Y205.407 E27.76685
G1 X197.801 Y204.697 E27.80122
G1 F1066.7 X197.622 Y203.958 E27.83579
G1 F1051.1 X197.617 Y203.928 E27.83719
G1 F1064 X197.443 Y204.668 E27.87184
G1 F1080 X197.16 Y205.379 E27.9062
G1 X196.776 Y206.04 E27.94053
G1 X196.295 Y206.635 E27.97488
G1 X195.812 Y207.088 E28.00461
G1 X195.188 Y207.525 E28.03882
G1 X194.497 Y207.863 E28.07336
G1 F1016.5 X193.778 Y208.117 E28.10974
G1 F1007 X193.015 Y208.214 E28.14678
G1 F1061.4 X192.251 Y208.214 E28.18168
G1 F993.1 X191.491 Y208.131 E28.21901
G1 F1000 X190.767 Y207.874 E28.25627
G1 F1080 X190.076 Y207.538 E28.29077
G1 X189.527 Y207.169 E28.32047
G1 X188.959 Y206.658 E28.35478
G1 X188.475 Y206.063 E28.38921
G1 X188.087 Y205.407 E28.42344
G1 X187.801 Y204.697 E28.45781
G1 F1066.7 X187.622 Y203.958 E28.49237
G1 F1051.1 X187.617 Y203.928 E28.49378
G0 F4800 X187.572 Y204.122
G1 F2400 E27.49378
G1 F600 Z0.8
G0 F4800 X184.672 Y208.223 Z0.8
;TYPE:WALL-INNER
G1 F600 Z0.3
G1 F2400 E28.51872
G1 F1080 X190.563 Y208.222 E28.78323
G1 X189.9 Y207.898 E28.81637
G1 X189.303 Y207.501 E28.84856
G1 X188.69 Y206.954 E28.88545
G1 X188.167 Y206.319 E28.92239
G1 X187.742 Y205.61 E28.9595
G1 X187.617 Y205.315 E28.97389
G1 X187.492 Y205.61 E28.98828
G1 X187.121 Y206.242 E29.02118
G1 X186.605 Y206.887 E29.05827
G1 X186.085 Y207.38 E29.09044
G1 X185.416 Y207.854 E29.12726
G1 X184.672 Y208.223 E29.16455
G1 F2400 E28.16455
G1 F600 Z0.8
G0 F4800 X189.067 Y207.823 Z0.8
G1 F600 Z0.3
G1 F2400 E29.18949
G1 F1080 X188.422 Y207.251 E29.2282
G1 X188.082 Y206.849 E29.25184
G1 X187.768 Y206.444 E29.27485
G1 X187.617 Y206.187 E29.28824
G1 X187.379 Y206.57 E29.30849
G1 X186.915 Y207.14 E29.34149
G1 X186.358 Y207.673 E29.3761
G1 X186.158 Y207.823 E29.38733
G1 X189.067 Y207.823 E29.51795
G1 F2400 E28.51795
G1 F600 Z0.8
G0 F4800 X194.672 Y208.223 Z0.8
G1 F600 Z0.3
G1 F2400 E29.54289
G1 F1080 X200.563 Y208.222 E29.8074
G1 X199.9 Y207.898 E29.84054
G1 X199.303 Y207.501 E29.87273
G1 X198.69 Y206.954 E29.90962
G1 X198.167 Y206.319 E29.94656
G1 X197.742 Y205.61 E29.98367
G1 X197.617 Y205.315 E29.99806
G1 X197.492 Y205.61 E30.01244
G1 X197.121 Y206.242 E30.04535
G1 X196.605 Y206.887 E30.08244
G1 X196.085 Y207.38 E30.11461
G1 X195.416 Y207.854 E30.15143
G1 X194.672 Y208.223 E30.18872
G1 F2400 E29.18872
G1 F600 Z0.8
G0 F4800 X199.067 Y207.823 Z0.8
G1 F600 Z0.3
G1 F2400 E30.21366
G1 F1080 X198.422 Y207.251 E30.25237
G1 X198.082 Y206.849 E30.27601
G1 X197.768 Y206.444 E30.29902
G1 X197.617 Y206.187 E30.31241
G1 X197.379 Y206.57 E30.33265
G1 X196.915 Y207.14 E30.36565
G1 X196.358 Y207.673 E30.40027
G1 X196.158 Y207.823 E30.4115
G1 X199.067 Y207.823 E30.54211
G1 F2400 E29.54211
G1 F600 Z0.8
G0 F4800 X197.617 Y203.928 Z0.8
;TYPE:WALL-OUTER
G1 F600 Z0.3
G1 F2400 E30.56706
G1 F1148.9 X197.618 Y203.167 E30.59918
G1 X197.618 Y202.428 E30.63037
G1 F2400 E29.63037
G1 F600 Z0.8
G0 F4800 X204.672 Y208.223 Z0.8
;TYPE:WALL-INNER
G1 F600 Z0.3
G1 F2400 E30.65531
G1 F1080 X210.563 Y208.222 E30.91983
G1 X209.9 Y207.898 E30.95296
G1 X209.303 Y207.501 E30.98515
G1 X208.69 Y206.954 E31.02204
G1 X208.167 Y206.319 E31.05898
G1 X207.742 Y205.61 E31.0961
G1 X207.617 Y205.315 E31.11048
G1 X207.492 Y205.61 E31.12487
G1 X207.121 Y206.242 E31.15777
G1 X206.605 Y206.887 E31.19486
G1 X206.085 Y207.38 E31.22704
G1 X205.416 Y207.854 E31.26385
G1 X204.672 Y208.223 E31.30114
G1 F2400 E30.30114
G1 F600 Z0.8
G0 F4800 X209.067 Y207.823 Z0.8
G1 F600 Z0.3
G1 F2400 E31.32609
G1 F1080 X208.422 Y207.251 E31.3648
G1 X208.082 Y206.849 E31.38844
G1 X207.768 Y206.444 E31.41145
G1 X207.617 Y206.187 E31.42483
G1 X207.379 Y206.57 E31.44508
G1 X206.915 Y207.14 E31.47808
G1 X206.358 Y207.673 E31.51269
G1 X206.158 Y207.823 E31.52392
G1 X209.067 Y207.823 E31.65454
G1 F2400 E30.65454
G1 F600 Z0.8
G0 F4800 X207.617 Y203.928 Z0.8
;TYPE:WALL-OUTER
G1 F600 Z0.3
G1 F2400 E31.67948
G1 F1148.9 X207.618 Y203.189 E31.71067
G1 X207.618 Y202.428 E31.74279
G1 F2400 E30.74279
G1 F600 Z0.8
G0 F4800 X214.672 Y208.223 Z0.8
;TYPE:WALL-INNER
G1 F600 Z0.3
G1 F2400 E31.76774
G1 F1080 X220.563 Y208.222 E32.03225
G1 X219.9 Y207.898 E32.06539
G1 X219.303 Y207.501 E32.09758
G1 X218.69 Y206.954 E32.13447
G1 X218.167 Y206.319 E32.1714
G1 X217.742 Y205.61 E32.20852
G1 X217.617 Y205.315 E32.22291
G1 X217.492 Y205.61 E32.23729
G1 X217.121 Y206.242 E32.2702
G1 X216.605 Y206.887 E32.30729
G1 X216.085 Y207.38 E32.33946
G1 X215.416 Y207.854 E32.37628
G1 X214.672 Y208.223 E32.41357
G1 F2400 E31.41357
G1 F600 Z0.8
G0 F4800 X219.067 Y207.823 Z0.8
G1 F600 Z0.3
