;FLAVOR:Marlin
;TIME:9723
;Filament used: 4.00876m, 0m
;Layer height: 0.2
;MINX:184.201
;MINY:183.201
;MINZ:0.3
;MAXX:217.799
;MAXY:216.799
;MAXZ:53.4
;Generated with Cura_SteamEngine 5.0.0
T0
M140 S70
M105
M190 S70
M104 S215
M105
M109 S215
M82 ;absolute extrusion mode
;Sliced at: Tue 07-06-2022 17:32:10
G21 ;metric values
M107
G28
M420 S1
G90 ;absolute positioning
G92 E0; reset extruder distance
G1 X0 Y0 Z5 F5000 ;move nozzle up 5mm for safe homing
G29;ABL
M500
M82 ;set extruder to absolute mode
M107 ;start with the fan off
G1 X0 Y0 Z15.0 F5000 ;move the platform down 15mm
G92 E0 ;zero the extruded length
G1 F200 E3 ;extrude 3mm of feed stock
G1 F200 E0 ;Retract
G4 S2 ;Wait for material to fall
G1 F200 E3
G92 E0 ;zero the extruded length again
M117 Printing...
G92 E0
T0;WIPE
G91
G1 Z-0.5
G1 X -20 F3000
G1 X40
G1 X-20
G1 Z0.5
G90

G92 E0
G1 F2400 E-1
;LAYER_COUNT:264
;LAYER:0
M107
G1 F600 Z0.8
G0 F4800 X184.804 Y183.656 Z0.8
G1 F600 Z0.8
G0 F4800 X184.201 Y185.001
;TYPE:SKIRT
G1 F600 Z0.3
G1 F2400 E0.02495
G1 F1080 X184.241 Y184.624 E0.04197
G1 X184.359 Y184.264 E0.05898
G1 X184.549 Y183.937 E0.07596
G1 X184.804 Y183.656 E0.093
G1 X185.113 Y183.436 E0.11003
G1 X185.46 Y183.284 E0.12704
G1 X186.001 Y183.201 E0.15162
G1 X215.999 Y183.201 E1.49856
G1 X216.376 Y183.241 E1.51558
G1 X216.736 Y183.359 E1.53259
G1 X217.063 Y183.549 E1.54958
G1 X217.344 Y183.804 E1.56661
G1 X217.564 Y184.113 E1.58365
G1 X217.716 Y184.46 E1.60066
G1 X217.799 Y185.001 E1.62523
G1 X217.799 Y214.999 E2.97218
G1 X217.759 Y215.376 E2.9892
G1 X217.641 Y215.736 E3.00621
G1 X217.451 Y216.063 E3.02319
G1 X217.196 Y216.344 E3.04023
G1 X216.887 Y216.564 E3.05726
G1 X216.54 Y216.716 E3.07427
G1 X215.999 Y216.799 E3.09885
G1 X186.001 Y216.799 E4.44579
G1 X185.624 Y216.759 E4.46282
G1 X185.264 Y216.641 E4.47983
G1 X184.937 Y216.451 E4.49681
G1 X184.656 Y216.196 E4.51384
G1 X184.436 Y215.887 E4.53088
G1 X184.284 Y215.54 E4.54789
G1 X184.201 Y214.999 E4.57246
G1 X184.201 Y185.001 E5.91941
G0 F4800 X184.601 Y185.001
G1 F1080 X184.641 Y184.669 E5.93442
G1 X184.758 Y184.357 E5.94938
G1 X184.946 Y184.08 E5.96442
G1 X185.194 Y183.857 E5.97939
G1 X185.488 Y183.698 E5.9944
G1 X186.001 Y183.601 E6.01784
G1 X215.999 Y183.601 E7.36479
G1 X216.331 Y183.641 E7.3798
G1 X216.643 Y183.758 E7.39476
G1 X216.92 Y183.946 E7.4098
G1 X217.143 Y184.194 E7.42477
G1 X217.302 Y184.488 E7.43978
G1 X217.399 Y185.001 E7.46322
G1 X217.399 Y214.999 E8.81017
G1 X217.359 Y215.331 E8.82518
G1 X217.242 Y215.643 E8.84014
G1 X217.054 Y215.92 E8.85518
G1 X216.806 Y216.143 E8.87015
G1 X216.512 Y216.302 E8.88516
G1 X215.999 Y216.399 E8.9086
G1 X186.001 Y216.399 E10.25555
G1 X185.669 Y216.359 E10.27056
G1 X185.357 Y216.242 E10.28552
G1 X185.08 Y216.054 E10.30056
G1 X184.857 Y215.806 E10.31553
G1 X184.698 Y215.512 E10.33054
G1 X184.601 Y214.999 E10.35398
G1 X184.601 Y185.001 E11.70093
G0 F4800 X185.001 Y185.001
G1 F1080 X185.041 Y184.722 E11.71358
G1 X185.157 Y184.465 E11.72624
G1 X185.34 Y184.25 E11.73892
G1 X185.576 Y184.096 E11.75157
G1 X186.001 Y184.001 E11.77113
G1 X215.999 Y184.001 E13.11807
G1 X216.278 Y184.041 E13.13073
G1 X216.535 Y184.157 E13.14339
G1 X216.75 Y184.34 E13.15607
G1 X216.904 Y184.576 E13.16872
G1 X216.999 Y185.001 E13.18827
G1 X216.999 Y214.999 E14.53522
G1 X216.959 Y215.278 E14.54787
G1 X216.843 Y215.535 E14.56054
G1 X216.66 Y215.75 E14.57321
G1 X216.424 Y215.904 E14.58587
G1 X215.999 Y215.999 E14.60542
G1 X186.001 Y215.999 E15.95237
G1 X185.722 Y215.959 E15.96502
G1 X185.465 Y215.843 E15.97768
G1 X185.25 Y215.66 E15.99036
G1 X185.096 Y215.424 E16.00301
G1 X185.001 Y214.999 E16.02257
G1 X185.001 Y185.001 E17.36951
G0 F4800 X185.401 Y185.001
G1 F1080 X185.441 Y184.786 E17.37933
G1 X185.554 Y184.6 E17.3891
G1 X185.727 Y184.467 E17.3989
G1 X186.001 Y184.401 E17.41156
G1 X215.999 Y184.401 E18.7585
G1 X216.214 Y184.441 E18.76832
G1 X216.4 Y184.554 E18.77809
G1 X216.533 Y184.727 E18.78789
G1 X216.599 Y185.001 E18.80055
G1 X216.599 Y214.999 E20.14749
G1 X216.559 Y215.214 E20.15731
G1 X216.446 Y215.4 E20.16708
G1 X216.273 Y215.533 E20.17688
G1 X215.999 Y215.599 E20.18954
G1 X186.001 Y215.599 E21.53648
G1 X185.786 Y215.559 E21.5463
G1 X185.6 Y215.446 E21.55607
G1 X185.467 Y215.273 E21.56587
G1 X185.401 Y214.999 E21.57853
G1 X185.401 Y185.001 E22.92547
G0 F4800 X185.801 Y185.001
G1 F1080 X185.84 Y184.882 E22.9311
G1 X186.001 Y184.801 E22.93919
G1 X215.999 Y184.801 E24.28613
G1 X216.118 Y184.84 E24.29176
G1 X216.199 Y185.001 E24.29985
G1 X216.199 Y214.999 E25.64679
G1 X216.16 Y215.118 E25.65242
G1 X215.999 Y215.199 E25.66051
G1 X186.001 Y215.199 E27.00746
G1 X185.882 Y215.16 E27.01308
G1 X185.801 Y214.999 E27.02117
G1 X185.801 Y185.001 E28.36812
;MESH:Z_Wobble_Test.stl
G0 F4800 X186.201 Y185.201
;TYPE:WALL-OUTER
G1 F1080 X186.201 Y214.799 E29.6971
G1 X215.799 Y214.799 E31.02609
G1 X215.799 Y200 E31.69058
G1 X215.799 Y185.201 E32.35507
G1 X186.201 Y185.201 E33.68406
G0 F4800 X186.201 Y185.401
G0 X186.601 Y185.601
;TYPE:WALL-INNER
G1 F1080 X186.601 Y214.399 E34.97712
G1 X215.399 Y214.399 E36.27019
G1 X215.399 Y200 E36.91672
G1 X215.399 Y185.601 E37.56325
G1 X186.601 Y185.601 E38.85631
G0 F4800 X187.001 Y186.001
G1 F1080 X187.001 Y213.999 E40.11346
G1 X214.999 Y213.999 E41.3706
G1 X214.999 Y200 E41.99917
G1 X214.999 Y186.001 E42.62774
G1 X187.001 Y186.001 E43.88489
G0 F4800 X187.261 Y186.261
;TYPE:SKIN
G1 F1080 X187.261 Y213.739 E45.11868
G1 X214.739 Y213.739 E46.35248
G1 X214.739 Y200 E46.96937
G1 X214.739 Y186.261 E47.58627
G1 X187.261 Y186.261 E48.82007
G0 F4800 X187.661 Y186.661
G1 F1080 X187.661 Y213.339 E50.01794
G1 X214.339 Y213.339 E51.21581
G1 X214.339 Y200 E51.81475
G1 X214.339 Y186.661 E52.41369
G1 X187.661 Y186.661 E53.61156
G1 F2400 E52.61156
G1 F600 Z0.8
G0 F4800 X214.013 Y186.86 Z0.8
G1 F600 Z0.3
G1 F2400 E53.63651
G1 F1080 X214.138 Y186.985 E53.64444
G0 F4800 X214.138 Y187.551
G1 F1080 X213.447 Y186.86 E53.68832
G0 F4800 X212.882 Y186.86
G1 F1080 X214.138 Y188.117 E53.76811
G0 F4800 X214.138 Y188.682
G1 F1080 X212.316 Y186.86 E53.88381
G0 F4800 X211.75 Y186.86
G1 F1080 X214.138 Y189.248 E54.03544
G0 F4800 X214.138 Y189.814
G1 F1080 X211.185 Y186.86 E54.22299
G0 F4800 X210.619 Y186.86
G1 F1080 X214.138 Y190.38 E54.44648
G0 F4800 X214.138 Y190.945
G1 F1080 X210.053 Y186.86 E54.70588
G0 F4800 X209.488 Y186.86
G1 F1080 X214.138 Y191.511 E55.00118
G0 F4800 X214.138 Y192.077
G1 F1080 X208.922 Y186.86 E55.33243
G0 F4800 X208.356 Y186.86
G1 F1080 X214.138 Y192.642 E55.69958
G0 F4800 X214.138 Y193.208
G1 F1080 X207.791 Y186.86 E56.10265
G0 F4800 X207.225 Y186.86
G1 F1080 X214.138 Y193.774 E56.54166
G0 F4800 X214.138 Y194.339
G1 F1080 X206.659 Y186.86 E57.01657
G0 F4800 X206.094 Y186.86
G1 F1080 X214.138 Y194.905 E57.5274
G0 F4800 X214.138 Y195.471
G1 F1080 X205.528 Y186.86 E58.07416
G0 F4800 X204.962 Y186.86
G1 F1080 X214.138 Y196.036 E58.65684
G0 F4800 X214.138 Y196.602
G1 F1080 X204.396 Y186.86 E59.27545
G0 F4800 X203.831 Y186.86
G1 F1080 X214.138 Y197.168 E59.92998
G0 F4800 X214.138 Y197.733
G1 F1080 X203.265 Y186.86 E60.62041
G0 F4800 X202.699 Y186.86
G1 F1080 X214.138 Y198.299 E61.34679
G0 F4800 X214.138 Y198.865
G1 F1080 X202.134 Y186.86 E62.10907
G0 F4800 X201.568 Y186.86
G1 F1080 X214.138 Y199.43 E62.90726
G0 F4800 X214.138 Y199.996
G1 F1080 X201.002 Y186.86 E63.7414
G0 F4800 X200.437 Y186.86
G1 F1080 X214.138 Y200.562 E64.61144
G0 F4800 X214.138 Y201.128
G1 F1080 X199.871 Y186.86 E65.51743
G0 F4800 X199.305 Y186.86
G1 F1080 X214.138 Y201.693 E66.45932
G0 F4800 X214.138 Y202.259
G1 F1080 X198.74 Y186.86 E67.43712
G0 F4800 X198.174 Y186.86
G1 F1080 X214.138 Y202.825 E68.45086
G0 F4800 X214.138 Y203.39
G1 F1080 X197.608 Y186.86 E69.50052
G0 F4800 X197.043 Y186.86
G1 F1080 X214.138 Y203.956 E70.58608
G0 F4800 X214.138 Y204.522
G1 F1080 X196.477 Y186.86 E71.70758
G0 F4800 X195.911 Y186.86
G1 F1080 X214.138 Y205.087 E72.86499
G0 F4800 X214.138 Y205.653
G1 F1080 X195.346 Y186.86 E74.05832
G0 F4800 X194.78 Y186.86
G1 F1080 X214.138 Y206.219 E75.28758
G0 F4800 X214.138 Y206.784
G1 F1080 X194.214 Y186.86 E76.55275
G0 F4800 X193.648 Y186.86
G1 F1080 X214.138 Y207.35 E77.85386
G0 F4800 X214.138 Y207.916
G1 F1080 X193.083 Y186.86 E79.19088
G0 F4800 X192.517 Y186.86
G1 F1080 X214.138 Y208.481 E80.56381
G0 F4800 X214.138 Y209.047
G1 F1080 X191.951 Y186.86 E81.97268
G0 F4800 X191.386 Y186.86
G1 F1080 X214.138 Y209.613 E83.41746
G0 F4800 X214.138 Y210.179
G1 F1080 X190.82 Y186.86 E84.89819
G0 F4800 X190.254 Y186.86
G1 F1080 X214.138 Y210.744 E86.41482
G0 F4800 X214.138 Y211.31
G1 F1080 X189.689 Y186.86 E87.96736
G0 F4800 X189.123 Y186.86
G1 F1080 X214.138 Y211.876 E89.55584
G0 F4800 X214.138 Y212.441
G1 F1080 X188.557 Y186.86 E91.18023
G0 F4800 X187.992 Y186.86
G1 F1080 X214.138 Y213.007 E92.84053
G0 F4800 X213.703 Y213.138
G1 F1080 X187.86 Y187.294 E94.48158
G0 F4800 X187.86 Y187.86
G1 F1080 X213.138 Y213.138 E96.08673
G0 F4800 X212.572 Y213.138
G1 F1080 X187.86 Y188.426 E97.65594
G0 F4800 X187.86 Y188.991
G1 F1080 X212.006 Y213.138 E99.18924
G0 F4800 X211.441 Y213.138
G1 F1080 X187.86 Y189.557 E100.68663
G0 F4800 X187.86 Y190.123
G1 F1080 X210.875 Y213.138 E102.14808
G0 F4800 X210.309 Y213.138
G1 F1080 X187.86 Y190.689 E103.57359
G0 F4800 X187.86 Y191.254
G1 F1080 X209.744 Y213.138 E104.96322
G0 F4800 X209.178 Y213.138
G1 F1080 X187.86 Y191.82 E106.31691
G0 F4800 X187.86 Y192.386
G1 F1080 X208.612 Y213.138 E107.63466
G0 F4800 X208.047 Y213.138
G1 F1080 X187.86 Y192.951 E108.91653
G0 F4800 X187.86 Y193.517
G1 F1080 X207.481 Y213.138 E110.16246
G0 F4800 X206.915 Y213.138
G1 F1080 X187.86 Y194.083 E111.37245
G0 F4800 X187.86 Y194.648
G1 F1080 X206.35 Y213.138 E112.54657
G0 F4800 X205.784 Y213.138
G1 F1080 X187.86 Y195.214 E113.68474
G0 F4800 X187.86 Y195.78
G1 F1080 X205.218 Y213.138 E114.78697
G0 F4800 X204.652 Y213.138
G1 F1080 X187.86 Y196.345 E115.85329
G0 F4800 X187.86 Y196.911
G1 F1080 X204.087 Y213.138 E116.8837
G0 F4800 X203.521 Y213.138
G1 F1080 X187.86 Y197.477 E117.87817
G0 F4800 X187.86 Y198.042
G1 F1080 X202.955 Y213.138 E118.83673
G0 F4800 X202.39 Y213.138
G1 F1080 X187.86 Y198.608 E119.75939
G0 F4800 X187.86 Y199.174
G1 F1080 X201.824 Y213.138 E120.6461
G0 F4800 X201.258 Y213.138
G1 F1080 X187.86 Y199.739 E121.4969
G0 F4800 X187.86 Y200.305
G1 F1080 X200.693 Y213.138 E122.3118
G0 F4800 X200.127 Y213.138
G1 F1080 X187.86 Y200.871 E123.09075
G0 F4800 X187.86 Y201.437
G1 F1080 X199.561 Y213.138 E123.83376
G0 F4800 X198.996 Y213.138
G1 F1080 X187.86 Y202.002 E124.5409
G0 F4800 X187.86 Y202.568
M104 S205
G1 F1080 X198.43 Y213.138 E125.21209
G0 F4800 X197.864 Y213.138
G1 F1080 X187.86 Y203.134 E125.84734
G0 F4800 X187.86 Y203.699
G1 F1080 X197.299 Y213.138 E126.44672
G0 F4800 X196.733 Y213.138
G1 F1080 X187.86 Y204.265 E127.01015
G0 F4800 X187.86 Y204.831
G1 F1080 X196.167 Y213.138 E127.53764
G0 F4800 X195.601 Y213.138
G1 F1080 X187.86 Y205.396 E128.02923
G0 F4800 X187.86 Y205.962
G1 F1080 X195.036 Y213.138 E128.4849
G0 F4800 X194.47 Y213.138
G1 F1080 X187.86 Y206.528 E128.90464
G0 F4800 X187.86 Y207.093
G1 F1080 X193.904 Y213.138 E129.28846
G0 F4800 X193.339 Y213.138
G1 F1080 X187.86 Y207.659 E129.63638
G0 F4800 X187.86 Y208.225
G1 F1080 X192.773 Y213.138 E129.94835
G0 F4800 X192.207 Y213.138
G1 F1080 X187.86 Y208.79 E130.22442
G0 F4800 X187.86 Y209.356
G1 F1080 X191.642 Y213.138 E130.46457
G0 F4800 X191.076 Y213.138
G1 F1080 X187.86 Y209.922 E130.66879
G0 F4800 X187.86 Y210.488
G1 F1080 X190.51 Y213.138 E130.83707
G0 F4800 X189.945 Y213.138
G1 F1080 X187.86 Y211.053 E130.96946
G0 F4800 X187.86 Y211.619
G1 F1080 X189.379 Y213.138 E131.06592
G0 F4800 X188.813 Y213.138
G1 F1080 X187.86 Y212.185 E131.12643
G0 F4800 X187.86 Y212.75
G1 F1080 X188.248 Y213.138 E131.15107
G1 F2400 E130.15107
G1 F600 Z0.8
;MESH:NONMESH
G0 F4800 X186.201 Y185.201 Z0.8
;TIME_ELAPSED:175.060367
;LAYER:1
M140 S60
M106 S255
;MESH:Z_Wobble_Test.stl
G0 F5400 X186.201 Y185.201 Z1
;TYPE:WALL-OUTER
G1 F600 Z0.5
G1 F2400 E131.17602
G1 F1170 X186.201 Y214.799 E132.06201
G1 X215.799 Y214.799 E132.948
G1 X215.799 Y185.201 E133.83399
G1 X186.201 Y185.201 E134.71998
G0 F5400 X186.201 Y185.401
G0 X186.601 Y185.601
;TYPE:WALL-INNER
G1 F1470 X186.601 Y214.399 E135.58202
G1 X215.399 Y214.399 E136.44406
G1 X215.399 Y185.601 E137.30611
G1 X186.601 Y185.601 E138.16815
G0 F5400 X187.001 Y186.001
G1 F1470 X187.001 Y213.999 E139.00624
G1 X214.999 Y213.999 E139.84434
G1 X214.999 Y186.001 E140.68244
G1 X187.001 Y186.001 E141.52053
G0 F5400 X187.261 Y186.261
;TYPE:SKIN
G1 F1440 X187.261 Y213.739 E142.34306
G1 X214.739 Y213.739 E143.16559
G1 X214.739 Y200 E143.57686
G1 X214.739 Y186.261 E143.98812
G1 X187.261 Y186.261 E144.81065
G0 F5400 X187.661 Y186.661
G1 F1440 X187.661 Y213.339 E145.60923
G1 X214.339 Y213.339 E146.40782
G1 X214.339 Y200 E146.80711
G1 X214.339 Y186.661 E147.2064
G1 X187.661 Y186.661 E148.00498
G0 F5400 X188.188 Y186.86
G1 F1440 X187.86 Y187.188 E148.01887
G0 F5400 X187.86 Y187.754
G1 F1440 X188.754 Y186.86 E148.05671
G0 F5400 X189.32 Y186.86
G1 F1440 X187.86 Y188.32 E148.11852
G0 F5400 X187.86 Y188.885
G1 F1440 X189.885 Y186.86 E148.20424
G0 F5400 X190.451 Y186.86
G1 F1440 X187.86 Y189.451 E148.31393
G0 F5400 X187.86 Y190.017
G1 F1440 X191.017 Y186.86 E148.44757
G0 F5400 X191.582 Y186.86
G1 F1440 X187.86 Y190.582 E148.60514
G0 F5400 X187.86 Y191.148
G1 F1440 X192.148 Y186.86 E148.78666
G0 F5400 X192.714 Y186.86
G1 F1440 X187.86 Y191.714 E148.99215
G0 F5400 X187.86 Y192.28
G1 F1440 X193.279 Y186.86 E149.22157
G0 F5400 X193.845 Y186.86
G1 F1440 X187.86 Y192.845 E149.47494
G0 F5400 X187.86 Y193.411
G1 F1440 X194.411 Y186.86 E149.75226
G0 F5400 X194.976 Y186.86
G1 F1440 X187.86 Y193.977 E150.05353
G0 F5400 X187.86 Y194.542
G1 F1440 X195.542 Y186.86 E150.37873
G0 F5400 X196.108 Y186.86
G1 F1440 X187.86 Y195.108 E150.7279
G0 F5400 X187.86 Y195.674
G1 F1440 X196.673 Y186.86 E151.101
G0 F5400 X197.239 Y186.86
G1 F1440 X187.86 Y196.239 E151.49804
G0 F5400 X187.86 Y196.805
G1 F1440 X197.805 Y186.86 E151.91905
G0 F5400 X198.371 Y186.86
G1 F1440 X187.86 Y197.371 E152.36401
G0 F5400 X187.86 Y197.936
G1 F1440 X198.936 Y186.86 E152.8329
G0 F5400 X199.502 Y186.86
G1 F1440 X187.86 Y198.502 E153.32574
G0 F5400 X187.86 Y199.068
G1 F1440 X200.068 Y186.86 E153.84254
G0 F5400 X200.633 Y186.86
G1 F1440 X187.86 Y199.633 E154.38327
G0 F5400 X187.86 Y200.199
G1 F1440 X201.199 Y186.86 E154.94795
G0 F5400 X201.765 Y186.86
G1 F1440 X187.86 Y200.765 E155.53659
G0 F5400 X187.86 Y201.33
G1 F1440 X202.33 Y186.86 E156.14915
G0 F5400 X202.896 Y186.86
G1 F1440 X187.86 Y201.896 E156.78568
G0 F5400 X187.86 Y202.462
G1 F1440 X203.462 Y186.86 E157.44616
G0 F5400 X204.027 Y186.86
G1 F1440 X187.86 Y203.028 E158.13058
G0 F5400 X187.86 Y203.593
G1 F1440 X204.593 Y186.86 E158.83895
G0 F5400 X205.159 Y186.86
G1 F1440 X187.86 Y204.159 E159.57127
G0 F5400 X187.86 Y204.725
G1 F1440 X205.724 Y186.86 E160.32753
G0 F5400 X206.29 Y186.86
G1 F1440 X187.86 Y205.29 E161.10773
G0 F5400 X187.86 Y205.856
G1 F1440 X206.856 Y186.86 E161.91189
G0 F5400 X207.421 Y186.86
G1 F1440 X187.86 Y206.422 E162.74
G0 F5400 X187.86 Y206.987
G1 F1440 X207.987 Y186.86 E163.59204
G0 F5400 X208.553 Y186.86
G1 F1440 X187.86 Y207.553 E164.46804
G0 F5400 X187.86 Y208.119
G1 F1440 X209.119 Y186.86 E165.368
G0 F5400 X209.684 Y186.86
G1 F1440 X187.86 Y208.684 E166.29188
G0 F5400 X187.86 Y209.25
G1 F1440 X210.25 Y186.86 E167.23972
G0 F5400 X210.816 Y186.86
G1 F1440 X187.86 Y209.816 E168.21152
G0 F5400 X187.86 Y210.381
G1 F1440 X211.381 Y186.86 E169.20725
G0 F5400 X211.947 Y186.86
G1 F1440 X187.86 Y210.947 E170.22693
G0 F5400 X187.86 Y211.513
G1 F1440 X212.513 Y186.86 E171.27057
G0 F5400 X213.078 Y186.86
G1 F1440 X187.86 Y212.079 E172.33815
G0 F5400 X187.86 Y212.644
G1 F1440 X213.644 Y186.86 E173.42967
G0 F5400 X214.138 Y186.932
G1 F1440 X187.932 Y213.138 E174.53905
G0 F5400 X188.497 Y213.138
G1 F1440 X214.138 Y187.498 E175.6245
G0 F5400 X214.138 Y188.064
G1 F1440 X189.063 Y213.138 E176.68598
G0 F5400 X189.629 Y213.138
G1 F1440 X214.138 Y188.629 E177.72353
G0 F5400 X214.138 Y189.195
G1 F1440 X190.194 Y213.138 E178.73713
G0 F5400 X190.76 Y213.138
